#############################################################
###########Gcode generated with LazerImg.py V0.1#############
######written by Nick Sidney Lemberger aka Holysocks#########
#############################################################

annette
laser_engraver(diode, 445nm)
X0.0 Y0.0 



F200.0 


G00 X0.0 Y0.0 Z0 F200.00
 G01 X21.75 Y1.5 Z0 F200.00 
G01 X21.25 Y1.5 Z24 F100.00 
G01 X21.0 Y1.5 Z0 F200.00 
G00 X21.0 Y2.0 Z0 F200.00 
G01 X21.25 Y2.0 Z0 F200.00 
G01 X21.75 Y2.0 Z131 F98.82 
G01 X22.25 Y2.0 Z230 F59.84 
G01 X22.5 Y2.0 Z0 F200.00 
G00 X22.5 Y2.5 Z0 F200.00 
G01 X22.25 Y2.5 Z0 F200.00 
G01 X21.75 Y2.5 Z255 F50.00 
G01 X21.25 Y2.5 Z169 F83.86 
G01 X21.0 Y2.5 Z0 F200.00 
G00 X21.0 Y3.0 Z0 F200.00 
G01 X20.75 Y3.0 Z0 F200.00 
G01 X21.25 Y3.0 Z27 F100.00 
G01 X21.75 Y3.0 Z249 F52.36 
G01 X22.25 Y3.0 Z255 F50.00 
G01 X22.5 Y3.0 Z0 F200.00 
G00 X22.5 Y3.5 Z0 F200.00 
G01 X22.75 Y3.5 Z0 F200.00 
G01 X21.25 Y3.5 Z255 F50.00 
G01 X20.75 Y3.5 Z119 F100.00 
G01 X20.5 Y3.5 Z0 F200.00 
G00 X20.5 Y4.0 Z0 F200.00 
G01 X20.75 Y4.0 Z0 F200.00 
G01 X21.25 Y4.0 Z166 F85.04 
G01 X22.75 Y4.0 Z255 F50.00 
G01 X23.0 Y4.0 Z0 F200.00 
G00 X23.0 Y4.5 Z0 F200.00 
G01 X23.25 Y4.5 Z0 F200.00 
G01 X22.75 Y4.5 Z255 F50.00 
G01 X21.75 Y4.5 Z254 F50.39 
G01 X20.75 Y4.5 Z255 F50.00 
G01 X20.25 Y4.5 Z44 F100.00 
G01 X20.0 Y4.5 Z0 F200.00 
G00 X20.0 Y5.0 Z0 F200.00 
G01 X20.25 Y5.0 Z0 F200.00 
G01 X20.75 Y5.0 Z170 F83.46 
G01 X23.25 Y5.0 Z255 F50.00 
G01 X23.75 Y5.0 Z222 F62.99 
G01 X24.0 Y5.0 Z0 F200.00 
G00 X24.0 Y5.5 Z0 F200.00 
G01 X23.75 Y5.5 Z0 F200.00 
G01 X23.25 Y5.5 Z255 F50.00 
G01 X22.75 Y5.5 Z254 F50.39 
G01 X20.75 Y5.5 Z255 F50.00 
G01 X20.25 Y5.5 Z207 F68.90 
G01 X20.0 Y5.5 Z0 F200.00 
G00 X20.0 Y6.0 Z0 F200.00 
G01 X19.75 Y6.0 Z0 F200.00 
G01 X20.25 Y6.0 Z80 F100.00 
G01 X23.75 Y6.0 Z255 F50.00 
G01 X24.25 Y6.0 Z217 F64.96 
G01 X24.5 Y6.0 Z0 F200.00 
G00 X24.5 Y6.5 Z0 F200.00 
G01 X24.25 Y6.5 Z0 F200.00 
G01 X22.75 Y6.5 Z255 F50.00 
G01 X22.25 Y6.5 Z254 F50.39 
G01 X21.25 Y6.5 Z255 F50.00 
G01 X20.75 Y6.5 Z254 F50.39 
G01 X20.25 Y6.5 Z255 F50.00 
G01 X19.75 Y6.5 Z146 F92.91 
G01 X19.5 Y6.5 Z0 F200.00 
G00 X19.5 Y7.0 Z0 F200.00 
G01 X19.75 Y7.0 Z0 F200.00 
G01 X20.25 Y7.0 Z221 F63.39 
G01 X24.25 Y7.0 Z255 F50.00 
G01 X24.75 Y7.0 Z213 F66.54 
G01 X25.0 Y7.0 Z0 F200.00 
G00 X25.0 Y7.5 Z0 F200.00 
G01 X24.75 Y7.5 Z0 F200.00 
G01 X20.25 Y7.5 Z255 F50.00 
G01 X19.75 Y7.5 Z232 F59.06 
G01 X19.25 Y7.5 Z24 F100.00 
G01 X19.0 Y7.5 Z0 F200.00 
G00 X19.0 Y8.0 Z0 F200.00 
G01 X19.25 Y8.0 Z0 F200.00 
G01 X19.75 Y8.0 Z114 F100.00 
G01 X20.25 Y8.0 Z255 F50.00 
G01 X20.75 Y8.0 Z254 F50.39 
G01 X21.25 Y8.0 Z255 F50.00 
G01 X21.75 Y8.0 Z254 F50.39 
G01 X24.75 Y8.0 Z255 F50.00 
G01 X25.0 Y8.0 Z0 F200.00 
G00 X25.0 Y8.5 Z0 F200.00 
G01 X25.25 Y8.5 Z0 F200.00 
G01 X24.75 Y8.5 Z255 F50.00 
G01 X24.25 Y8.5 Z254 F50.39 
G01 X22.75 Y8.5 Z255 F50.00 
G01 X22.25 Y8.5 Z254 F50.39 
G01 X21.25 Y8.5 Z255 F50.00 
G01 X20.75 Y8.5 Z254 F50.39 
G01 X19.75 Y8.5 Z255 F50.00 
G01 X19.25 Y8.5 Z180 F79.53 
G01 X19.0 Y8.5 Z0 F200.00 
G00 X19.0 Y9.0 Z0 F200.00 
G01 X18.75 Y9.0 Z0 F200.00 
G01 X19.25 Y9.0 Z68 F100.00 
G01 X19.75 Y9.0 Z253 F50.79 
G01 X20.75 Y9.0 Z255 F50.00 
G01 X21.25 Y9.0 Z254 F50.39 
G01 X23.75 Y9.0 Z255 F50.00 
G01 X24.25 Y9.0 Z254 F50.39 
G01 X25.25 Y9.0 Z255 F50.00 
G01 X25.5 Y9.0 Z0 F200.00 
G00 X25.5 Y9.5 Z0 F200.00 
G01 X25.75 Y9.5 Z0 F200.00 
G01 X25.25 Y9.5 Z255 F50.00 
G01 X24.75 Y9.5 Z254 F50.39 
G01 X21.75 Y9.5 Z255 F50.00 
G01 X21.25 Y9.5 Z254 F50.39 
G01 X19.25 Y9.5 Z255 F50.00 
G01 X18.75 Y9.5 Z153 F90.16 
G01 X18.5 Y9.5 Z0 F200.00 
G00 X18.5 Y10.0 Z0 F200.00 
G01 X18.25 Y10.0 Z0 F200.00 
G01 X18.75 Y10.0 Z24 F100.00 
G01 X19.25 Y10.0 Z228 F60.63 
G01 X20.75 Y10.0 Z255 F50.00 
G01 X21.25 Y10.0 Z254 F50.39 
G01 X23.75 Y10.0 Z255 F50.00 
G01 X24.25 Y10.0 Z254 F50.39 
G01 X25.75 Y10.0 Z255 F50.00 
G01 X26.25 Y10.0 Z222 F62.99 
G01 X26.5 Y10.0 Z0 F200.00 
G00 X26.5 Y10.5 Z0 F200.00 
G01 X26.25 Y10.5 Z0 F200.00 
G01 X25.25 Y10.5 Z255 F50.00 
G01 X24.75 Y10.5 Z254 F50.39 
G01 X21.75 Y10.5 Z255 F50.00 
G01 X21.25 Y10.5 Z254 F50.39 
G01 X18.75 Y10.5 Z255 F50.00 
G01 X18.25 Y10.5 Z51 F100.00 
G01 X18.0 Y10.5 Z0 F200.00 
G00 X18.0 Y11.0 Z0 F200.00 
G01 X18.25 Y11.0 Z0 F200.00 
G01 X18.75 Y11.0 Z175 F81.50 
G01 X19.75 Y11.0 Z255 F50.00 
G01 X20.25 Y11.0 Z254 F50.39 
G01 X22.25 Y11.0 Z255 F50.00 
G01 X23.25 Y11.0 Z254 F50.39 
G01 X24.25 Y11.0 Z255 F50.00 
G01 X24.75 Y11.0 Z254 F50.39 
G01 X26.25 Y11.0 Z255 F50.00 
G01 X26.75 Y11.0 Z215 F65.75 
G01 X27.0 Y11.0 Z0 F200.00 
G00 X27.0 Y11.5 Z0 F200.00 
G01 X26.75 Y11.5 Z0 F200.00 
G01 X26.25 Y11.5 Z254 F50.39 
G01 X24.25 Y11.5 Z255 F50.00 
G01 X23.25 Y11.5 Z254 F50.39 
G01 X20.75 Y11.5 Z255 F50.00 
G01 X20.25 Y11.5 Z186 F77.17 
G01 X19.75 Y11.5 Z228 F60.63 
G01 X18.75 Y11.5 Z255 F50.00 
G01 X18.25 Y11.5 Z210 F67.72 
G01 X17.75 Y11.5 Z11 F100.00 
G01 X17.5 Y11.5 Z0 F200.00 
G00 X17.5 Y12.0 Z0 F200.00 
G01 X17.75 Y12.0 Z0 F200.00 
G01 X18.25 Y12.0 Z68 F100.00 
G01 X18.75 Y12.0 Z254 F50.39 
G01 X19.75 Y12.0 Z255 F50.00 
G01 X20.25 Y12.0 Z66 F100.00 
G01 X20.75 Y12.0 Z0 F200.00 
G01 X21.25 Y12.0 Z187 F76.77 
G01 X21.75 Y12.0 Z254 F50.39 
G01 X26.75 Y12.0 Z255 F50.00 
G01 X27.25 Y12.0 Z218 F64.57 
G01 X27.5 Y12.0 Z0 F200.00 
G00 X27.5 Y12.5 Z0 F200.00 
G01 X27.25 Y12.5 Z0 F200.00 
G01 X25.75 Y12.5 Z255 F50.00 
G01 X24.75 Y12.5 Z254 F50.39 
G01 X21.25 Y12.5 Z255 F50.00 
G01 X20.75 Y12.5 Z76 F100.00 
G01 X20.25 Y12.5 Z0 F200.00 
G01 X19.75 Y12.5 Z3 F200.00 
G01 X19.25 Y12.5 Z184 F77.95 
G01 X18.75 Y12.5 Z254 F50.39 
G01 X18.25 Y12.5 Z255 F50.00 
G01 X17.75 Y12.5 Z159 F87.80 
G01 X17.5 Y12.5 Z0 F200.00 
G00 X17.5 Y13.0 Z0 F200.00 
G01 X17.75 Y13.0 Z0 F200.00 
G01 X18.25 Y13.0 Z215 F65.75 
G01 X18.75 Y13.0 Z253 F50.79 
G01 X19.25 Y13.0 Z255 F50.00 
G01 X19.75 Y13.0 Z140 F95.28 
G01 X20.75 Y13.0 Z0 F200.00 
G01 X21.25 Y13.0 Z4 F200.00 
G01 X21.75 Y13.0 Z189 F75.98 
G01 X25.75 Y13.0 Z255 F50.00 
G01 X26.25 Y13.0 Z254 F50.39 
G01 X27.25 Y13.0 Z255 F50.00 
G01 X27.5 Y13.0 Z0 F200.00 
G00 X27.5 Y13.5 Z0 F200.00 
G01 X27.75 Y13.5 Z0 F200.00 
G01 X27.25 Y13.5 Z244 F54.33 
G01 X21.75 Y13.5 Z255 F50.00 
G01 X21.25 Y13.5 Z84 F100.00 
G01 X20.25 Y13.5 Z0 F200.00 
G01 X19.75 Y13.5 Z2 F200.00 
G01 X19.25 Y13.5 Z27 F100.00 
G01 X18.75 Y13.5 Z240 F55.91 
G01 X17.75 Y13.5 Z255 F50.00 
G01 X17.25 Y13.5 Z92 F100.00 
G01 X17.0 Y13.5 Z0 F200.00 
G00 X17.0 Y14.0 Z0 F200.00 
G01 X17.25 Y14.0 Z0 F200.00 
G01 X17.75 Y14.0 Z209 F68.11 
G01 X18.75 Y14.0 Z255 F50.00 
G01 X19.25 Y14.0 Z205 F69.69 
G01 X19.75 Y14.0 Z6 F200.00 
G01 X20.25 Y14.0 Z0 F200.00 
G01 X20.75 Y14.0 Z2 F200.00 
G01 X21.75 Y14.0 Z0 F200.00 
G01 X22.25 Y14.0 Z197 F72.83 
G01 X26.25 Y14.0 Z255 F50.00 
G01 X26.75 Y14.0 Z254 F50.39 
G01 X27.75 Y14.0 Z255 F50.00 
G01 X28.0 Y14.0 Z0 F200.00 
G00 X28.0 Y14.5 Z0 F200.00 
G01 X28.25 Y14.5 Z0 F200.00 
G01 X27.75 Y14.5 Z251 F51.57 
G01 X24.25 Y14.5 Z255 F50.00 
G01 X23.75 Y14.5 Z254 F50.39 
G01 X22.25 Y14.5 Z255 F50.00 
G01 X21.75 Y14.5 Z78 F100.00 
G01 X19.25 Y14.5 Z0 F200.00 
G01 X18.75 Y14.5 Z104 F100.00 
G01 X17.75 Y14.5 Z255 F50.00 
G01 X17.25 Y14.5 Z240 F55.91 
G01 X16.75 Y14.5 Z27 F100.00 
G01 X16.5 Y14.5 Z0 F200.00 
G00 X16.5 Y15.0 Z0 F200.00 
G01 X16.75 Y15.0 Z0 F200.00 
G01 X17.25 Y15.0 Z135 F97.24 
G01 X18.25 Y15.0 Z255 F50.00 
G01 X18.75 Y15.0 Z240 F55.91 
G01 X19.25 Y15.0 Z45 F100.00 
G01 X21.75 Y15.0 Z0 F200.00 
G01 X22.25 Y15.0 Z2 F200.00 
G01 X22.75 Y15.0 Z197 F72.83 
G01 X24.25 Y15.0 Z255 F50.00 
G01 X24.75 Y15.0 Z254 F50.39 
G01 X25.75 Y15.0 Z255 F50.00 
G01 X26.25 Y15.0 Z254 F50.39 
G01 X26.75 Y15.0 Z255 F50.00 
G01 X27.25 Y15.0 Z254 F50.39 
G01 X28.25 Y15.0 Z255 F50.00 
G01 X28.5 Y15.0 Z0 F200.00 
G00 X28.5 Y15.5 Z0 F200.00 
G01 X28.75 Y15.5 Z0 F200.00 
G01 X22.75 Y15.5 Z255 F50.00 
G01 X22.25 Y15.5 Z69 F100.00 
G01 X18.75 Y15.5 Z0 F200.00 
G01 X18.25 Y15.5 Z155 F89.37 
G01 X17.75 Y15.5 Z255 F50.00 
G01 X17.25 Y15.5 Z254 F50.39 
G01 X16.75 Y15.5 Z186 F77.17 
G01 X16.5 Y15.5 Z0 F200.00 
G00 X16.5 Y16.0 Z0 F200.00 
G01 X16.25 Y16.0 Z0 F200.00 
G01 X16.75 Y16.0 Z33 F100.00 
G01 X17.25 Y16.0 Z254 F50.39 
G01 X18.25 Y16.0 Z255 F50.00 
G01 X18.75 Y16.0 Z71 F100.00 
G01 X21.25 Y16.0 Z0 F200.00 
G01 X21.75 Y16.0 Z2 F200.00 
G01 X22.75 Y16.0 Z0 F200.00 
G01 X23.25 Y16.0 Z189 F75.98 
G01 X28.75 Y16.0 Z255 F50.00 
G01 X29.0 Y16.0 Z0 F200.00 
G00 X29.0 Y16.5 Z0 F200.00 
G01 X33.25 Y16.5 Z0 F200.00 
G01 X32.75 Y16.5 Z16 F100.00 
G01 X32.25 Y16.5 Z0 F200.00 
G01 X31.75 Y16.5 Z2 F200.00 
G01 X29.75 Y16.5 Z0 F200.00 
G01 X29.25 Y16.5 Z55 F100.00 
G01 X28.75 Y16.5 Z251 F51.57 
G01 X23.25 Y16.5 Z255 F50.00 
G01 X22.75 Y16.5 Z71 F100.00 
G01 X18.75 Y16.5 Z0 F200.00 
G01 X18.25 Y16.5 Z7 F200.00 
G01 X17.75 Y16.5 Z209 F68.11 
G01 X16.75 Y16.5 Z255 F50.00 
G01 X16.25 Y16.5 Z135 F97.24 
G01 X16.0 Y16.5 Z0 F200.00 
G00 X16.0 Y17.0 Z0 F200.00 
G01 X16.25 Y17.0 Z0 F200.00 
G01 X16.75 Y17.0 Z181 F79.13 
G01 X17.25 Y17.0 Z254 F50.39 
G01 X17.75 Y17.0 Z255 F50.00 
G01 X18.25 Y17.0 Z175 F81.50 
G01 X18.75 Y17.0 Z2 F200.00 
G01 X21.25 Y17.0 Z0 F200.00 
G01 X21.75 Y17.0 Z2 F200.00 
G01 X22.75 Y17.0 Z0 F200.00 
G01 X23.25 Y17.0 Z3 F200.00 
G01 X23.75 Y17.0 Z186 F77.17 
G01 X27.75 Y17.0 Z255 F50.00 
G01 X28.25 Y17.0 Z254 F50.39 
G01 X28.75 Y17.0 Z255 F50.00 
G01 X29.25 Y17.0 Z254 F50.39 
G01 X29.75 Y17.0 Z166 F85.04 
G01 X31.25 Y17.0 Z0 F200.00 
G01 X31.75 Y17.0 Z2 F200.00 
G01 X32.25 Y17.0 Z3 F200.00 
G01 X32.75 Y17.0 Z78 F100.00 
G01 X33.25 Y17.0 Z206 F69.29 
G01 X33.5 Y17.0 Z0 F200.00 
G00 X33.5 Y17.5 Z0 F200.00 
G01 X33.75 Y17.5 Z0 F200.00 
G01 X32.25 Y17.5 Z255 F50.00 
G01 X31.75 Y17.5 Z201 F71.26 
G01 X31.25 Y17.5 Z77 F100.00 
G01 X29.75 Y17.5 Z0 F200.00 
G01 X29.25 Y17.5 Z221 F63.39 
G01 X23.75 Y17.5 Z255 F50.00 
G01 X23.25 Y17.5 Z81 F100.00 
G01 X22.25 Y17.5 Z0 F200.00 
G01 X21.75 Y17.5 Z2 F200.00 
G01 X20.25 Y17.5 Z0 F200.00 
G01 X19.75 Y17.5 Z2 F200.00 
G01 X18.25 Y17.5 Z0 F200.00 
G01 X17.75 Y17.5 Z50 F100.00 
G01 X17.25 Y17.5 Z254 F50.39 
G01 X16.75 Y17.5 Z255 F50.00 
G01 X16.25 Y17.5 Z254 F50.39 
G01 X15.75 Y17.5 Z55 F100.00 
G01 X15.5 Y17.5 Z0 F200.00 
G00 X15.5 Y18.0 Z0 F200.00 
G01 X15.75 Y18.0 Z0 F200.00 
G01 X16.25 Y18.0 Z107 F100.00 
G01 X16.75 Y18.0 Z255 F50.00 
G01 X17.25 Y18.0 Z254 F50.39 
G01 X17.75 Y18.0 Z227 F61.02 
G01 X18.25 Y18.0 Z24 F100.00 
G01 X22.25 Y18.0 Z0 F200.00 
G01 X22.75 Y18.0 Z2 F200.00 
G01 X23.25 Y18.0 Z0 F200.00 
G01 X23.75 Y18.0 Z3 F200.00 
G01 X24.25 Y18.0 Z191 F75.20 
G01 X24.75 Y18.0 Z254 F50.39 
G01 X28.25 Y18.0 Z255 F50.00 
G01 X28.75 Y18.0 Z232 F59.06 
G01 X29.25 Y18.0 Z130 F99.21 
G01 X29.75 Y18.0 Z9 F200.00 
G01 X30.25 Y18.0 Z4 F200.00 
G01 X30.75 Y18.0 Z75 F100.00 
G01 X31.25 Y18.0 Z201 F71.26 
G01 X31.75 Y18.0 Z252 F51.18 
G01 X32.25 Y18.0 Z255 F50.00 
G01 X32.75 Y18.0 Z254 F50.39 
G01 X33.25 Y18.0 Z190 F75.59 
G01 X33.5 Y18.0 Z0 F200.00 
G00 X33.5 Y18.5 Z0 F200.00 
G01 X33.25 Y18.5 Z0 F200.00 
G01 X32.75 Y18.5 Z4 F200.00 
G01 X32.25 Y18.5 Z59 F100.00 
G01 X31.75 Y18.5 Z189 F75.98 
G01 X31.25 Y18.5 Z247 F53.15 
G01 X30.75 Y18.5 Z255 F50.00 
G01 X30.25 Y18.5 Z252 F51.18 
G01 X29.75 Y18.5 Z203 F70.47 
G01 X29.25 Y18.5 Z69 F100.00 
G01 X28.75 Y18.5 Z3 F200.00 
G01 X28.25 Y18.5 Z20 F100.00 
G01 X27.75 Y18.5 Z124 F100.00 
G01 X27.25 Y18.5 Z230 F59.84 
G01 X24.25 Y18.5 Z255 F50.00 
G01 X23.75 Y18.5 Z80 F100.00 
G01 X17.75 Y18.5 Z0 F200.00 
G01 X17.25 Y18.5 Z153 F90.16 
G01 X16.25 Y18.5 Z255 F50.00 
G01 X15.75 Y18.5 Z203 F70.47 
G01 X15.5 Y18.5 Z0 F200.00 
G00 X15.5 Y19.0 Z0 F200.00 
G01 X15.25 Y19.0 Z0 F200.00 
G01 X15.75 Y19.0 Z57 F100.00 
G01 X16.25 Y19.0 Z250 F51.97 
G01 X16.75 Y19.0 Z254 F50.39 
G01 X17.25 Y19.0 Z253 F50.79 
G01 X17.75 Y19.0 Z66 F100.00 
G01 X24.25 Y19.0 Z0 F200.00 
G01 X24.75 Y19.0 Z198 F72.44 
G01 X26.25 Y19.0 Z255 F50.00 
G01 X26.75 Y19.0 Z237 F57.09 
G01 X27.25 Y19.0 Z123 F100.00 
G01 X27.75 Y19.0 Z21 F100.00 
G01 X28.25 Y19.0 Z0 F200.00 
G01 X28.75 Y19.0 Z70 F100.00 
G01 X29.25 Y19.0 Z201 F71.26 
G01 X29.75 Y19.0 Z255 F50.00 
G01 X30.25 Y19.0 Z254 F50.39 
G01 X30.75 Y19.0 Z235 F57.87 
G01 X31.25 Y19.0 Z190 F75.59 
G01 X31.75 Y19.0 Z62 F100.00 
G01 X32.25 Y19.0 Z0 F200.00 
G01 X32.75 Y19.0 Z9 F200.00 
G01 X33.25 Y19.0 Z22 F100.00 
G01 X33.75 Y19.0 Z134 F97.64 
G01 X34.25 Y19.0 Z234 F58.27 
G01 X34.5 Y19.0 Z0 F200.00 
G00 X34.5 Y19.5 Z0 F200.00 
G01 X34.25 Y19.5 Z0 F200.00 
G01 X32.75 Y19.5 Z255 F50.00 
G01 X32.25 Y19.5 Z198 F72.44 
G01 X31.75 Y19.5 Z76 F100.00 
G01 X31.25 Y19.5 Z0 F200.00 
G01 X30.75 Y19.5 Z2 F200.00 
G01 X30.25 Y19.5 Z11 F100.00 
G01 X29.75 Y19.5 Z116 F100.00 
G01 X29.25 Y19.5 Z230 F59.84 
G01 X28.25 Y19.5 Z255 F50.00 
G01 X27.75 Y19.5 Z203 F70.47 
G01 X27.25 Y19.5 Z78 F100.00 
G01 X26.75 Y19.5 Z0 F200.00 
G01 X26.25 Y19.5 Z15 F100.00 
G01 X25.75 Y19.5 Z126 F100.00 
G01 X25.25 Y19.5 Z238 F56.69 
G01 X24.75 Y19.5 Z255 F50.00 
G01 X24.25 Y19.5 Z69 F100.00 
G01 X21.75 Y19.5 Z0 F200.00 
G01 X21.25 Y19.5 Z2 F200.00 
G01 X17.75 Y19.5 Z0 F200.00 
G01 X17.25 Y19.5 Z18 F100.00 
G01 X16.75 Y19.5 Z239 F56.30 
G01 X16.25 Y19.5 Z255 F50.00 
G01 X15.75 Y19.5 Z254 F50.39 
G01 X15.25 Y19.5 Z163 F86.22 
G01 X15.0 Y19.5 Z0 F200.00 
G00 X15.0 Y20.0 Z0 F200.00 
G01 X15.25 Y20.0 Z0 F200.00 
G01 X15.75 Y20.0 Z232 F59.06 
G01 X16.25 Y20.0 Z184 F77.95 
G01 X16.75 Y20.0 Z163 F86.22 
G01 X17.25 Y20.0 Z83 F100.00 
G01 X24.25 Y20.0 Z0 F200.00 
G01 X24.75 Y20.0 Z3 F200.00 
G01 X25.25 Y20.0 Z98 F100.00 
G01 X25.75 Y20.0 Z12 F100.00 
G01 X26.25 Y20.0 Z2 F200.00 
G01 X26.75 Y20.0 Z77 F100.00 
G01 X27.25 Y20.0 Z204 F70.08 
G01 X28.25 Y20.0 Z254 F50.39 
G01 X28.75 Y20.0 Z227 F61.02 
G01 X29.25 Y20.0 Z117 F100.00 
G01 X29.75 Y20.0 Z12 F100.00 
G01 X30.75 Y20.0 Z0 F200.00 
G01 X31.25 Y20.0 Z74 F100.00 
G01 X31.75 Y20.0 Z199 F72.05 
G01 X32.25 Y20.0 Z253 F50.79 
G01 X32.75 Y20.0 Z254 F50.39 
G01 X33.25 Y20.0 Z255 F50.00 
G01 X33.75 Y20.0 Z189 F75.98 
G01 X34.0 Y20.0 Z0 F200.00 
G00 X34.0 Y20.5 Z0 F200.00 
G01 X35.25 Y20.5 Z0 F200.00 
G01 X34.75 Y20.5 Z204 F70.08 
G01 X34.25 Y20.5 Z66 F100.00 
G01 X33.75 Y20.5 Z4 F200.00 
G01 X33.25 Y20.5 Z6 F200.00 
G01 X32.75 Y20.5 Z65 F100.00 
G01 X32.25 Y20.5 Z191 F75.20 
G01 X31.75 Y20.5 Z250 F51.97 
G01 X31.25 Y20.5 Z255 F50.00 
G01 X30.75 Y20.5 Z251 F51.57 
G01 X30.25 Y20.5 Z199 F72.05 
G01 X29.75 Y20.5 Z74 F100.00 
G01 X29.25 Y20.5 Z7 F200.00 
G01 X28.75 Y20.5 Z2 F200.00 
G01 X28.25 Y20.5 Z20 F100.00 
G01 X27.75 Y20.5 Z116 F100.00 
G01 X27.25 Y20.5 Z223 F62.60 
G01 X26.75 Y20.5 Z254 F50.39 
G01 X26.25 Y20.5 Z252 F51.18 
G01 X25.75 Y20.5 Z203 F70.47 
G01 X25.25 Y20.5 Z74 F100.00 
G01 X24.75 Y20.5 Z7 F200.00 
G01 X22.75 Y20.5 Z0 F200.00 
G01 X22.25 Y20.5 Z51 F100.00 
G01 X21.75 Y20.5 Z69 F100.00 
G01 X21.25 Y20.5 Z68 F100.00 
G01 X20.75 Y20.5 Z65 F100.00 
G01 X20.25 Y20.5 Z68 F100.00 
G01 X18.75 Y20.5 Z66 F100.00 
G01 X18.25 Y20.5 Z65 F100.00 
G01 X17.75 Y20.5 Z68 F100.00 
G01 X17.25 Y20.5 Z61 F100.00 
G01 X16.75 Y20.5 Z3 F200.00 
G01 X16.25 Y20.5 Z2 F200.00 
G01 X15.75 Y20.5 Z9 F200.00 
G01 X15.25 Y20.5 Z36 F100.00 
G01 X15.0 Y20.5 Z0 F200.00 
G00 X15.0 Y21.0 Z0 F200.00 
G01 X15.25 Y21.0 Z0 F200.00 
G01 X15.75 Y21.0 Z20 F100.00 
G01 X16.25 Y21.0 Z70 F100.00 
G01 X16.75 Y21.0 Z187 F76.77 
G01 X17.25 Y21.0 Z186 F77.17 
G01 X17.75 Y21.0 Z248 F52.76 
G01 X22.25 Y21.0 Z255 F50.00 
G01 X22.75 Y21.0 Z197 F72.83 
G01 X23.75 Y21.0 Z0 F200.00 
G01 X24.25 Y21.0 Z9 F200.00 
G01 X24.75 Y21.0 Z78 F100.00 
G01 X25.25 Y21.0 Z203 F70.47 
G01 X26.25 Y21.0 Z255 F50.00 
G01 X26.75 Y21.0 Z227 F61.02 
G01 X27.25 Y21.0 Z111 F100.00 
G01 X27.75 Y21.0 Z20 F100.00 
G01 X28.25 Y21.0 Z0 F200.00 
G01 X28.75 Y21.0 Z2 F200.00 
G01 X29.25 Y21.0 Z20 F100.00 
G01 X29.75 Y21.0 Z149 F91.73 
G01 X30.25 Y21.0 Z255 F50.00 
G01 X30.75 Y21.0 Z254 F50.39 
G01 X31.25 Y21.0 Z249 F52.36 
G01 X31.75 Y21.0 Z191 F75.20 
G01 X32.25 Y21.0 Z65 F100.00 
G01 X32.75 Y21.0 Z3 F200.00 
G01 X33.25 Y21.0 Z0 F200.00 
G01 X33.75 Y21.0 Z57 F100.00 
G01 X34.25 Y21.0 Z197 F72.83 
G01 X34.75 Y21.0 Z254 F50.39 
G01 X35.25 Y21.0 Z255 F50.00 
G01 X35.5 Y21.0 Z0 F200.00 
G00 X35.5 Y21.5 Z0 F200.00 
G01 X35.25 Y21.5 Z0 F200.00 
G01 X34.75 Y21.5 Z250 F51.97 
G01 X33.75 Y21.5 Z255 F50.00 
G01 X33.25 Y21.5 Z234 F58.27 
G01 X32.75 Y21.5 Z127 F100.00 
G01 X32.25 Y21.5 Z16 F100.00 
G01 X31.75 Y21.5 Z2 F200.00 
G01 X31.25 Y21.5 Z0 F200.00 
G01 X30.75 Y21.5 Z68 F100.00 
G01 X30.25 Y21.5 Z189 F75.98 
G01 X29.75 Y21.5 Z254 F50.39 
G01 X29.25 Y21.5 Z255 F50.00 
G01 X28.75 Y21.5 Z237 F57.09 
G01 X28.25 Y21.5 Z130 F99.21 
G01 X27.75 Y21.5 Z20 F100.00 
G01 X26.75 Y21.5 Z0 F200.00 
G01 X26.25 Y21.5 Z12 F100.00 
G01 X25.75 Y21.5 Z113 F100.00 
G01 X25.25 Y21.5 Z228 F60.63 
G01 X24.75 Y21.5 Z255 F50.00 
G01 X24.25 Y21.5 Z254 F50.39 
G01 X23.75 Y21.5 Z201 F71.26 
G01 X23.25 Y21.5 Z83 F100.00 
G01 X22.75 Y21.5 Z0 F200.00 
G01 X22.25 Y21.5 Z69 F100.00 
G01 X21.75 Y21.5 Z123 F100.00 
G01 X21.25 Y21.5 Z237 F57.09 
G01 X15.75 Y21.5 Z255 F50.00 
G01 X15.25 Y21.5 Z245 F53.94 
G01 X14.75 Y21.5 Z146 F92.91 
G01 X14.25 Y21.5 Z30 F100.00 
G01 X14.0 Y21.5 Z0 F200.00 
G00 X14.0 Y22.0 Z0 F200.00 
G01 X13.25 Y22.0 Z0 F200.00 
G01 X13.75 Y22.0 Z29 F100.00 
G01 X14.25 Y22.0 Z144 F93.70 
G01 X14.75 Y22.0 Z249 F52.36 
G01 X16.25 Y22.0 Z255 F50.00 
G01 X16.75 Y22.0 Z254 F50.39 
G01 X17.75 Y22.0 Z255 F50.00 
G01 X18.25 Y22.0 Z254 F50.39 
G01 X20.25 Y22.0 Z255 F50.00 
G01 X20.75 Y22.0 Z158 F88.19 
G01 X21.25 Y22.0 Z109 F100.00 
G01 X21.75 Y22.0 Z3 F200.00 
G01 X22.25 Y22.0 Z2 F200.00 
G01 X22.75 Y22.0 Z72 F100.00 
G01 X23.25 Y22.0 Z205 F69.69 
G01 X24.25 Y22.0 Z255 F50.00 
G01 X24.75 Y22.0 Z230 F59.84 
G01 X25.25 Y22.0 Z114 F100.00 
G01 X25.75 Y22.0 Z11 F100.00 
G01 X26.75 Y22.0 Z0 F200.00 
G01 X27.25 Y22.0 Z83 F100.00 
G01 X27.75 Y22.0 Z132 F98.43 
G01 X28.25 Y22.0 Z240 F55.91 
G01 X29.25 Y22.0 Z255 F50.00 
G01 X29.75 Y22.0 Z187 F76.77 
G01 X30.25 Y22.0 Z65 F100.00 
G01 X31.25 Y22.0 Z0 F200.00 
G01 X31.75 Y22.0 Z80 F100.00 
G01 X32.25 Y22.0 Z129 F99.61 
G01 X32.75 Y22.0 Z239 F56.30 
G01 X33.25 Y22.0 Z254 F50.39 
G01 X33.75 Y22.0 Z255 F50.00 
G01 X34.25 Y22.0 Z244 F54.33 
G01 X34.75 Y22.0 Z141 F94.88 
G01 X35.0 Y22.0 Z0 F200.00 
G00 X35.0 Y22.5 Z0 F200.00 
G01 X35.75 Y22.5 Z0 F200.00 
G01 X35.25 Y22.5 Z62 F100.00 
G01 X34.75 Y22.5 Z0 F200.00 
G01 X34.25 Y22.5 Z2 F200.00 
G01 X33.75 Y22.5 Z27 F100.00 
G01 X33.25 Y22.5 Z142 F94.49 
G01 X32.75 Y22.5 Z236 F57.48 
G01 X31.75 Y22.5 Z255 F50.00 
G01 X31.25 Y22.5 Z253 F50.79 
G01 X30.75 Y22.5 Z123 F100.00 
G01 X30.25 Y22.5 Z27 F100.00 
G01 X29.75 Y22.5 Z0 F200.00 
G01 X29.25 Y22.5 Z5 F200.00 
G01 X28.75 Y22.5 Z62 F100.00 
G01 X28.25 Y22.5 Z189 F75.98 
G01 X27.75 Y22.5 Z253 F50.79 
G01 X26.75 Y22.5 Z255 F50.00 
G01 X26.25 Y22.5 Z129 F99.61 
G01 X25.75 Y22.5 Z29 F100.00 
G01 X24.75 Y22.5 Z0 F200.00 
G01 X24.25 Y22.5 Z15 F100.00 
G01 X23.75 Y22.5 Z114 F100.00 
G01 X23.25 Y22.5 Z215 F65.75 
G01 X22.75 Y22.5 Z254 F50.39 
G01 X22.25 Y22.5 Z252 F51.18 
G01 X21.75 Y22.5 Z204 F70.08 
G01 X21.25 Y22.5 Z77 F100.00 
G01 X20.75 Y22.5 Z60 F100.00 
G01 X20.25 Y22.5 Z64 F100.00 
G01 X19.75 Y22.5 Z215 F65.75 
G01 X19.25 Y22.5 Z255 F50.00 
G01 X18.75 Y22.5 Z254 F50.39 
G01 X14.75 Y22.5 Z255 F50.00 
G01 X14.25 Y22.5 Z254 F50.39 
G01 X13.75 Y22.5 Z255 F50.00 
G01 X13.25 Y22.5 Z243 F54.72 
G01 X12.75 Y22.5 Z135 F97.24 
G01 X12.5 Y22.5 Z0 F200.00 
G00 X12.5 Y23.0 Z0 F200.00 
G01 X11.75 Y23.0 Z0 F200.00 
G01 X12.25 Y23.0 Z24 F100.00 
G01 X12.75 Y23.0 Z141 F94.88 
G01 X13.25 Y23.0 Z255 F50.00 
G01 X13.75 Y23.0 Z254 F50.39 
G01 X18.25 Y23.0 Z255 F50.00 
G01 X18.75 Y23.0 Z254 F50.39 
G01 X19.75 Y23.0 Z255 F50.00 
G01 X20.25 Y23.0 Z254 F50.39 
G01 X22.75 Y23.0 Z255 F50.00 
G01 X23.25 Y23.0 Z243 F54.72 
G01 X23.75 Y23.0 Z65 F100.00 
G01 X24.75 Y23.0 Z0 F200.00 
G01 X25.25 Y23.0 Z26 F100.00 
G01 X25.75 Y23.0 Z135 F97.24 
G01 X26.25 Y23.0 Z230 F59.84 
G01 X26.75 Y23.0 Z255 F50.00 
G01 X27.25 Y23.0 Z248 F52.76 
G01 X27.75 Y23.0 Z189 F75.98 
G01 X28.25 Y23.0 Z62 F100.00 
G01 X28.75 Y23.0 Z5 F200.00 
G01 X29.25 Y23.0 Z2 F200.00 
G01 X29.75 Y23.0 Z24 F100.00 
G01 X30.25 Y23.0 Z129 F99.61 
G01 X30.75 Y23.0 Z230 F59.84 
G01 X31.75 Y23.0 Z255 F50.00 
G01 X32.25 Y23.0 Z235 F57.87 
G01 X32.75 Y23.0 Z140 F95.28 
G01 X33.25 Y23.0 Z31 F100.00 
G01 X33.75 Y23.0 Z0 F200.00 
G01 X34.25 Y23.0 Z5 F200.00 
G01 X34.75 Y23.0 Z53 F100.00 
G01 X35.25 Y23.0 Z178 F80.31 
G01 X35.75 Y23.0 Z248 F52.76 
G01 X36.25 Y23.0 Z255 F50.00 
G01 X36.5 Y23.0 Z0 F200.00 
G00 X36.5 Y23.5 Z0 F200.00 
G01 X36.25 Y23.5 Z0 F200.00 
G01 X35.75 Y23.5 Z217 F64.96 
G01 X35.25 Y23.5 Z253 F50.79 
G01 X34.75 Y23.5 Z255 F50.00 
G01 X34.25 Y23.5 Z253 F50.79 
G01 X33.75 Y23.5 Z178 F80.31 
G01 X33.25 Y23.5 Z54 F100.00 
G01 X32.75 Y23.5 Z3 F200.00 
G01 X32.25 Y23.5 Z0 F200.00 
G01 X31.75 Y23.5 Z30 F100.00 
G01 X31.25 Y23.5 Z134 F97.64 
G01 X30.75 Y23.5 Z241 F55.51 
G01 X29.75 Y23.5 Z255 F50.00 
G01 X29.25 Y23.5 Z232 F59.06 
G01 X28.75 Y23.5 Z131 F98.82 
G01 X28.25 Y23.5 Z20 F100.00 
G01 X27.75 Y23.5 Z2 F200.00 
G01 X27.25 Y23.5 Z0 F200.00 
G01 X26.75 Y23.5 Z64 F100.00 
G01 X26.25 Y23.5 Z187 F76.77 
G01 X25.75 Y23.5 Z251 F51.57 
G01 X25.25 Y23.5 Z255 F50.00 
G01 X24.75 Y23.5 Z230 F59.84 
G01 X24.25 Y23.5 Z156 F88.98 
G01 X23.75 Y23.5 Z170 F83.46 
G01 X23.25 Y23.5 Z249 F52.36 
G01 X21.75 Y23.5 Z255 F50.00 
G01 X21.25 Y23.5 Z254 F50.39 
G01 X15.75 Y23.5 Z255 F50.00 
G01 X15.25 Y23.5 Z238 F56.69 
G01 X14.75 Y23.5 Z228 F60.63 
G01 X14.25 Y23.5 Z252 F51.18 
G01 X13.25 Y23.5 Z255 F50.00 
G01 X12.75 Y23.5 Z254 F50.39 
G01 X12.25 Y23.5 Z255 F50.00 
G01 X11.75 Y23.5 Z238 F56.69 
G01 X11.25 Y23.5 Z53 F100.00 
G01 X11.0 Y23.5 Z0 F200.00 
G00 X11.0 Y24.0 Z0 F200.00 
G01 X10.75 Y24.0 Z0 F200.00 
G01 X11.25 Y24.0 Z53 F100.00 
G01 X11.75 Y24.0 Z243 F54.72 
G01 X14.25 Y24.0 Z255 F50.00 
G01 X14.75 Y24.0 Z163 F86.22 
G01 X15.25 Y24.0 Z0 F200.00 
G01 X15.75 Y24.0 Z42 F100.00 
G01 X16.25 Y24.0 Z227 F61.02 
G01 X19.25 Y24.0 Z255 F50.00 
G01 X19.75 Y24.0 Z254 F50.39 
G01 X25.25 Y24.0 Z255 F50.00 
G01 X25.75 Y24.0 Z252 F51.18 
G01 X26.25 Y24.0 Z71 F100.00 
G01 X27.25 Y24.0 Z0 F200.00 
G01 X27.75 Y24.0 Z18 F100.00 
G01 X28.25 Y24.0 Z129 F99.61 
G01 X28.75 Y24.0 Z240 F55.91 
G01 X29.25 Y24.0 Z254 F50.39 
G01 X29.75 Y24.0 Z255 F50.00 
G01 X30.25 Y24.0 Z244 F54.33 
G01 X30.75 Y24.0 Z140 F95.28 
G01 X31.25 Y24.0 Z24 F100.00 
G01 X32.25 Y24.0 Z0 F200.00 
G01 X32.75 Y24.0 Z55 F100.00 
G01 X33.25 Y24.0 Z177 F80.71 
G01 X34.75 Y24.0 Z255 F50.00 
G01 X35.25 Y24.0 Z212 F66.93 
G01 X35.5 Y24.0 Z0 F200.00 
G00 X35.5 Y24.5 Z0 F200.00 
G01 X36.75 Y24.5 Z0 F200.00 
G01 X36.25 Y24.5 Z238 F56.69 
G01 X35.75 Y24.5 Z114 F100.00 
G01 X35.25 Y24.5 Z18 F100.00 
G01 X34.75 Y24.5 Z0 F200.00 
G01 X34.25 Y24.5 Z83 F100.00 
G01 X33.75 Y24.5 Z206 F69.29 
G01 X32.75 Y24.5 Z255 F50.00 
G01 X32.25 Y24.5 Z250 F51.97 
G01 X31.75 Y24.5 Z177 F80.71 
G01 X31.25 Y24.5 Z57 F100.00 
G01 X30.25 Y24.5 Z0 F200.00 
G01 X29.75 Y24.5 Z18 F100.00 
G01 X29.25 Y24.5 Z141 F94.88 
G01 X28.75 Y24.5 Z237 F57.09 
G01 X27.75 Y24.5 Z255 F50.00 
G01 X27.25 Y24.5 Z237 F57.09 
G01 X26.75 Y24.5 Z125 F100.00 
G01 X26.25 Y24.5 Z18 F100.00 
G01 X25.75 Y24.5 Z44 F100.00 
G01 X25.25 Y24.5 Z247 F53.15 
G01 X19.25 Y24.5 Z255 F50.00 
G01 X18.75 Y24.5 Z254 F50.39 
G01 X18.25 Y24.5 Z255 F50.00 
G01 X17.75 Y24.5 Z254 F50.39 
G01 X16.25 Y24.5 Z255 F50.00 
G01 X15.75 Y24.5 Z125 F100.00 
G01 X15.25 Y24.5 Z0 F200.00 
G01 X14.75 Y24.5 Z2 F200.00 
G01 X14.25 Y24.5 Z93 F100.00 
G01 X11.75 Y24.5 Z255 F50.00 
G01 X11.25 Y24.5 Z254 F50.39 
G01 X10.75 Y24.5 Z69 F100.00 
G01 X10.5 Y24.5 Z0 F200.00 
G00 X10.5 Y25.0 Z0 F200.00 
G01 X11.25 Y25.0 Z0 F200.00 
G01 X11.75 Y25.0 Z76 F100.00 
G01 X12.25 Y25.0 Z248 F52.76 
G01 X14.25 Y25.0 Z255 F50.00 
G01 X14.75 Y25.0 Z126 F100.00 
G01 X15.25 Y25.0 Z0 F200.00 
G01 X15.75 Y25.0 Z15 F100.00 
G01 X16.25 Y25.0 Z219 F64.17 
G01 X16.75 Y25.0 Z255 F50.00 
G01 X17.25 Y25.0 Z254 F50.39 
G01 X18.25 Y25.0 Z255 F50.00 
G01 X18.75 Y25.0 Z254 F50.39 
G01 X25.75 Y25.0 Z255 F50.00 
G01 X26.25 Y25.0 Z230 F59.84 
G01 X26.75 Y25.0 Z216 F65.35 
G01 X27.25 Y25.0 Z254 F50.39 
G01 X27.75 Y25.0 Z255 F50.00 
G01 X28.25 Y25.0 Z234 F58.27 
G01 X28.75 Y25.0 Z140 F95.28 
G01 X29.25 Y25.0 Z29 F100.00 
G01 X29.75 Y25.0 Z0 F200.00 
G01 X30.25 Y25.0 Z21 F100.00 
G01 X30.75 Y25.0 Z123 F100.00 
G01 X31.25 Y25.0 Z213 F66.54 
G01 X31.75 Y25.0 Z243 F54.72 
G01 X32.75 Y25.0 Z255 F50.00 
G01 X33.25 Y25.0 Z209 F68.11 
G01 X33.75 Y25.0 Z83 F100.00 
G01 X34.25 Y25.0 Z3 F200.00 
G01 X34.75 Y25.0 Z16 F100.00 
G01 X35.25 Y25.0 Z111 F100.00 
G01 X35.75 Y25.0 Z228 F60.63 
G01 X37.25 Y25.0 Z255 F50.00 
G01 X37.5 Y25.0 Z0 F200.00 
G00 X37.5 Y25.5 Z0 F200.00 
G01 X36.75 Y25.5 Z0 F200.00 
G01 X36.25 Y25.5 Z215 F65.75 
G01 X35.75 Y25.5 Z252 F51.18 
G01 X34.75 Y25.5 Z255 F50.00 
G01 X34.25 Y25.5 Z215 F65.75 
G01 X33.75 Y25.5 Z44 F100.00 
G01 X33.25 Y25.5 Z0 F200.00 
G01 X32.75 Y25.5 Z7 F200.00 
G01 X32.25 Y25.5 Z83 F100.00 
G01 X31.75 Y25.5 Z210 F67.72 
G01 X31.25 Y25.5 Z252 F51.18 
G01 X30.25 Y25.5 Z255 F50.00 
G01 X29.75 Y25.5 Z221 F63.39 
G01 X29.25 Y25.5 Z50 F100.00 
G01 X28.75 Y25.5 Z4 F200.00 
G01 X28.25 Y25.5 Z2 F200.00 
G01 X27.75 Y25.5 Z28 F100.00 
G01 X27.25 Y25.5 Z146 F92.91 
G01 X15.75 Y25.5 Z255 F50.00 
G01 X15.25 Y25.5 Z204 F70.08 
G01 X14.75 Y25.5 Z174 F81.89 
G01 X14.25 Y25.5 Z248 F52.76 
G01 X13.75 Y25.5 Z254 F50.39 
G01 X12.75 Y25.5 Z255 F50.00 
G01 X12.25 Y25.5 Z184 F77.95 
G01 X11.75 Y25.5 Z44 F100.00 
G01 X11.5 Y25.5 Z0 F200.00 
G00 X11.5 Y26.0 Z0 F200.00 
G01 X12.25 Y26.0 Z0 F200.00 
G01 X12.75 Y26.0 Z150 F91.34 
G01 X14.25 Y26.0 Z255 F50.00 
G01 X14.75 Y26.0 Z254 F50.39 
G01 X16.25 Y26.0 Z255 F50.00 
G01 X16.75 Y26.0 Z254 F50.39 
G01 X27.25 Y26.0 Z255 F50.00 
G01 X27.75 Y26.0 Z90 F100.00 
G01 X28.25 Y26.0 Z0 F200.00 
G01 X28.75 Y26.0 Z57 F100.00 
G01 X29.25 Y26.0 Z178 F80.31 
G01 X30.75 Y26.0 Z255 F50.00 
G01 X31.25 Y26.0 Z209 F68.11 
G01 X31.75 Y26.0 Z85 F100.00 
G01 X32.75 Y26.0 Z0 F200.00 
G01 X33.25 Y26.0 Z50 F100.00 
G01 X33.75 Y26.0 Z174 F81.89 
G01 X35.25 Y26.0 Z255 F50.00 
G01 X35.75 Y26.0 Z213 F66.54 
G01 X36.25 Y26.0 Z90 F100.00 
G01 X36.75 Y26.0 Z0 F200.00 
G01 X37.25 Y26.0 Z2 F200.00 
G01 X37.75 Y26.0 Z129 F99.61 
G01 X38.0 Y26.0 Z0 F200.00 
G00 X38.0 Y26.5 Z0 F200.00 
G01 X37.75 Y26.5 Z0 F200.00 
G01 X37.25 Y26.5 Z255 F50.00 
G01 X36.75 Y26.5 Z167 F84.65 
G01 X36.25 Y26.5 Z52 F100.00 
G01 X35.25 Y26.5 Z0 F200.00 
G01 X34.75 Y26.5 Z93 F100.00 
G01 X34.25 Y26.5 Z209 F68.11 
G01 X33.25 Y26.5 Z255 F50.00 
G01 X32.75 Y26.5 Z253 F50.79 
G01 X32.25 Y26.5 Z174 F81.89 
G01 X31.75 Y26.5 Z57 F100.00 
G01 X30.75 Y26.5 Z0 F200.00 
G01 X30.25 Y26.5 Z88 F100.00 
G01 X29.75 Y26.5 Z204 F70.08 
G01 X29.25 Y26.5 Z255 F50.00 
G01 X28.75 Y26.5 Z254 F50.39 
G01 X28.25 Y26.5 Z253 F50.79 
G01 X27.75 Y26.5 Z174 F81.89 
G01 X27.25 Y26.5 Z221 F63.39 
G01 X26.75 Y26.5 Z254 F50.39 
G01 X25.75 Y26.5 Z255 F50.00 
G01 X25.25 Y26.5 Z254 F50.39 
G01 X24.75 Y26.5 Z255 F50.00 
G01 X24.25 Y26.5 Z254 F50.39 
G01 X17.25 Y26.5 Z255 F50.00 
G01 X16.75 Y26.5 Z254 F50.39 
G01 X13.25 Y26.5 Z255 F50.00 
G01 X12.75 Y26.5 Z254 F50.39 
G01 X12.25 Y26.5 Z255 F50.00 
G01 X11.75 Y26.5 Z96 F100.00 
G01 X11.5 Y26.5 Z0 F200.00 
G00 X11.5 Y27.0 Z0 F200.00 
G01 X11.25 Y27.0 Z0 F200.00 
G01 X11.75 Y27.0 Z105 F100.00 
G01 X17.25 Y27.0 Z255 F50.00 
G01 X17.75 Y27.0 Z254 F50.39 
G01 X24.75 Y27.0 Z255 F50.00 
G01 X25.25 Y27.0 Z254 F50.39 
G01 X28.25 Y27.0 Z255 F50.00 
G01 X28.75 Y27.0 Z254 F50.39 
G01 X29.25 Y27.0 Z248 F52.76 
G01 X29.75 Y27.0 Z79 F100.00 
G01 X30.25 Y27.0 Z5 F200.00 
G01 X30.75 Y27.0 Z2 F200.00 
G01 X31.25 Y27.0 Z51 F100.00 
G01 X31.75 Y27.0 Z178 F80.31 
G01 X32.25 Y27.0 Z247 F53.15 
G01 X33.25 Y27.0 Z255 F50.00 
G01 X33.75 Y27.0 Z250 F51.97 
G01 X34.25 Y27.0 Z87 F100.00 
G01 X34.75 Y27.0 Z6 F200.00 
G01 X35.25 Y27.0 Z0 F200.00 
G01 X35.75 Y27.0 Z48 F100.00 
G01 X36.25 Y27.0 Z174 F81.89 
G01 X36.75 Y27.0 Z245 F53.94 
G01 X37.75 Y27.0 Z255 F50.00 
G01 X38.25 Y27.0 Z209 F68.11 
G01 X38.5 Y27.0 Z0 F200.00 
G00 X38.5 Y27.5 Z0 F200.00 
G01 X37.75 Y27.5 Z0 F200.00 
G01 X37.25 Y27.5 Z92 F100.00 
G01 X36.75 Y27.5 Z215 F65.75 
G01 X36.25 Y27.5 Z253 F50.79 
G01 X35.75 Y27.5 Z255 F50.00 
G01 X35.25 Y27.5 Z245 F53.94 
G01 X34.75 Y27.5 Z174 F81.89 
G01 X34.25 Y27.5 Z44 F100.00 
G01 X33.75 Y27.5 Z0 F200.00 
G01 X33.25 Y27.5 Z37 F100.00 
G01 X32.75 Y27.5 Z160 F87.40 
G01 X32.25 Y27.5 Z243 F54.72 
G01 X31.25 Y27.5 Z255 F50.00 
G01 X30.75 Y27.5 Z247 F53.15 
G01 X30.25 Y27.5 Z178 F80.31 
G01 X29.75 Y27.5 Z50 F100.00 
G01 X29.25 Y27.5 Z0 F200.00 
G01 X28.75 Y27.5 Z28 F100.00 
G01 X28.25 Y27.5 Z183 F78.35 
G01 X12.25 Y27.5 Z255 F50.00 
G01 X11.75 Y27.5 Z253 F50.79 
G01 X11.25 Y27.5 Z182 F78.74 
G01 X11.0 Y27.5 Z0 F200.00 
G00 X11.0 Y28.0 Z0 F200.00 
G01 X11.75 Y28.0 Z0 F200.00 
G01 X12.25 Y28.0 Z60 F100.00 
G01 X12.75 Y28.0 Z180 F79.53 
G01 X13.25 Y28.0 Z251 F51.57 
G01 X17.25 Y28.0 Z255 F50.00 
G01 X17.75 Y28.0 Z254 F50.39 
G01 X28.25 Y28.0 Z255 F50.00 
G01 X28.75 Y28.0 Z219 F64.17 
G01 X29.25 Y28.0 Z20 F100.00 
G01 X29.75 Y28.0 Z123 F100.00 
G01 X31.25 Y28.0 Z255 F50.00 
G01 X31.75 Y28.0 Z249 F52.36 
G01 X32.25 Y28.0 Z157 F88.58 
G01 X32.75 Y28.0 Z44 F100.00 
G01 X33.25 Y28.0 Z0 F200.00 
G01 X33.75 Y28.0 Z39 F100.00 
G01 X34.25 Y28.0 Z174 F81.89 
G01 X35.75 Y28.0 Z254 F50.39 
G01 X36.25 Y28.0 Z215 F65.75 
G01 X36.5 Y28.0 Z0 F200.00 
G00 X36.5 Y28.5 Z0 F200.00 
G01 X35.25 Y28.5 Z0 F200.00 
G01 X34.75 Y28.5 Z216 F65.35 
G01 X34.25 Y28.5 Z254 F50.39 
G01 X33.25 Y28.5 Z255 F50.00 
G01 X32.75 Y28.5 Z170 F83.46 
G01 X32.25 Y28.5 Z48 F100.00 
G01 X31.75 Y28.5 Z0 F200.00 
G01 X31.25 Y28.5 Z33 F100.00 
G01 X30.75 Y28.5 Z162 F86.61 
G01 X29.75 Y28.5 Z255 F50.00 
G01 X29.25 Y28.5 Z252 F51.18 
G01 X28.75 Y28.5 Z247 F53.15 
G01 X25.75 Y28.5 Z255 F50.00 
G01 X25.25 Y28.5 Z254 F50.39 
G01 X24.25 Y28.5 Z255 F50.00 
G01 X23.75 Y28.5 Z254 F50.39 
G01 X22.75 Y28.5 Z255 F50.00 
G01 X22.25 Y28.5 Z254 F50.39 
G01 X18.75 Y28.5 Z255 F50.00 
G01 X18.25 Y28.5 Z254 F50.39 
G01 X17.25 Y28.5 Z255 F50.00 
G01 X16.75 Y28.5 Z254 F50.39 
G01 X14.75 Y28.5 Z255 F50.00 
G01 X13.75 Y28.5 Z254 F50.39 
G01 X13.25 Y28.5 Z180 F79.53 
G01 X12.75 Y28.5 Z57 F100.00 
G01 X12.5 Y28.5 Z0 F200.00 
G00 X12.5 Y29.0 Z0 F200.00 
G01 X11.75 Y29.0 Z0 F200.00 
G01 X12.25 Y29.0 Z15 F100.00 
G01 X12.75 Y29.0 Z81 F100.00 
G01 X13.25 Y29.0 Z3 F200.00 
G01 X13.75 Y29.0 Z4 F200.00 
G01 X14.25 Y29.0 Z20 F100.00 
G01 X14.75 Y29.0 Z117 F100.00 
G01 X15.25 Y29.0 Z178 F80.31 
G01 X15.75 Y29.0 Z246 F53.54 
G01 X16.25 Y29.0 Z255 F50.00 
G01 X16.75 Y29.0 Z254 F50.39 
G01 X17.75 Y29.0 Z255 F50.00 
G01 X18.25 Y29.0 Z254 F50.39 
G01 X18.75 Y29.0 Z255 F50.00 
G01 X19.25 Y29.0 Z254 F50.39 
G01 X21.75 Y29.0 Z255 F50.00 
G01 X22.25 Y29.0 Z254 F50.39 
G01 X24.75 Y29.0 Z255 F50.00 
G01 X25.25 Y29.0 Z254 F50.39 
G01 X29.25 Y29.0 Z255 F50.00 
G01 X29.75 Y29.0 Z253 F50.79 
G01 X30.25 Y29.0 Z90 F100.00 
G01 X30.75 Y29.0 Z16 F100.00 
G01 X31.25 Y29.0 Z0 F200.00 
G01 X31.75 Y29.0 Z51 F100.00 
G01 X32.25 Y29.0 Z172 F82.68 
G01 X32.75 Y29.0 Z249 F52.36 
G01 X33.25 Y29.0 Z254 F50.39 
G01 X33.75 Y29.0 Z255 F50.00 
G01 X34.25 Y29.0 Z210 F67.72 
G01 X34.5 Y29.0 Z0 F200.00 
G00 X34.5 Y29.5 Z0 F200.00 
G01 X35.75 Y29.5 Z0 F200.00 
G01 X35.25 Y29.5 Z64 F100.00 
G01 X34.75 Y29.5 Z21 F100.00 
G01 X34.25 Y29.5 Z0 F200.00 
G01 X33.75 Y29.5 Z13 F100.00 
G01 X33.25 Y29.5 Z92 F100.00 
G01 X32.75 Y29.5 Z213 F66.54 
G01 X31.75 Y29.5 Z255 F50.00 
G01 X31.25 Y29.5 Z246 F53.54 
G01 X30.75 Y29.5 Z177 F80.71 
G01 X30.25 Y29.5 Z16 F100.00 
G01 X29.75 Y29.5 Z0 F200.00 
G01 X29.25 Y29.5 Z100 F100.00 
G01 X28.75 Y29.5 Z254 F50.39 
G01 X27.75 Y29.5 Z255 F50.00 
G01 X27.25 Y29.5 Z254 F50.39 
G01 X26.25 Y29.5 Z255 F50.00 
G01 X25.75 Y29.5 Z254 F50.39 
G01 X24.25 Y29.5 Z255 F50.00 
G01 X23.75 Y29.5 Z254 F50.39 
G01 X22.25 Y29.5 Z255 F50.00 
G01 X21.75 Y29.5 Z250 F51.97 
G01 X21.25 Y29.5 Z201 F71.26 
G01 X20.75 Y29.5 Z199 F72.05 
G01 X20.25 Y29.5 Z198 F72.44 
G01 X18.75 Y29.5 Z199 F72.05 
G01 X18.25 Y29.5 Z201 F71.26 
G01 X17.75 Y29.5 Z199 F72.05 
G01 X17.25 Y29.5 Z198 F72.44 
G01 X16.75 Y29.5 Z199 F72.05 
G01 X16.25 Y29.5 Z206 F69.29 
G01 X15.75 Y29.5 Z89 F100.00 
G01 X15.25 Y29.5 Z42 F100.00 
G01 X14.75 Y29.5 Z2 F200.00 
G01 X14.25 Y29.5 Z0 F200.00 
G01 X13.75 Y29.5 Z9 F200.00 
G01 X13.25 Y29.5 Z79 F100.00 
G01 X12.75 Y29.5 Z204 F70.08 
G01 X12.25 Y29.5 Z255 F50.00 
G01 X11.75 Y29.5 Z42 F100.00 
G01 X11.5 Y29.5 Z0 F200.00 
G00 X11.5 Y30.0 Z0 F200.00 
G01 X11.75 Y30.0 Z0 F200.00 
G01 X12.25 Y30.0 Z138 F96.06 
G01 X12.75 Y30.0 Z254 F50.39 
G01 X13.75 Y30.0 Z255 F50.00 
G01 X14.25 Y30.0 Z57 F100.00 
G01 X18.75 Y30.0 Z0 F200.00 
G01 X19.25 Y30.0 Z2 F200.00 
G01 X20.25 Y30.0 Z0 F200.00 
G01 X20.75 Y30.0 Z2 F200.00 
G01 X21.25 Y30.0 Z0 F200.00 
G01 X21.75 Y30.0 Z2 F200.00 
G01 X22.25 Y30.0 Z75 F100.00 
G01 X22.75 Y30.0 Z76 F100.00 
G01 X23.25 Y30.0 Z180 F79.53 
G01 X23.75 Y30.0 Z231 F59.45 
G01 X24.25 Y30.0 Z237 F57.09 
G01 X24.75 Y30.0 Z255 F50.00 
G01 X25.25 Y30.0 Z254 F50.39 
G01 X29.25 Y30.0 Z255 F50.00 
G01 X29.75 Y30.0 Z190 F75.59 
G01 X30.25 Y30.0 Z162 F86.61 
G01 X30.75 Y30.0 Z205 F69.69 
G01 X31.25 Y30.0 Z255 F50.00 
G01 X31.75 Y30.0 Z252 F51.18 
G01 X32.25 Y30.0 Z213 F66.54 
G01 X32.75 Y30.0 Z89 F100.00 
G01 X33.25 Y30.0 Z9 F200.00 
G01 X33.75 Y30.0 Z0 F200.00 
G01 X34.25 Y30.0 Z12 F100.00 
G01 X34.75 Y30.0 Z98 F100.00 
G01 X35.25 Y30.0 Z212 F66.93 
G01 X35.75 Y30.0 Z255 F50.00 
G01 X36.0 Y30.0 Z0 F200.00 
G00 X36.0 Y30.5 Z0 F200.00 
G01 X35.75 Y30.5 Z0 F200.00 
G01 X34.25 Y30.5 Z255 F50.00 
G01 X33.75 Y30.5 Z217 F64.96 
G01 X33.25 Y30.5 Z101 F100.00 
G01 X32.75 Y30.5 Z0 F200.00 
G01 X32.25 Y30.5 Z2 F200.00 
G01 X31.75 Y30.5 Z0 F200.00 
G01 X31.25 Y30.5 Z92 F100.00 
G01 X30.75 Y30.5 Z212 F66.93 
G01 X29.25 Y30.5 Z255 F50.00 
G01 X28.75 Y30.5 Z254 F50.39 
G01 X24.75 Y30.5 Z255 F50.00 
G01 X24.25 Y30.5 Z163 F86.22 
G01 X23.75 Y30.5 Z42 F100.00 
G01 X23.25 Y30.5 Z0 F200.00 
G01 X22.75 Y30.5 Z2 F200.00 
G01 X18.25 Y30.5 Z0 F200.00 
G01 X17.75 Y30.5 Z2 F200.00 
G01 X16.75 Y30.5 Z0 F200.00 
G01 X16.25 Y30.5 Z2 F200.00 
G01 X13.75 Y30.5 Z0 F200.00 
G01 X13.25 Y30.5 Z172 F82.68 
G01 X12.25 Y30.5 Z255 F50.00 
G01 X11.75 Y30.5 Z186 F77.17 
G01 X11.5 Y30.5 Z0 F200.00 
G00 X11.5 Y31.0 Z0 F200.00 
G01 X11.25 Y31.0 Z0 F200.00 
G01 X11.75 Y31.0 Z61 F100.00 
G01 X12.25 Y31.0 Z254 F50.39 
G01 X13.25 Y31.0 Z255 F50.00 
G01 X13.75 Y31.0 Z48 F100.00 
G01 X16.25 Y31.0 Z0 F200.00 
G01 X16.75 Y31.0 Z2 F200.00 
G01 X17.25 Y31.0 Z0 F200.00 
G01 X17.75 Y31.0 Z2 F200.00 
G01 X18.75 Y31.0 Z0 F200.00 
G01 X19.25 Y31.0 Z2 F200.00 
G01 X23.25 Y31.0 Z0 F200.00 
G01 X23.75 Y31.0 Z2 F200.00 
G01 X24.75 Y31.0 Z0 F200.00 
G01 X25.25 Y31.0 Z112 F100.00 
G01 X25.75 Y31.0 Z221 F63.39 
G01 X29.25 Y31.0 Z255 F50.00 
G01 X29.75 Y31.0 Z254 F50.39 
G01 X30.25 Y31.0 Z209 F68.11 
G01 X30.75 Y31.0 Z94 F100.00 
G01 X31.25 Y31.0 Z5 F200.00 
G01 X31.75 Y31.0 Z0 F200.00 
G01 X32.25 Y31.0 Z2 F200.00 
G01 X32.75 Y31.0 Z0 F200.00 
G01 X33.25 Y31.0 Z77 F100.00 
G01 X34.75 Y31.0 Z255 F50.00 
G01 X35.25 Y31.0 Z254 F50.39 
G01 X36.25 Y31.0 Z255 F50.00 
G01 X36.5 Y31.0 Z0 F200.00 
G00 X36.5 Y31.5 Z0 F200.00 
G01 X36.75 Y31.5 Z0 F200.00 
G01 X36.25 Y31.5 Z219 F64.17 
G01 X34.75 Y31.5 Z255 F50.00 
G01 X34.25 Y31.5 Z254 F50.39 
G01 X33.75 Y31.5 Z255 F50.00 
G01 X33.25 Y31.5 Z211 F67.32 
G01 X32.75 Y31.5 Z0 F200.00 
G01 X32.25 Y31.5 Z112 F100.00 
G01 X31.75 Y31.5 Z230 F59.84 
G01 X31.25 Y31.5 Z98 F100.00 
G01 X30.75 Y31.5 Z15 F100.00 
G01 X30.25 Y31.5 Z0 F200.00 
G01 X29.75 Y31.5 Z114 F100.00 
G01 X26.25 Y31.5 Z255 F50.00 
G01 X25.75 Y31.5 Z215 F65.75 
G01 X25.25 Y31.5 Z33 F100.00 
G01 X20.25 Y31.5 Z0 F200.00 
G01 X19.75 Y31.5 Z2 F200.00 
G01 X14.25 Y31.5 Z0 F200.00 
G01 X13.75 Y31.5 Z2 F200.00 
G01 X13.25 Y31.5 Z20 F100.00 
G01 X12.75 Y31.5 Z227 F61.02 
G01 X11.75 Y31.5 Z255 F50.00 
G01 X11.25 Y31.5 Z107 F100.00 
G01 X11.0 Y31.5 Z0 F200.00 
G00 X11.0 Y32.0 Z0 F200.00 
G01 X11.25 Y32.0 Z0 F200.00 
G01 X11.75 Y32.0 Z211 F67.32 
G01 X12.75 Y32.0 Z255 F50.00 
G01 X13.25 Y32.0 Z142 F94.49 
G01 X25.75 Y32.0 Z0 F200.00 
G01 X26.25 Y32.0 Z29 F100.00 
G01 X26.75 Y32.0 Z213 F66.54 
G01 X29.75 Y32.0 Z255 F50.00 
G01 X30.25 Y32.0 Z127 F100.00 
G01 X30.75 Y32.0 Z81 F100.00 
G01 X31.25 Y32.0 Z215 F65.75 
G01 X32.25 Y32.0 Z255 F50.00 
G01 X32.75 Y32.0 Z138 F96.06 
G01 X33.25 Y32.0 Z0 F200.00 
G01 X33.75 Y32.0 Z198 F72.44 
G01 X36.75 Y32.0 Z255 F50.00 
G01 X37.0 Y32.0 Z0 F200.00 
G00 X37.0 Y32.5 Z0 F200.00 
G01 X37.25 Y32.5 Z0 F200.00 
G01 X36.75 Y32.5 Z215 F65.75 
G01 X33.75 Y32.5 Z255 F50.00 
G01 X33.25 Y32.5 Z198 F72.44 
G01 X32.75 Y32.5 Z0 F200.00 
G01 X32.25 Y32.5 Z138 F96.06 
G01 X29.25 Y32.5 Z255 F50.00 
G01 X28.75 Y32.5 Z254 F50.39 
G01 X27.25 Y32.5 Z255 F50.00 
G01 X26.75 Y32.5 Z227 F61.02 
G01 X26.25 Y32.5 Z26 F100.00 
G01 X25.75 Y32.5 Z0 F200.00 
G01 X25.25 Y32.5 Z2 F200.00 
G01 X24.75 Y32.5 Z0 F200.00 
G01 X24.25 Y32.5 Z2 F200.00 
G01 X13.25 Y32.5 Z0 F200.00 
G01 X12.75 Y32.5 Z65 F100.00 
G01 X12.25 Y32.5 Z253 F50.79 
G01 X11.75 Y32.5 Z254 F50.39 
G01 X11.25 Y32.5 Z247 F53.15 
G01 X10.75 Y32.5 Z55 F100.00 
G01 X10.5 Y32.5 Z0 F200.00 
G00 X10.5 Y33.0 Z0 F200.00 
G01 X10.75 Y33.0 Z0 F200.00 
G01 X11.25 Y33.0 Z102 F100.00 
G01 X12.25 Y33.0 Z255 F50.00 
G01 X12.75 Y33.0 Z237 F57.09 
G01 X13.25 Y33.0 Z13 F100.00 
G01 X14.75 Y33.0 Z0 F200.00 
G01 X15.25 Y33.0 Z2 F200.00 
G01 X24.75 Y33.0 Z0 F200.00 
G01 X25.25 Y33.0 Z2 F200.00 
G01 X26.25 Y33.0 Z0 F200.00 
G01 X26.75 Y33.0 Z2 F200.00 
G01 X27.25 Y33.0 Z131 F98.82 
G01 X28.25 Y33.0 Z255 F50.00 
G01 X28.75 Y33.0 Z254 F50.39 
G01 X29.75 Y33.0 Z255 F50.00 
G01 X30.25 Y33.0 Z254 F50.39 
G01 X30.75 Y33.0 Z255 F50.00 
G01 X31.25 Y33.0 Z254 F50.39 
G01 X32.25 Y33.0 Z255 F50.00 
G01 X32.75 Y33.0 Z138 F96.06 
G01 X33.25 Y33.0 Z0 F200.00 
G01 X33.75 Y33.0 Z198 F72.44 
G01 X36.25 Y33.0 Z255 F50.00 
G01 X36.75 Y33.0 Z254 F50.39 
G01 X37.25 Y33.0 Z255 F50.00 
G01 X37.5 Y33.0 Z0 F200.00 
G00 X37.5 Y33.5 Z0 F200.00 
G01 X37.75 Y33.5 Z0 F200.00 
G01 X37.25 Y33.5 Z209 F68.11 
G01 X33.75 Y33.5 Z255 F50.00 
G01 X33.25 Y33.5 Z198 F72.44 
G01 X32.75 Y33.5 Z0 F200.00 
G01 X32.25 Y33.5 Z138 F96.06 
G01 X27.25 Y33.5 Z255 F50.00 
G01 X26.75 Y33.5 Z52 F100.00 
G01 X26.25 Y33.5 Z0 F200.00 
G01 X25.75 Y33.5 Z2 F200.00 
G01 X25.25 Y33.5 Z0 F200.00 
G01 X24.75 Y33.5 Z2 F200.00 
G01 X12.75 Y33.5 Z0 F200.00 
G01 X12.25 Y33.5 Z123 F100.00 
G01 X11.25 Y33.5 Z255 F50.00 
G01 X10.75 Y33.5 Z216 F65.35 
G01 X10.5 Y33.5 Z0 F200.00 
G00 X10.5 Y34.0 Z0 F200.00 
G01 X10.25 Y34.0 Z0 F200.00 
G01 X10.75 Y34.0 Z107 F100.00 
G01 X11.75 Y34.0 Z255 F50.00 
G01 X12.25 Y34.0 Z230 F59.84 
G01 X12.75 Y34.0 Z24 F100.00 
G01 X13.25 Y34.0 Z0 F200.00 
G01 X13.75 Y34.0 Z2 F200.00 
G01 X14.75 Y34.0 Z0 F200.00 
G01 X15.25 Y34.0 Z2 F200.00 
G01 X26.75 Y34.0 Z0 F200.00 
G01 X27.25 Y34.0 Z2 F200.00 
G01 X27.75 Y34.0 Z189 F75.98 
G01 X28.75 Y34.0 Z255 F50.00 
G01 X29.25 Y34.0 Z254 F50.39 
G01 X32.25 Y34.0 Z255 F50.00 
G01 X32.75 Y34.0 Z138 F96.06 
G01 X33.25 Y34.0 Z0 F200.00 
G01 X33.75 Y34.0 Z198 F72.44 
G01 X37.75 Y34.0 Z255 F50.00 
G01 X38.0 Y34.0 Z0 F200.00 
G00 X38.0 Y34.5 Z0 F200.00 
G01 X37.75 Y34.5 Z0 F200.00 
G01 X33.75 Y34.5 Z255 F50.00 
G01 X33.25 Y34.5 Z198 F72.44 
G01 X32.75 Y34.5 Z0 F200.00 
G01 X32.25 Y34.5 Z138 F96.06 
G01 X27.75 Y34.5 Z255 F50.00 
G01 X27.25 Y34.5 Z165 F85.43 
G01 X12.25 Y34.5 Z0 F200.00 
G01 X11.75 Y34.5 Z201 F71.26 
G01 X11.25 Y34.5 Z254 F50.39 
G01 X10.75 Y34.5 Z255 F50.00 
G01 X10.25 Y34.5 Z149 F91.73 
G01 X10.0 Y34.5 Z0 F200.00 
G00 X10.0 Y35.0 Z0 F200.00 
G01 X9.75 Y35.0 Z0 F200.00 
G01 X10.25 Y35.0 Z31 F100.00 
G01 X10.75 Y35.0 Z251 F51.57 
G01 X11.75 Y35.0 Z255 F50.00 
G01 X12.25 Y35.0 Z75 F100.00 
G01 X27.25 Y35.0 Z0 F200.00 
G01 X27.75 Y35.0 Z165 F85.43 
G01 X29.75 Y35.0 Z255 F50.00 
G01 X30.25 Y35.0 Z254 F50.39 
G01 X32.25 Y35.0 Z255 F50.00 
G01 X32.75 Y35.0 Z138 F96.06 
G01 X33.25 Y35.0 Z0 F200.00 
G01 X33.75 Y35.0 Z198 F72.44 
G01 X38.25 Y35.0 Z255 F50.00 
G01 X38.5 Y35.0 Z0 F200.00 
G00 X38.5 Y35.5 Z0 F200.00 
G01 X38.25 Y35.5 Z0 F200.00 
G01 X33.75 Y35.5 Z255 F50.00 
G01 X33.25 Y35.5 Z198 F72.44 
G01 X32.75 Y35.5 Z0 F200.00 
G01 X32.25 Y35.5 Z138 F96.06 
G01 X30.75 Y35.5 Z255 F50.00 
G01 X30.25 Y35.5 Z254 F50.39 
G01 X27.75 Y35.5 Z255 F50.00 
G01 X27.25 Y35.5 Z165 F85.43 
G01 X26.25 Y35.5 Z0 F200.00 
G01 X25.75 Y35.5 Z2 F200.00 
G01 X24.25 Y35.5 Z0 F200.00 
G01 X23.75 Y35.5 Z2 F200.00 
G01 X12.25 Y35.5 Z0 F200.00 
G01 X11.75 Y35.5 Z40 F100.00 
G01 X11.25 Y35.5 Z240 F55.91 
G01 X10.25 Y35.5 Z255 F50.00 
G01 X9.75 Y35.5 Z83 F100.00 
G01 X9.5 Y35.5 Z0 F200.00 
G00 X9.5 Y36.0 Z0 F200.00 
G01 X9.75 Y36.0 Z0 F200.00 
G01 X10.25 Y36.0 Z171 F83.07 
G01 X10.75 Y36.0 Z254 F50.39 
G01 X11.25 Y36.0 Z255 F50.00 
G01 X11.75 Y36.0 Z189 F75.98 
G01 X27.25 Y36.0 Z0 F200.00 
G01 X27.75 Y36.0 Z165 F85.43 
G01 X31.75 Y36.0 Z255 F50.00 
G01 X32.25 Y36.0 Z243 F54.72 
G01 X32.75 Y36.0 Z24 F100.00 
G01 X33.25 Y36.0 Z59 F100.00 
G01 X38.25 Y36.0 Z255 F50.00 
G01 X38.75 Y36.0 Z254 F50.39 
G01 X39.0 Y36.0 Z0 F200.00 
G00 X39.0 Y36.5 Z0 F200.00 
G01 X39.25 Y36.5 Z0 F200.00 
G01 X38.75 Y36.5 Z218 F64.57 
G01 X36.75 Y36.5 Z255 F50.00 
G01 X36.25 Y36.5 Z254 F50.39 
G01 X35.75 Y36.5 Z255 F50.00 
G01 X35.25 Y36.5 Z254 F50.39 
G01 X33.25 Y36.5 Z255 F50.00 
G01 X32.75 Y36.5 Z79 F100.00 
G01 X32.25 Y36.5 Z0 F200.00 
G01 X31.75 Y36.5 Z234 F58.27 
G01 X28.75 Y36.5 Z255 F50.00 
G01 X28.25 Y36.5 Z254 F50.39 
G01 X27.75 Y36.5 Z255 F50.00 
G01 X27.25 Y36.5 Z234 F58.27 
G01 X26.75 Y36.5 Z30 F100.00 
G01 X26.25 Y36.5 Z0 F200.00 
G01 X25.75 Y36.5 Z2 F200.00 
G01 X25.25 Y36.5 Z0 F200.00 
G01 X24.75 Y36.5 Z2 F200.00 
G01 X11.75 Y36.5 Z0 F200.00 
G01 X11.25 Y36.5 Z88 F100.00 
G01 X10.25 Y36.5 Z255 F50.00 
G01 X9.75 Y36.5 Z238 F56.69 
G01 X9.25 Y36.5 Z35 F100.00 
G01 X9.0 Y36.5 Z0 F200.00 
G00 X9.0 Y37.0 Z0 F200.00 
G01 X9.25 Y37.0 Z0 F200.00 
G01 X9.75 Y37.0 Z65 F100.00 
G01 X10.75 Y37.0 Z255 F50.00 
G01 X11.25 Y37.0 Z254 F50.39 
G01 X11.75 Y37.0 Z42 F100.00 
G01 X26.75 Y37.0 Z0 F200.00 
G01 X27.25 Y37.0 Z61 F100.00 
G01 X29.75 Y37.0 Z255 F50.00 
G01 X30.25 Y37.0 Z254 F50.39 
G01 X30.75 Y37.0 Z255 F50.00 
G01 X31.25 Y37.0 Z254 F50.39 
G01 X31.75 Y37.0 Z255 F50.00 
G01 X32.25 Y37.0 Z228 F60.63 
G01 X32.75 Y37.0 Z0 F200.00 
G01 X33.25 Y37.0 Z79 F100.00 
G01 X34.75 Y37.0 Z255 F50.00 
G01 X35.25 Y37.0 Z254 F50.39 
G01 X35.75 Y37.0 Z255 F50.00 
G01 X36.25 Y37.0 Z254 F50.39 
G01 X37.25 Y37.0 Z255 F50.00 
G01 X37.75 Y37.0 Z254 F50.39 
G01 X39.25 Y37.0 Z255 F50.00 
G01 X39.5 Y37.0 Z0 F200.00 
G00 X39.5 Y37.5 Z0 F200.00 
G01 X39.25 Y37.5 Z0 F200.00 
G01 X33.75 Y37.5 Z255 F50.00 
G01 X33.25 Y37.5 Z240 F55.91 
G01 X32.75 Y37.5 Z42 F100.00 
G01 X32.25 Y37.5 Z0 F200.00 
G01 X31.75 Y37.5 Z109 F100.00 
G01 X31.25 Y37.5 Z255 F50.00 
G01 X30.75 Y37.5 Z254 F50.39 
G01 X27.25 Y37.5 Z255 F50.00 
G01 X26.75 Y37.5 Z187 F76.77 
G01 X25.75 Y37.5 Z0 F200.00 
G01 X25.25 Y37.5 Z2 F200.00 
G01 X11.25 Y37.5 Z0 F200.00 
G01 X10.75 Y37.5 Z162 F86.61 
G01 X10.25 Y37.5 Z255 F50.00 
G01 X9.75 Y37.5 Z254 F50.39 
G01 X9.25 Y37.5 Z191 F75.20 
G01 X9.0 Y37.5 Z0 F200.00 
G00 X9.0 Y38.0 Z0 F200.00 
G01 X8.75 Y38.0 Z0 F200.00 
G01 X9.25 Y38.0 Z18 F100.00 
G01 X9.75 Y38.0 Z223 F62.60 
G01 X10.25 Y38.0 Z255 F50.00 
G01 X10.75 Y38.0 Z249 F52.36 
G01 X11.25 Y38.0 Z40 F100.00 
G01 X11.75 Y38.0 Z2 F200.00 
G01 X24.25 Y38.0 Z0 F200.00 
G01 X24.75 Y38.0 Z2 F200.00 
G01 X26.25 Y38.0 Z0 F200.00 
G01 X26.75 Y38.0 Z15 F100.00 
G01 X27.25 Y38.0 Z217 F64.96 
G01 X28.75 Y38.0 Z255 F50.00 
G01 X29.25 Y38.0 Z254 F50.39 
G01 X29.75 Y38.0 Z255 F50.00 
G01 X30.25 Y38.0 Z254 F50.39 
G01 X31.25 Y38.0 Z255 F50.00 
G01 X31.75 Y38.0 Z221 F63.39 
G01 X32.25 Y38.0 Z11 F100.00 
G01 X33.25 Y38.0 Z0 F200.00 
G01 X33.75 Y38.0 Z197 F72.83 
G01 X34.25 Y38.0 Z255 F50.00 
G01 X34.75 Y38.0 Z254 F50.39 
G01 X38.75 Y38.0 Z255 F50.00 
G01 X39.75 Y38.0 Z254 F50.39 
G01 X40.0 Y38.0 Z0 F200.00 
G00 X40.0 Y38.5 Z0 F200.00 
G01 X39.75 Y38.5 Z0 F200.00 
G01 X39.25 Y38.5 Z254 F50.39 
G01 X35.25 Y38.5 Z255 F50.00 
G01 X34.75 Y38.5 Z254 F50.39 
G01 X34.25 Y38.5 Z255 F50.00 
G01 X33.75 Y38.5 Z248 F52.76 
G01 X33.25 Y38.5 Z77 F100.00 
G01 X32.75 Y38.5 Z2 F200.00 
G01 X31.75 Y38.5 Z0 F200.00 
G01 X31.25 Y38.5 Z186 F77.17 
G01 X29.25 Y38.5 Z255 F50.00 
G01 X28.75 Y38.5 Z254 F50.39 
G01 X26.75 Y38.5 Z255 F50.00 
G01 X26.25 Y38.5 Z195 F73.62 
G01 X25.75 Y38.5 Z18 F100.00 
G01 X25.25 Y38.5 Z2 F200.00 
G01 X11.25 Y38.5 Z0 F200.00 
G01 X10.75 Y38.5 Z15 F100.00 
G01 X10.25 Y38.5 Z222 F62.99 
G01 X9.75 Y38.5 Z255 F50.00 
G01 X9.25 Y38.5 Z254 F50.39 
G01 X8.75 Y38.5 Z88 F100.00 
G01 X8.5 Y38.5 Z0 F200.00 
G00 X8.5 Y39.0 Z0 F200.00 
G01 X8.75 Y39.0 Z0 F200.00 
G01 X9.25 Y39.0 Z174 F81.89 
G01 X9.75 Y39.0 Z255 F50.00 
G01 X10.25 Y39.0 Z254 F50.39 
G01 X10.75 Y39.0 Z119 F100.00 
G01 X25.25 Y39.0 Z0 F200.00 
G01 X25.75 Y39.0 Z18 F100.00 
G01 X26.25 Y39.0 Z197 F72.83 
G01 X28.25 Y39.0 Z255 F50.00 
G01 X28.75 Y39.0 Z254 F50.39 
G01 X31.25 Y39.0 Z255 F50.00 
G01 X31.75 Y39.0 Z60 F100.00 
G01 X33.25 Y39.0 Z0 F200.00 
G01 X33.75 Y39.0 Z2 F200.00 
G01 X34.25 Y39.0 Z165 F85.43 
G01 X39.75 Y39.0 Z255 F50.00 
G01 X40.25 Y39.0 Z247 F53.15 
G01 X40.5 Y39.0 Z0 F200.00 
G00 X40.5 Y39.5 Z0 F200.00 
G01 X40.25 Y39.5 Z0 F200.00 
G01 X39.75 Y39.5 Z254 F50.39 
G01 X34.75 Y39.5 Z255 F50.00 
G01 X34.25 Y39.5 Z254 F50.39 
G01 X33.75 Y39.5 Z98 F100.00 
G01 X32.75 Y39.5 Z0 F200.00 
G01 X32.25 Y39.5 Z2 F200.00 
G01 X31.25 Y39.5 Z0 F200.00 
G01 X30.75 Y39.5 Z186 F77.17 
G01 X27.25 Y39.5 Z255 F50.00 
G01 X26.75 Y39.5 Z254 F50.39 
G01 X25.75 Y39.5 Z255 F50.00 
G01 X25.25 Y39.5 Z201 F71.26 
G01 X24.75 Y39.5 Z15 F100.00 
G01 X10.75 Y39.5 Z0 F200.00 
G01 X10.25 Y39.5 Z62 F100.00 
G01 X9.75 Y39.5 Z249 F52.36 
G01 X9.25 Y39.5 Z255 F50.00 
G01 X8.75 Y39.5 Z227 F61.02 
G01 X8.5 Y39.5 Z0 F200.00 
G00 X8.5 Y40.0 Z0 F200.00 
G01 X8.25 Y40.0 Z0 F200.00 
G01 X8.75 Y40.0 Z110 F100.00 
G01 X9.75 Y40.0 Z255 F50.00 
G01 X10.25 Y40.0 Z224 F62.20 
G01 X10.75 Y40.0 Z2 F200.00 
G01 X18.75 Y40.0 Z0 F200.00 
G01 X19.25 Y40.0 Z2 F200.00 
G01 X20.25 Y40.0 Z0 F200.00 
G01 X20.75 Y40.0 Z2 F200.00 
G01 X24.25 Y40.0 Z0 F200.00 
G01 X24.75 Y40.0 Z15 F100.00 
G01 X25.25 Y40.0 Z198 F72.44 
G01 X30.75 Y40.0 Z255 F50.00 
G01 X31.25 Y40.0 Z57 F100.00 
G01 X34.25 Y40.0 Z0 F200.00 
G01 X34.75 Y40.0 Z144 F93.70 
G01 X40.25 Y40.0 Z255 F50.00 
G01 X40.75 Y40.0 Z241 F55.51 
G01 X41.0 Y40.0 Z0 F200.00 
G00 X41.0 Y40.5 Z0 F200.00 
G01 X40.75 Y40.5 Z0 F200.00 
G01 X40.25 Y40.5 Z255 F50.00 
G01 X39.75 Y40.5 Z254 F50.39 
G01 X34.75 Y40.5 Z255 F50.00 
G01 X34.25 Y40.5 Z102 F100.00 
G01 X33.25 Y40.5 Z0 F200.00 
G01 X32.75 Y40.5 Z2 F200.00 
G01 X30.75 Y40.5 Z0 F200.00 
G01 X30.25 Y40.5 Z143 F94.09 
G01 X25.75 Y40.5 Z255 F50.00 
G01 X25.25 Y40.5 Z254 F50.39 
G01 X24.75 Y40.5 Z255 F50.00 
G01 X24.25 Y40.5 Z227 F61.02 
G01 X23.75 Y40.5 Z113 F100.00 
G01 X23.25 Y40.5 Z48 F100.00 
G01 X22.75 Y40.5 Z6 F200.00 
G01 X20.25 Y40.5 Z0 F200.00 
G01 X19.75 Y40.5 Z30 F100.00 
G01 X19.25 Y40.5 Z158 F88.19 
G01 X18.75 Y40.5 Z102 F100.00 
G01 X10.25 Y40.5 Z0 F200.00 
G01 X9.75 Y40.5 Z114 F100.00 
G01 X8.75 Y40.5 Z255 F50.00 
G01 X8.25 Y40.5 Z221 F63.39 
G01 X7.75 Y40.5 Z16 F100.00 
G01 X7.5 Y40.5 Z0 F200.00 
G00 X7.5 Y41.0 Z0 F200.00 
G01 X7.75 Y41.0 Z0 F200.00 
G01 X8.25 Y41.0 Z116 F100.00 
G01 X8.75 Y41.0 Z255 F50.00 
G01 X9.25 Y41.0 Z254 F50.39 
G01 X9.75 Y41.0 Z255 F50.00 
G01 X10.25 Y41.0 Z84 F100.00 
G01 X16.75 Y41.0 Z0 F200.00 
G01 X17.25 Y41.0 Z2 F200.00 
G01 X17.75 Y41.0 Z0 F200.00 
G01 X18.25 Y41.0 Z2 F200.00 
G01 X19.25 Y41.0 Z0 F200.00 
G01 X19.75 Y41.0 Z158 F88.19 
G01 X20.25 Y41.0 Z238 F56.69 
G01 X20.75 Y41.0 Z167 F84.65 
G01 X22.25 Y41.0 Z172 F82.68 
G01 X22.75 Y41.0 Z169 F83.86 
G01 X23.25 Y41.0 Z184 F77.95 
G01 X29.75 Y41.0 Z255 F50.00 
G01 X30.25 Y41.0 Z141 F94.88 
G01 X30.75 Y41.0 Z0 F200.00 
G01 X31.25 Y41.0 Z2 F200.00 
G01 X34.25 Y41.0 Z0 F200.00 
G01 X34.75 Y41.0 Z7 F200.00 
G01 X35.25 Y41.0 Z230 F59.84 
G01 X40.75 Y41.0 Z255 F50.00 
G01 X41.25 Y41.0 Z251 F51.57 
G01 X41.5 Y41.0 Z0 F200.00 
G00 X41.5 Y41.5 Z0 F200.00 
G01 X41.25 Y41.5 Z0 F200.00 
G01 X40.75 Y41.5 Z255 F50.00 
G01 X40.25 Y41.5 Z254 F50.39 
G01 X35.25 Y41.5 Z255 F50.00 
G01 X34.75 Y41.5 Z230 F59.84 
G01 X34.25 Y41.5 Z7 F200.00 
G01 X32.75 Y41.5 Z0 F200.00 
G01 X32.25 Y41.5 Z2 F200.00 
G01 X30.75 Y41.5 Z0 F200.00 
G01 X30.25 Y41.5 Z2 F200.00 
G01 X29.75 Y41.5 Z0 F200.00 
G01 X29.25 Y41.5 Z142 F94.49 
G01 X23.25 Y41.5 Z255 F50.00 
G01 X22.25 Y41.5 Z254 F50.39 
G01 X21.25 Y41.5 Z255 F50.00 
G01 X20.75 Y41.5 Z254 F50.39 
G01 X20.25 Y41.5 Z255 F50.00 
G01 X19.75 Y41.5 Z146 F92.91 
G01 X17.75 Y41.5 Z0 F200.00 
G01 X17.25 Y41.5 Z2 F200.00 
G01 X10.25 Y41.5 Z0 F200.00 
G01 X9.75 Y41.5 Z84 F100.00 
G01 X8.25 Y41.5 Z255 F50.00 
G01 X7.75 Y41.5 Z215 F65.75 
G01 X7.25 Y41.5 Z18 F100.00 
G01 X7.0 Y41.5 Z0 F200.00 
G00 X7.0 Y42.0 Z0 F200.00 
G01 X7.25 Y42.0 Z0 F200.00 
G01 X7.75 Y42.0 Z107 F100.00 
G01 X9.75 Y42.0 Z255 F50.00 
G01 X10.25 Y42.0 Z83 F100.00 
G01 X17.75 Y42.0 Z0 F200.00 
G01 X18.25 Y42.0 Z2 F200.00 
G01 X19.25 Y42.0 Z0 F200.00 
G01 X19.75 Y42.0 Z2 F200.00 
G01 X20.25 Y42.0 Z42 F100.00 
G01 X20.75 Y42.0 Z241 F55.51 
G01 X21.75 Y42.0 Z255 F50.00 
G01 X22.25 Y42.0 Z254 F50.39 
G01 X25.75 Y42.0 Z255 F50.00 
G01 X26.25 Y42.0 Z254 F50.39 
G01 X28.25 Y42.0 Z255 F50.00 
G01 X28.75 Y42.0 Z224 F62.20 
G01 X29.25 Y42.0 Z116 F100.00 
G01 X31.25 Y42.0 Z0 F200.00 
G01 X31.75 Y42.0 Z2 F200.00 
G01 X33.25 Y42.0 Z0 F200.00 
G01 X33.75 Y42.0 Z2 F200.00 
G01 X34.25 Y42.0 Z0 F200.00 
G01 X34.75 Y42.0 Z9 F200.00 
G01 X35.25 Y42.0 Z230 F59.84 
G01 X41.75 Y42.0 Z255 F50.00 
G01 X42.0 Y42.0 Z0 F200.00 
G00 X42.0 Y42.5 Z0 F200.00 
G01 X42.25 Y42.5 Z0 F200.00 
G01 X35.25 Y42.5 Z255 F50.00 
G01 X34.75 Y42.5 Z230 F59.84 
G01 X34.25 Y42.5 Z7 F200.00 
G01 X28.75 Y42.5 Z0 F200.00 
G01 X28.25 Y42.5 Z40 F100.00 
G01 X27.75 Y42.5 Z187 F76.77 
G01 X27.25 Y42.5 Z249 F52.36 
G01 X26.75 Y42.5 Z254 F50.39 
G01 X25.75 Y42.5 Z255 F50.00 
G01 X25.25 Y42.5 Z254 F50.39 
G01 X21.25 Y42.5 Z255 F50.00 
G01 X20.75 Y42.5 Z236 F57.48 
G01 X20.25 Y42.5 Z57 F100.00 
G01 X10.25 Y42.5 Z0 F200.00 
G01 X9.75 Y42.5 Z123 F100.00 
G01 X7.25 Y42.5 Z255 F50.00 
G01 X6.75 Y42.5 Z100 F100.00 
G01 X6.5 Y42.5 Z0 F200.00 
G00 X6.5 Y43.0 Z0 F200.00 
G01 X6.25 Y43.0 Z0 F200.00 
G01 X6.75 Y43.0 Z18 F100.00 
G01 X7.25 Y43.0 Z228 F60.63 
G01 X8.25 Y43.0 Z255 F50.00 
G01 X8.75 Y43.0 Z254 F50.39 
G01 X9.75 Y43.0 Z255 F50.00 
G01 X10.25 Y43.0 Z224 F62.20 
G01 X10.75 Y43.0 Z2 F200.00 
G01 X16.75 Y43.0 Z0 F200.00 
G01 X17.75 Y43.0 Z2 F200.00 
G01 X19.25 Y43.0 Z0 F200.00 
G01 X19.75 Y43.0 Z2 F200.00 
G01 X20.75 Y43.0 Z0 F200.00 
G01 X21.25 Y43.0 Z141 F94.88 
G01 X24.25 Y43.0 Z255 F50.00 
G01 X24.75 Y43.0 Z254 F50.39 
G01 X26.25 Y43.0 Z255 F50.00 
G01 X26.75 Y43.0 Z248 F52.76 
G01 X27.25 Y43.0 Z183 F78.35 
G01 X27.75 Y43.0 Z57 F100.00 
G01 X28.25 Y43.0 Z2 F200.00 
G01 X30.25 Y43.0 Z0 F200.00 
G01 X30.75 Y43.0 Z2 F200.00 
G01 X32.75 Y43.0 Z0 F200.00 
G01 X33.25 Y43.0 Z2 F200.00 
G01 X34.25 Y43.0 Z0 F200.00 
G01 X34.75 Y43.0 Z27 F100.00 
G01 X35.25 Y43.0 Z237 F57.09 
G01 X42.75 Y43.0 Z255 F50.00 
G01 X43.0 Y43.0 Z0 F200.00 
G00 X43.0 Y43.5 Z0 F200.00 
G01 X43.25 Y43.5 Z0 F200.00 
G01 X34.75 Y43.5 Z255 F50.00 
G01 X34.25 Y43.5 Z130 F99.21 
G01 X33.75 Y43.5 Z2 F200.00 
G01 X26.75 Y43.5 Z0 F200.00 
G01 X26.25 Y43.5 Z60 F100.00 
G01 X25.75 Y43.5 Z183 F78.35 
G01 X21.75 Y43.5 Z255 F50.00 
G01 X21.25 Y43.5 Z177 F80.71 
G01 X20.75 Y43.5 Z2 F200.00 
G01 X19.25 Y43.5 Z0 F200.00 
G01 X18.75 Y43.5 Z2 F200.00 
G01 X10.75 Y43.5 Z0 F200.00 
G01 X10.25 Y43.5 Z70 F100.00 
G01 X9.75 Y43.5 Z253 F50.79 
G01 X9.25 Y43.5 Z254 F50.39 
G01 X7.25 Y43.5 Z255 F50.00 
G01 X6.75 Y43.5 Z254 F50.39 
G01 X6.25 Y43.5 Z191 F75.20 
G01 X5.75 Y43.5 Z13 F100.00 
G01 X5.5 Y43.5 Z0 F200.00 
G00 X5.5 Y44.0 Z0 F200.00 
G01 X5.75 Y44.0 Z0 F200.00 
G01 X6.25 Y44.0 Z193 F74.41 
G01 X6.75 Y44.0 Z255 F50.00 
G01 X7.25 Y44.0 Z254 F50.39 
G01 X8.25 Y44.0 Z255 F50.00 
G01 X8.75 Y44.0 Z254 F50.39 
G01 X10.25 Y44.0 Z255 F50.00 
G01 X10.75 Y44.0 Z177 F80.71 
G01 X13.25 Y44.0 Z0 F200.00 
G01 X13.75 Y44.0 Z2 F200.00 
G01 X21.25 Y44.0 Z0 F200.00 
G01 X21.75 Y44.0 Z72 F100.00 
G01 X22.25 Y44.0 Z253 F50.79 
G01 X25.25 Y44.0 Z255 F50.00 
G01 X25.75 Y44.0 Z177 F80.71 
G01 X26.25 Y44.0 Z5 F200.00 
G01 X28.25 Y44.0 Z0 F200.00 
G01 X28.75 Y44.0 Z2 F200.00 
G01 X33.75 Y44.0 Z0 F200.00 
G01 X34.25 Y44.0 Z3 F200.00 
G01 X34.75 Y44.0 Z186 F77.17 
G01 X42.75 Y44.0 Z255 F50.00 
G01 X43.25 Y44.0 Z254 F50.39 
G01 X43.75 Y44.0 Z252 F51.18 
G01 X44.25 Y44.0 Z141 F94.88 
G01 X44.5 Y44.0 Z0 F200.00 
G00 X44.5 Y44.5 Z0 F200.00 
G01 X44.75 Y44.5 Z0 F200.00 
G01 X44.25 Y44.5 Z212 F66.93 
G01 X43.75 Y44.5 Z255 F50.00 
G01 X43.25 Y44.5 Z254 F50.39 
G01 X35.75 Y44.5 Z255 F50.00 
G01 X35.25 Y44.5 Z254 F50.39 
G01 X34.25 Y44.5 Z255 F50.00 
G01 X33.75 Y44.5 Z147 F92.52 
G01 X33.25 Y44.5 Z0 F200.00 
G01 X32.25 Y44.5 Z2 F200.00 
G01 X29.25 Y44.5 Z0 F200.00 
G01 X28.75 Y44.5 Z2 F200.00 
G01 X28.25 Y44.5 Z0 F200.00 
G01 X27.75 Y44.5 Z2 F200.00 
G01 X27.25 Y44.5 Z0 F200.00 
G01 X26.75 Y44.5 Z2 F200.00 
G01 X25.75 Y44.5 Z0 F200.00 
G01 X25.25 Y44.5 Z6 F200.00 
G01 X24.75 Y44.5 Z175 F81.50 
G01 X22.25 Y44.5 Z255 F50.00 
G01 X21.75 Y44.5 Z184 F77.95 
G01 X21.25 Y44.5 Z0 F200.00 
G01 X20.75 Y44.5 Z2 F200.00 
G01 X13.25 Y44.5 Z0 F200.00 
G01 X12.75 Y44.5 Z2 F200.00 
G01 X11.25 Y44.5 Z0 F200.00 
G01 X10.75 Y44.5 Z63 F100.00 
G01 X10.25 Y44.5 Z253 F50.79 
G01 X7.75 Y44.5 Z255 F50.00 
G01 X7.25 Y44.5 Z254 F50.39 
G01 X6.25 Y44.5 Z255 F50.00 
G01 X5.75 Y44.5 Z254 F50.39 
G01 X5.25 Y44.5 Z239 F56.30 
G01 X4.75 Y44.5 Z102 F100.00 
G01 X4.5 Y44.5 Z0 F200.00 
G00 X4.5 Y45.0 Z0 F200.00 
G01 X3.75 Y45.0 Z0 F200.00 
G01 X4.25 Y45.0 Z33 F100.00 
G01 X4.75 Y45.0 Z187 F76.77 
G01 X5.25 Y45.0 Z248 F52.76 
G01 X6.25 Y45.0 Z255 F50.00 
G01 X6.75 Y45.0 Z254 F50.39 
G01 X7.25 Y45.0 Z255 F50.00 
G01 X7.75 Y45.0 Z254 F50.39 
G01 X9.25 Y45.0 Z255 F50.00 
G01 X9.75 Y45.0 Z254 F50.39 
G01 X10.75 Y45.0 Z255 F50.00 
G01 X11.25 Y45.0 Z239 F56.30 
G01 X11.75 Y45.0 Z60 F100.00 
G01 X19.75 Y45.0 Z0 F200.00 
G01 X20.25 Y45.0 Z2 F200.00 
G01 X21.75 Y45.0 Z0 F200.00 
G01 X22.25 Y45.0 Z92 F100.00 
G01 X24.25 Y45.0 Z255 F50.00 
G01 X24.75 Y45.0 Z175 F81.50 
G01 X25.25 Y45.0 Z5 F200.00 
G01 X29.75 Y45.0 Z0 F200.00 
G01 X30.25 Y45.0 Z2 F200.00 
G01 X33.25 Y45.0 Z0 F200.00 
G01 X33.75 Y45.0 Z68 F100.00 
G01 X34.25 Y45.0 Z243 F54.72 
G01 X34.75 Y45.0 Z255 F50.00 
G01 X35.25 Y45.0 Z254 F50.39 
G01 X44.75 Y45.0 Z255 F50.00 
G01 X45.25 Y45.0 Z227 F61.02 
G01 X45.75 Y45.0 Z129 F99.61 
G01 X46.0 Y45.0 Z0 F200.00 
G00 X46.0 Y45.5 Z0 F200.00 
G01 X47.25 Y45.5 Z0 F200.00 
G01 X46.75 Y45.5 Z76 F100.00 
G01 X46.25 Y45.5 Z171 F83.07 
G01 X45.75 Y45.5 Z227 F61.02 
G01 X33.75 Y45.5 Z255 F50.00 
G01 X33.25 Y45.5 Z239 F56.30 
G01 X32.75 Y45.5 Z147 F92.52 
G01 X32.25 Y45.5 Z29 F100.00 
G01 X31.75 Y45.5 Z3 F200.00 
G01 X28.75 Y45.5 Z0 F200.00 
G01 X28.25 Y45.5 Z2 F200.00 
G01 X27.75 Y45.5 Z0 F200.00 
G01 X27.25 Y45.5 Z2 F200.00 
G01 X26.75 Y45.5 Z0 F200.00 
G01 X26.25 Y45.5 Z2 F200.00 
G01 X24.75 Y45.5 Z0 F200.00 
G01 X24.25 Y45.5 Z3 F200.00 
G01 X23.75 Y45.5 Z190 F75.59 
G01 X23.25 Y45.5 Z255 F50.00 
G01 X22.75 Y45.5 Z254 F50.39 
G01 X22.25 Y45.5 Z228 F60.63 
G01 X21.75 Y45.5 Z24 F100.00 
G01 X13.75 Y45.5 Z0 F200.00 
G01 X13.25 Y45.5 Z2 F200.00 
G01 X12.75 Y45.5 Z0 F200.00 
G01 X12.25 Y45.5 Z24 F100.00 
G01 X11.75 Y45.5 Z141 F94.88 
G01 X11.25 Y45.5 Z236 F57.48 
G01 X10.75 Y45.5 Z255 F50.00 
G01 X9.75 Y45.5 Z254 F50.39 
G01 X5.25 Y45.5 Z255 F50.00 
G01 X4.75 Y45.5 Z254 F50.39 
G01 X4.25 Y45.5 Z255 F50.00 
G01 X3.75 Y45.5 Z221 F63.39 
G01 X3.25 Y45.5 Z116 F100.00 
G01 X2.75 Y45.5 Z13 F100.00 
G01 X2.5 Y45.5 Z0 F200.00 
G00 X2.5 Y46.0 Z0 F200.00 
G01 X1.25 Y46.0 Z0 F200.00 
G01 X1.75 Y46.0 Z13 F100.00 
G01 X2.25 Y46.0 Z27 F100.00 
G01 X2.75 Y46.0 Z127 F100.00 
G01 X3.25 Y46.0 Z236 F57.48 
G01 X9.25 Y46.0 Z255 F50.00 
G01 X9.75 Y46.0 Z254 F50.39 
G01 X12.25 Y46.0 Z255 F50.00 
G01 X12.75 Y46.0 Z248 F52.76 
G01 X13.75 Y46.0 Z153 F90.16 
G01 X14.25 Y46.0 Z55 F100.00 
G01 X14.75 Y46.0 Z16 F100.00 
G01 X20.25 Y46.0 Z0 F200.00 
G01 X20.75 Y46.0 Z2 F200.00 
G01 X22.25 Y46.0 Z0 F200.00 
G01 X22.75 Y46.0 Z129 F99.61 
G01 X23.75 Y46.0 Z255 F50.00 
G01 X24.25 Y46.0 Z84 F100.00 
G01 X26.75 Y46.0 Z0 F200.00 
G01 X27.25 Y46.0 Z2 F200.00 
G01 X27.75 Y46.0 Z0 F200.00 
G01 X28.25 Y46.0 Z2 F200.00 
G01 X29.75 Y46.0 Z0 F200.00 
G01 X30.25 Y46.0 Z2 F200.00 
G01 X31.25 Y46.0 Z0 F200.00 
G01 X31.75 Y46.0 Z88 F100.00 
G01 X32.25 Y46.0 Z141 F94.88 
G01 X32.75 Y46.0 Z239 F56.30 
G01 X33.25 Y46.0 Z254 F50.39 
G01 X33.75 Y46.0 Z251 F51.57 
G01 X45.25 Y46.0 Z248 F52.76 
G01 X45.75 Y46.0 Z247 F53.15 
G01 X46.25 Y46.0 Z249 F52.36 
G01 X46.75 Y46.0 Z255 F50.00 
G01 X47.25 Y46.0 Z249 F52.36 
G01 X47.75 Y46.0 Z240 F55.91 
G01 X48.25 Y46.0 Z138 F96.06 
G01 X48.5 Y46.0 Z0 F200.00 
G00 X48.5 Y46.5 Z0 F200.00 
G01 X47.75 Y46.5 Z0 F200.00 
G01 X47.25 Y46.5 Z27 F100.00 
G01 X34.75 Y46.5 Z24 F100.00 
G01 X34.25 Y46.5 Z22 F100.00 
G01 X33.75 Y46.5 Z24 F100.00 
G01 X33.25 Y46.5 Z22 F100.00 
G01 X32.75 Y46.5 Z24 F100.00 
G01 X32.25 Y46.5 Z27 F100.00 
G01 X31.75 Y46.5 Z44 F100.00 
G01 X31.25 Y46.5 Z30 F100.00 
G01 X30.75 Y46.5 Z0 F200.00 
G01 X30.25 Y46.5 Z2 F200.00 
G01 X26.25 Y46.5 Z0 F200.00 
G01 X25.75 Y46.5 Z2 F200.00 
G01 X24.25 Y46.5 Z0 F200.00 
G01 X23.75 Y46.5 Z5 F200.00 
G01 X23.25 Y46.5 Z195 F73.62 
G01 X22.75 Y46.5 Z254 F50.39 
G01 X22.25 Y46.5 Z60 F100.00 
G01 X15.25 Y46.5 Z0 F200.00 
G01 X14.75 Y46.5 Z4 F200.00 
G01 X14.25 Y46.5 Z122 F100.00 
G01 X13.75 Y46.5 Z150 F91.34 
G01 X13.25 Y46.5 Z179 F79.92 
G01 X12.75 Y46.5 Z177 F80.71 
G01 X12.25 Y46.5 Z162 F86.61 
G01 X10.75 Y46.5 Z159 F87.80 
G01 X10.25 Y46.5 Z158 F88.19 
G01 X9.75 Y46.5 Z160 F87.40 
G01 X9.25 Y46.5 Z159 F87.80 
G01 X8.75 Y46.5 Z160 F87.40 
G01 X8.25 Y46.5 Z159 F87.80 
G01 X7.75 Y46.5 Z160 F87.40 
G01 X6.75 Y46.5 Z159 F87.80 
G01 X6.25 Y46.5 Z160 F87.40 
G01 X5.75 Y46.5 Z159 F87.80 
G01 X5.25 Y46.5 Z158 F88.19 
G01 X4.75 Y46.5 Z160 F87.40 
G01 X4.25 Y46.5 Z159 F87.80 
G01 X3.75 Y46.5 Z160 F87.40 
G01 X3.25 Y46.5 Z159 F87.80 
G01 X2.75 Y46.5 Z166 F85.04 
G01 X2.25 Y46.5 Z174 F81.89 
G01 X1.75 Y46.5 Z144 F93.70 
G01 X1.25 Y46.5 Z85 F100.00 
G01 X1.0 Y46.5 Z0 F200.00 
G00 X1.0 Y47.0 Z0 F200.00 
G01 X22.25 Y47.0 Z0 F200.00 
G01 X22.75 Y47.0 Z59 F100.00 
G01 X23.25 Y47.0 Z255 F50.00 
G01 X23.5 Y47.0 Z0 F200.00 
G00 X23.5 Y47.5 Z0 F200.00 
G01 X23.25 Y47.5 Z0 F200.00 
G01 X22.75 Y47.5 Z212 F66.93 
G01 X22.5 Y47.5 Z0 F200.00 
G00 X22.5 Y48.0 Z0 F200.00 
G01 X22.75 Y48.0 Z0 F200.00 
G01 X23.25 Y48.0 Z141 F94.88 
G01 X23.5 Y48.0 Z0 F200.00 
G00 X23.5 Y48.5 Z0 F200.00 


G00 X0 Y0 Z0 
M0 