/#############################################################/ 
/###########Gcode generated with PathImg.py V0.4##############/ 
/######written by Nick Sidney Lemberger aka Holysocks#########/ 
/#############################################################/ 

/blub/ 
/laser_engraver(diode, 445nm)/ 



F50 


G00 X0 Y0 Z0 F50.00
G00 X19.75 Y1.15 Z0 F50.00 

G01 X19.8 Y1.1 Z255 F12.00 
G01 X19.95 Y1.0 Z255 F12.00 
G01 X20.0 Y0.95 Z255 F12.00 
G01 X20.15 Y0.85 Z255 F12.00 
G01 X20.25 Y0.9 Z255 F12.00 
G01 X20.4 Y0.95 Z255 F12.00 
G01 X20.4 Y0.9 Z255 F12.00 
G01 X20.35 Y0.85 Z255 F12.00 
G01 X20.3 Y0.9 Z255 F12.00 
G01 X20.3 Y0.85 Z255 F12.00 
G01 X20.35 Y0.8 Z255 F12.00 
G01 X20.35 Y0.75 Z255 F12.00 
G01 X20.4 Y0.7 Z255 F12.00 
G01 X20.35 Y0.65 Z255 F12.00 
G01 X20.35 Y0.6 Z255 F12.00 
G01 X20.4 Y0.5 Z255 F12.00 
G01 X20.35 Y0.45 Z255 F12.00 
G01 X20.35 Y0.35 Z255 F12.00 
G01 X20.4 Y0.25 Z255 F12.00 
G01 X20.35 Y0.2 Z255 F12.00 
G01 X20.4 Y0.15 Z255 F12.00 
G01 X20.35 Y0.1 Z255 F12.00 
G01 X20.35 Y0.15 Z255 F12.00 
G01 X20.3 Y0.2 Z255 F12.00 
G01 X20.25 Y0.2 Z255 F12.00 
G01 X20.1 Y0.25 Z255 F12.00 
G01 X20.05 Y0.25 Z255 F12.00 
G01 X20.0 Y0.25 Z255 F12.00 
G00 X20.2 Y0.35 Z0 F50.00 

G01 X20.15 Y0.4 Z255 F12.00 
G01 X20.15 Y0.45 Z255 F12.00 
G01 X20.2 Y0.5 Z255 F12.00 
G01 X20.25 Y0.45 Z255 F12.00 
G01 X20.25 Y0.45 Z255 F12.00 
G00 X20.3 Y0.35 Z0 F50.00 

G01 X20.3 Y0.35 Z255 F12.00 
G00 X19.7 Y1.25 Z0 F50.00 

G01 X19.75 Y1.35 Z255 F12.00 
G01 X19.75 Y1.4 Z255 F12.00 
G01 X19.8 Y1.5 Z255 F12.00 
G01 X19.9 Y1.55 Z255 F12.00 
G01 X20.0 Y1.6 Z255 F12.00 
G01 X20.05 Y1.6 Z255 F12.00 
G01 X20.25 Y1.55 Z255 F12.00 
G01 X20.3 Y1.55 Z255 F12.00 
G01 X20.35 Y1.6 Z255 F12.00 
G01 X20.4 Y1.75 Z255 F12.00 
G01 X20.35 Y1.7 Z255 F12.00 
G01 X20.3 Y1.65 Z255 F12.00 
G00 X20.4 Y1.8 Z0 F50.00 

G01 X20.4 Y1.85 Z255 F12.00 
G01 X20.35 Y1.9 Z255 F12.00 
G01 X20.4 Y1.95 Z255 F12.00 
G01 X20.45 Y1.95 Z255 F12.00 
G01 X20.55 Y2.0 Z255 F12.00 
G01 X20.5 Y2.05 Z255 F12.00 
G01 X20.5 Y2.1 Z255 F12.00 
G01 X20.55 Y2.15 Z255 F12.00 
G01 X20.6 Y2.25 Z255 F12.00 
G01 X20.55 Y2.45 Z255 F12.00 
G01 X20.55 Y2.5 Z255 F12.00 
G01 X20.5 Y2.6 Z255 F12.00 
G01 X20.4 Y2.6 Z255 F12.00 
G01 X20.45 Y2.55 Z255 F12.00 
G01 X20.4 Y2.55 Z255 F12.00 
G01 X20.4 Y2.55 Z255 F12.00 
G00 X20.45 Y2.8 Z0 F50.00 

G01 X20.5 Y2.9 Z255 F12.00 
G01 X20.45 Y3.0 Z255 F12.00 
G01 X20.4 Y2.95 Z255 F12.00 
G01 X20.4 Y2.9 Z255 F12.00 
G01 X20.35 Y2.85 Z255 F12.00 
G01 X20.3 Y2.9 Z255 F12.00 
G01 X20.25 Y3.0 Z255 F12.00 
G01 X20.2 Y3.1 Z255 F12.00 
G01 X20.05 Y3.2 Z255 F12.00 
G01 X20.0 Y3.25 Z255 F12.00 
G01 X19.9 Y3.3 Z255 F12.00 
G01 X19.85 Y3.35 Z255 F12.00 
G01 X19.85 Y3.4 Z255 F12.00 
G01 X19.8 Y3.55 Z255 F12.00 
G01 X19.85 Y3.6 Z255 F12.00 
G01 X19.8 Y3.65 Z255 F12.00 
G01 X19.85 Y3.65 Z255 F12.00 
G01 X19.9 Y3.7 Z255 F12.00 
G01 X20.05 Y3.8 Z255 F12.00 
G01 X20.1 Y3.85 Z255 F12.00 
G01 X20.15 Y3.85 Z255 F12.00 
G01 X20.3 Y3.9 Z255 F12.00 
G01 X20.3 Y4.0 Z255 F12.00 
G01 X20.35 Y4.0 Z255 F12.00 
G01 X20.4 Y4.05 Z255 F12.00 
G01 X20.45 Y4.0 Z255 F12.00 
G01 X20.4 Y3.95 Z255 F12.00 
G01 X20.4 Y3.95 Z255 F12.00 
G00 X20.3 Y4.15 Z0 F50.00 

G01 X20.3 Y4.2 Z255 F12.00 
G01 X20.25 Y4.3 Z255 F12.00 
G01 X20.3 Y4.35 Z255 F12.00 
G01 X20.3 Y4.45 Z255 F12.00 
G01 X20.3 Y4.5 Z255 F12.00 
G01 X20.35 Y4.55 Z255 F12.00 
G01 X20.4 Y4.55 Z255 F12.00 
G01 X20.5 Y4.5 Z255 F12.00 
G01 X20.5 Y4.45 Z255 F12.00 
G01 X20.45 Y4.4 Z255 F12.00 
G01 X20.5 Y4.4 Z255 F12.00 
G01 X20.55 Y4.35 Z255 F12.00 
G01 X20.5 Y4.3 Z255 F12.00 
G01 X20.45 Y4.35 Z255 F12.00 
G01 X20.4 Y4.4 Z255 F12.00 
G00 X20.15 Y4.45 Z0 F50.00 

G01 X20.2 Y4.5 Z255 F12.00 
G01 X20.2 Y4.55 Z255 F12.00 
G01 X20.25 Y4.6 Z255 F12.00 
G01 X20.2 Y4.65 Z255 F12.00 
G01 X20.15 Y4.8 Z255 F12.00 
G01 X20.2 Y4.8 Z255 F12.00 
G01 X20.25 Y4.85 Z255 F12.00 
G01 X20.2 Y4.9 Z255 F12.00 
G01 X20.25 Y4.95 Z255 F12.00 
G01 X20.3 Y5.05 Z255 F12.00 
G01 X20.35 Y5.1 Z255 F12.00 
G01 X20.3 Y5.15 Z255 F12.00 
G01 X20.3 Y5.25 Z255 F12.00 
G01 X20.3 Y5.3 Z255 F12.00 
G01 X20.25 Y5.35 Z255 F12.00 
G01 X20.1 Y5.4 Z255 F12.00 
G01 X20.1 Y5.45 Z255 F12.00 
G01 X20.05 Y5.5 Z255 F12.00 
G01 X20.0 Y5.6 Z255 F12.00 
G01 X19.95 Y5.65 Z255 F12.00 
G01 X19.95 Y5.7 Z255 F12.00 
G01 X20.0 Y5.85 Z255 F12.00 
G01 X20.15 Y5.95 Z255 F12.00 
G01 X20.2 Y6.0 Z255 F12.00 
G01 X20.3 Y6.05 Z255 F12.00 
G01 X20.25 Y6.0 Z255 F12.00 
G01 X20.3 Y5.95 Z255 F12.00 
G01 X20.35 Y5.95 Z255 F12.00 
G01 X20.4 Y6.0 Z255 F12.00 
G01 X20.45 Y5.95 Z255 F12.00 
G01 X20.5 Y6.0 Z255 F12.00 
G01 X20.55 Y5.95 Z255 F12.00 
G01 X20.5 Y5.9 Z255 F12.00 
G01 X20.5 Y5.9 Z255 F12.00 
G00 X20.5 Y6.05 Z0 F50.00 

G01 X20.5 Y6.1 Z255 F12.00 
G01 X20.55 Y6.2 Z255 F12.00 
G01 X20.65 Y6.25 Z255 F12.00 
G01 X20.7 Y6.3 Z255 F12.00 
G01 X20.7 Y6.25 Z255 F12.00 
G01 X20.75 Y6.2 Z255 F12.00 
G01 X20.8 Y6.25 Z255 F12.00 
G01 X20.8 Y6.3 Z255 F12.00 
G01 X20.85 Y6.35 Z255 F12.00 
G01 X20.85 Y6.4 Z255 F12.00 
G01 X20.9 Y6.45 Z255 F12.00 
G01 X20.85 Y6.5 Z255 F12.00 
G01 X20.85 Y6.55 Z255 F12.00 
G01 X20.9 Y6.6 Z255 F12.00 
G01 X21.0 Y6.65 Z255 F12.00 
G01 X21.05 Y6.6 Z255 F12.00 
G01 X21.1 Y6.65 Z255 F12.00 
G01 X21.15 Y6.75 Z255 F12.00 
G01 X21.1 Y6.8 Z255 F12.00 
G01 X21.15 Y6.85 Z255 F12.00 
G01 X21.2 Y7.0 Z255 F12.00 
G01 X21.15 Y6.95 Z255 F12.00 
G01 X21.1 Y7.0 Z255 F12.00 
G01 X21.15 Y7.0 Z255 F12.00 
G01 X21.2 Y7.05 Z255 F12.00 
G01 X21.15 Y7.1 Z255 F12.00 
G01 X21.2 Y7.1 Z255 F12.00 
G01 X21.15 Y7.15 Z255 F12.00 
G01 X21.15 Y7.15 Z255 F12.00 
G00 X21.35 Y7.2 Z0 F50.00 

G01 X21.35 Y7.15 Z255 F12.00 
G01 X21.4 Y7.1 Z255 F12.00 
G01 X21.45 Y7.1 Z255 F12.00 
G01 X21.5 Y7.05 Z255 F12.00 
G01 X21.45 Y7.0 Z255 F12.00 
G01 X21.45 Y6.9 Z255 F12.00 
G01 X21.4 Y6.85 Z255 F12.00 
G01 X21.35 Y6.9 Z255 F12.00 
G01 X21.3 Y6.85 Z255 F12.00 
G01 X21.25 Y6.9 Z255 F12.00 
G01 X21.25 Y6.9 Z255 F12.00 
G00 X21.4 Y7.0 Z0 F50.00 

G01 X21.4 Y7.0 Z255 F12.00 
G00 X21.05 Y6.9 Z0 F50.00 

G01 X21.1 Y6.9 Z255 F12.00 
G01 X21.05 Y6.85 Z255 F12.00 
G01 X21.05 Y6.85 Z255 F12.00 
G00 X20.9 Y6.8 Z0 F50.00 

G01 X20.8 Y6.8 Z255 F12.00 
G01 X20.75 Y6.85 Z255 F12.00 
G01 X20.75 Y6.9 Z255 F12.00 
G01 X20.8 Y6.95 Z255 F12.00 
G01 X20.85 Y6.95 Z255 F12.00 
G01 X20.9 Y7.0 Z255 F12.00 
G01 X20.85 Y7.05 Z255 F12.00 
G01 X20.9 Y7.1 Z255 F12.00 
G01 X20.85 Y7.1 Z255 F12.00 
G01 X20.9 Y7.05 Z255 F12.00 
G01 X20.9 Y7.05 Z255 F12.00 
G00 X20.75 Y7.05 Z0 F50.00 

G01 X20.8 Y7.1 Z255 F12.00 
G01 X20.75 Y7.1 Z255 F12.00 
G01 X20.8 Y7.15 Z255 F12.00 
G01 X20.75 Y7.2 Z255 F12.00 
G01 X20.7 Y7.15 Z255 F12.00 
G01 X20.65 Y7.0 Z255 F12.00 
G01 X20.7 Y7.0 Z255 F12.00 
G01 X20.65 Y7.05 Z255 F12.00 
G01 X20.65 Y7.05 Z255 F12.00 
G00 X20.55 Y7.1 Z0 F50.00 

G01 X20.6 Y7.2 Z255 F12.00 
G01 X20.65 Y7.15 Z255 F12.00 
G01 X20.7 Y7.2 Z255 F12.00 
G01 X20.7 Y7.3 Z255 F12.00 
G01 X20.65 Y7.4 Z255 F12.00 
G01 X20.7 Y7.45 Z255 F12.00 
G01 X20.75 Y7.4 Z255 F12.00 
G01 X20.75 Y7.3 Z255 F12.00 
G01 X20.75 Y7.3 Z255 F12.00 
G00 X20.6 Y7.25 Z0 F50.00 

G01 X20.55 Y7.3 Z255 F12.00 
G01 X20.45 Y7.3 Z255 F12.00 
G01 X20.4 Y7.35 Z255 F12.00 
G01 X20.35 Y7.45 Z255 F12.00 
G01 X20.35 Y7.45 Z255 F12.00 
G00 X20.35 Y7.6 Z0 F50.00 

G01 X20.3 Y7.6 Z255 F12.00 
G01 X20.1 Y7.65 Z255 F12.00 
G01 X20.1 Y7.7 Z255 F12.00 
G01 X20.05 Y7.75 Z255 F12.00 
G01 X20.05 Y7.8 Z255 F12.00 
G01 X20.1 Y7.85 Z255 F12.00 
G01 X20.1 Y7.9 Z255 F12.00 
G01 X20.15 Y8.0 Z255 F12.00 
G01 X20.25 Y8.05 Z255 F12.00 
G01 X20.35 Y8.1 Z255 F12.00 
G01 X20.4 Y8.05 Z255 F12.00 
G01 X20.45 Y8.05 Z255 F12.00 
G01 X20.5 Y8.0 Z255 F12.00 
G01 X20.55 Y8.0 Z255 F12.00 
G01 X20.65 Y8.05 Z255 F12.00 
G01 X20.7 Y8.05 Z255 F12.00 
G01 X20.75 Y8.1 Z255 F12.00 
G01 X20.85 Y8.15 Z255 F12.00 
G01 X21.05 Y8.2 Z255 F12.00 
G01 X21.05 Y8.25 Z255 F12.00 
G01 X21.1 Y8.35 Z255 F12.00 
G01 X21.05 Y8.4 Z255 F12.00 
G01 X21.05 Y8.45 Z255 F12.00 
G01 X21.05 Y8.45 Z255 F12.00 
G00 X21.2 Y8.4 Z0 F50.00 

G01 X21.2 Y8.45 Z255 F12.00 
G01 X21.25 Y8.5 Z255 F12.00 
G01 X21.3 Y8.6 Z255 F12.00 
G01 X21.25 Y8.65 Z255 F12.00 
G01 X21.25 Y8.7 Z255 F12.00 
G01 X21.2 Y8.8 Z255 F12.00 
G01 X21.25 Y8.8 Z255 F12.00 
G01 X21.3 Y8.85 Z255 F12.00 
G01 X21.4 Y8.85 Z255 F12.00 
G01 X21.45 Y8.85 Z255 F12.00 
G01 X21.5 Y8.9 Z255 F12.00 
G01 X21.5 Y8.95 Z255 F12.00 
G01 X21.45 Y9.15 Z255 F12.00 
G01 X21.35 Y9.15 Z255 F12.00 
G01 X21.25 Y9.1 Z255 F12.00 
G01 X21.3 Y9.15 Z255 F12.00 
G01 X21.25 Y9.2 Z255 F12.00 
G01 X21.25 Y9.25 Z255 F12.00 
G01 X21.3 Y9.3 Z255 F12.00 
G01 X21.3 Y9.35 Z255 F12.00 
G01 X21.25 Y9.5 Z255 F12.00 
G01 X21.25 Y9.55 Z255 F12.00 
G01 X21.3 Y9.6 Z255 F12.00 
G01 X21.3 Y9.65 Z255 F12.00 
G01 X21.25 Y9.7 Z255 F12.00 
G01 X21.2 Y9.8 Z255 F12.00 
G01 X21.25 Y9.85 Z255 F12.00 
G01 X21.25 Y9.9 Z255 F12.00 
G01 X21.2 Y9.95 Z255 F12.00 
G01 X21.25 Y10.0 Z255 F12.00 
G01 X21.25 Y10.05 Z255 F12.00 
G01 X21.2 Y10.2 Z255 F12.00 
G01 X21.25 Y10.25 Z255 F12.00 
G01 X21.3 Y10.4 Z255 F12.00 
G01 X21.3 Y10.45 Z255 F12.00 
G01 X21.25 Y10.8 Z255 F12.00 
G01 X21.25 Y10.85 Z255 F12.00 
G01 X21.3 Y11.2 Z255 F12.00 
G01 X21.3 Y11.25 Z255 F12.00 
G01 X21.25 Y11.75 Z255 F12.00 
G01 X21.2 Y11.7 Z255 F12.00 
G01 X21.2 Y11.65 Z255 F12.00 
G01 X21.15 Y11.6 Z255 F12.00 
G01 X21.15 Y11.5 Z255 F12.00 
G01 X21.15 Y11.45 Z255 F12.00 
G01 X21.1 Y11.35 Z255 F12.00 
G01 X21.1 Y11.3 Z255 F12.00 
G01 X21.05 Y11.05 Z255 F12.00 
G01 X21.05 Y11.0 Z255 F12.00 
G01 X21.1 Y10.95 Z255 F12.00 
G01 X21.1 Y10.9 Z255 F12.00 
G01 X21.05 Y10.8 Z255 F12.00 
G01 X21.05 Y10.7 Z255 F12.00 
G01 X21.1 Y10.6 Z255 F12.00 
G01 X21.05 Y10.5 Z255 F12.00 
G01 X21.1 Y10.45 Z255 F12.00 
G01 X21.05 Y10.4 Z255 F12.00 
G01 X21.1 Y10.35 Z255 F12.00 
G01 X21.15 Y10.35 Z255 F12.00 
G01 X21.1 Y10.4 Z255 F12.00 
G01 X21.1 Y10.5 Z255 F12.00 
G01 X21.1 Y10.5 Z255 F12.00 
G00 X21.0 Y10.6 Z0 F50.00 

G01 X20.95 Y10.65 Z255 F12.00 
G01 X20.9 Y10.75 Z255 F12.00 
G01 X20.85 Y10.8 Z255 F12.00 
G01 X20.8 Y10.8 Z255 F12.00 
G01 X20.75 Y10.75 Z255 F12.00 
G01 X20.7 Y10.65 Z255 F12.00 
G01 X20.75 Y10.5 Z255 F12.00 
G01 X20.7 Y10.5 Z255 F12.00 
G01 X20.6 Y10.55 Z255 F12.00 
G01 X20.55 Y10.5 Z255 F12.00 
G01 X20.6 Y10.45 Z255 F12.00 
G01 X20.8 Y10.35 Z255 F12.00 
G01 X20.8 Y10.4 Z255 F12.00 
G01 X20.8 Y10.4 Z255 F12.00 
G00 X20.8 Y10.25 Z0 F50.00 

G01 X20.75 Y10.2 Z255 F12.00 
G01 X20.7 Y10.25 Z255 F12.00 
G01 X20.55 Y10.45 Z255 F12.00 
G01 X20.5 Y10.5 Z255 F12.00 
G01 X20.55 Y10.55 Z255 F12.00 
G01 X20.5 Y10.6 Z255 F12.00 
G01 X20.45 Y10.6 Z255 F12.00 
G01 X20.4 Y10.65 Z255 F12.00 
G01 X20.35 Y10.75 Z255 F12.00 
G01 X20.3 Y10.85 Z255 F12.00 
G01 X20.3 Y10.9 Z255 F12.00 
G01 X20.25 Y11.05 Z255 F12.00 
G01 X20.25 Y11.1 Z255 F12.00 
G01 X20.3 Y11.25 Z255 F12.00 
G01 X20.3 Y11.3 Z255 F12.00 
G01 X20.25 Y11.35 Z255 F12.00 
G01 X20.2 Y11.3 Z255 F12.00 
G01 X20.2 Y11.35 Z255 F12.00 
G01 X20.15 Y11.4 Z255 F12.00 
G01 X20.15 Y11.45 Z255 F12.00 
G01 X20.15 Y11.45 Z255 F12.00 
G00 X20.3 Y11.55 Z0 F50.00 

G01 X20.4 Y11.55 Z255 F12.00 
G01 X20.35 Y11.5 Z255 F12.00 
G01 X20.3 Y11.5 Z255 F12.00 
G01 X20.35 Y11.45 Z255 F12.00 
G01 X20.35 Y11.4 Z255 F12.00 
G01 X20.3 Y11.35 Z255 F12.00 
G01 X20.3 Y11.35 Z255 F12.00 
G00 X20.3 Y11.6 Z0 F50.00 

G01 X20.25 Y11.65 Z255 F12.00 
G01 X20.2 Y11.6 Z255 F12.00 
G01 X20.2 Y11.65 Z255 F12.00 
G01 X20.25 Y11.7 Z255 F12.00 
G01 X20.25 Y11.75 Z255 F12.00 
G01 X20.2 Y11.85 Z255 F12.00 
G01 X20.15 Y11.8 Z255 F12.00 
G01 X20.15 Y11.8 Z255 F12.00 
G00 X20.2 Y11.95 Z0 F50.00 

G01 X20.25 Y12.0 Z255 F12.00 
G01 X20.25 Y12.1 Z255 F12.00 
G01 X20.3 Y12.15 Z255 F12.00 
G01 X20.4 Y12.35 Z255 F12.00 
G01 X20.45 Y12.35 Z255 F12.00 
G01 X20.5 Y12.4 Z255 F12.00 
G01 X20.5 Y12.45 Z255 F12.00 
G01 X20.45 Y12.55 Z255 F12.00 
G01 X20.4 Y12.65 Z255 F12.00 
G01 X20.35 Y12.7 Z255 F12.00 
G01 X20.35 Y12.75 Z255 F12.00 
G01 X20.3 Y12.8 Z255 F12.00 
G01 X20.3 Y12.85 Z255 F12.00 
G01 X20.25 Y12.9 Z255 F12.00 
G01 X20.2 Y12.9 Z255 F12.00 
G01 X20.15 Y12.95 Z255 F12.00 
G01 X20.2 Y13.0 Z255 F12.00 
G01 X20.2 Y13.05 Z255 F12.00 
G01 X20.25 Y13.15 Z255 F12.00 
G01 X20.3 Y13.25 Z255 F12.00 
G01 X20.35 Y13.35 Z255 F12.00 
G01 X20.3 Y13.4 Z255 F12.00 
G01 X20.35 Y13.45 Z255 F12.00 
G01 X20.45 Y13.5 Z255 F12.00 
G01 X20.5 Y13.55 Z255 F12.00 
G01 X20.45 Y13.6 Z255 F12.00 
G01 X20.4 Y13.6 Z255 F12.00 
G01 X20.35 Y13.65 Z255 F12.00 
G01 X20.35 Y13.7 Z255 F12.00 
G01 X20.4 Y13.75 Z255 F12.00 
G01 X20.35 Y13.8 Z255 F12.00 
G01 X20.35 Y13.85 Z255 F12.00 
G01 X20.4 Y14.05 Z255 F12.00 
G01 X20.45 Y14.05 Z255 F12.00 
G01 X20.7 Y14.0 Z255 F12.00 
G01 X20.75 Y14.0 Z255 F12.00 
G01 X20.8 Y14.05 Z255 F12.00 
G01 X20.85 Y14.05 Z255 F12.00 
G01 X20.9 Y14.1 Z255 F12.00 
G01 X20.95 Y14.05 Z255 F12.00 
G01 X20.95 Y14.0 Z255 F12.00 
G01 X21.0 Y13.95 Z255 F12.00 
G01 X20.95 Y13.9 Z255 F12.00 
G01 X21.0 Y13.85 Z255 F12.00 
G01 X21.1 Y13.85 Z255 F12.00 
G01 X21.2 Y13.9 Z255 F12.00 
G01 X21.15 Y13.85 Z255 F12.00 
G01 X21.2 Y13.8 Z255 F12.00 
G01 X21.15 Y13.75 Z255 F12.00 
G01 X21.2 Y13.7 Z255 F12.00 
G01 X21.15 Y13.65 Z255 F12.00 
G01 X21.1 Y13.7 Z255 F12.00 
G01 X21.1 Y13.7 Z255 F12.00 
G00 X21.15 Y13.55 Z0 F50.00 

G01 X21.1 Y13.35 Z255 F12.00 
G01 X21.15 Y13.3 Z255 F12.00 
G01 X21.15 Y13.25 Z255 F12.00 
G01 X21.1 Y13.2 Z255 F12.00 
G01 X21.1 Y13.15 Z255 F12.00 
G01 X21.15 Y13.1 Z255 F12.00 
G01 X21.1 Y13.05 Z255 F12.00 
G01 X21.1 Y13.0 Z255 F12.00 
G01 X21.15 Y12.9 Z255 F12.00 
G01 X21.15 Y12.85 Z255 F12.00 
G01 X21.2 Y12.7 Z255 F12.00 
G01 X21.2 Y12.65 Z255 F12.00 
G01 X21.25 Y12.25 Z255 F12.00 
G01 X21.3 Y12.1 Z255 F12.00 
G01 X21.2 Y12.1 Z255 F12.00 
G01 X21.2 Y12.15 Z255 F12.00 
G01 X21.2 Y12.2 Z255 F12.00 
G00 X21.05 Y12.2 Z0 F50.00 

G01 X21.0 Y12.2 Z255 F12.00 
G01 X20.95 Y12.25 Z255 F12.00 
G01 X20.95 Y12.3 Z255 F12.00 
G01 X20.9 Y12.5 Z255 F12.00 
G01 X20.9 Y12.55 Z255 F12.00 
G01 X20.85 Y12.6 Z255 F12.00 
G01 X20.85 Y12.65 Z255 F12.00 
G01 X20.9 Y12.7 Z255 F12.00 
G01 X20.9 Y12.8 Z255 F12.00 
G01 X20.8 Y12.8 Z255 F12.00 
G01 X20.8 Y12.75 Z255 F12.00 
G01 X20.85 Y12.7 Z255 F12.00 
G01 X20.85 Y12.7 Z255 F12.00 
G00 X21.0 Y12.65 Z0 F50.00 

G01 X21.05 Y12.55 Z255 F12.00 
G01 X21.1 Y12.45 Z255 F12.00 
G01 X21.1 Y12.4 Z255 F12.00 
G01 X21.1 Y12.3 Z255 F12.00 
G00 X21.45 Y12.2 Z0 F50.00 

G01 X21.45 Y12.25 Z255 F12.00 
G01 X21.4 Y12.4 Z255 F12.00 
G01 X21.4 Y12.45 Z255 F12.00 
G01 X21.35 Y12.55 Z255 F12.00 
G01 X21.35 Y12.6 Z255 F12.00 
G01 X21.4 Y13.25 Z255 F12.00 
G01 X21.4 Y13.3 Z255 F12.00 
G01 X21.45 Y13.35 Z255 F12.00 
G01 X21.5 Y13.45 Z255 F12.00 
G01 X21.55 Y13.6 Z255 F12.00 
G01 X21.55 Y13.65 Z255 F12.00 
G01 X21.6 Y14.0 Z255 F12.00 
G01 X21.6 Y14.05 Z255 F12.00 
G01 X21.55 Y14.15 Z255 F12.00 
G01 X21.55 Y14.2 Z255 F12.00 
G01 X21.5 Y14.35 Z255 F12.00 
G01 X21.55 Y14.4 Z255 F12.00 
G01 X21.5 Y14.45 Z255 F12.00 
G01 X21.55 Y14.5 Z255 F12.00 
G01 X21.55 Y14.6 Z255 F12.00 
G01 X21.6 Y14.65 Z255 F12.00 
G01 X21.55 Y14.65 Z255 F12.00 
G01 X21.6 Y14.6 Z255 F12.00 
G01 X21.6 Y14.6 Z255 F12.00 
G00 X21.55 Y14.45 Z0 F50.00 

G01 X21.6 Y14.4 Z255 F12.00 
G01 X21.65 Y14.4 Z255 F12.00 
G01 X21.7 Y14.35 Z255 F12.00 
G01 X21.8 Y14.3 Z255 F12.00 
G01 X21.85 Y14.35 Z255 F12.00 
G01 X21.8 Y14.4 Z255 F12.00 
G01 X21.85 Y14.45 Z255 F12.00 
G01 X21.8 Y14.5 Z255 F12.00 
G01 X21.8 Y14.6 Z255 F12.00 
G01 X21.8 Y14.65 Z255 F12.00 
G01 X21.85 Y14.7 Z255 F12.00 
G01 X21.9 Y14.8 Z255 F12.00 
G01 X21.95 Y15.1 Z255 F12.00 
G01 X21.9 Y15.15 Z255 F12.00 
G01 X21.95 Y15.2 Z255 F12.00 
G01 X22.05 Y15.2 Z255 F12.00 
G01 X22.05 Y15.15 Z255 F12.00 
G01 X22.0 Y14.9 Z255 F12.00 
G01 X22.0 Y14.85 Z255 F12.00 
G01 X22.05 Y14.75 Z255 F12.00 
G01 X22.05 Y14.7 Z255 F12.00 
G01 X22.0 Y14.65 Z255 F12.00 
G01 X21.9 Y14.65 Z255 F12.00 
G01 X21.9 Y14.7 Z255 F12.00 
G01 X21.9 Y14.7 Z255 F12.00 
G00 X21.8 Y14.8 Z0 F50.00 

G01 X21.75 Y14.9 Z255 F12.00 
G01 X21.75 Y14.95 Z255 F12.00 
G01 X21.7 Y15.0 Z255 F12.00 
G01 X21.6 Y15.05 Z255 F12.00 
G01 X21.55 Y15.0 Z255 F12.00 
G01 X21.55 Y14.95 Z255 F12.00 
G01 X21.6 Y14.9 Z255 F12.00 
G01 X21.55 Y14.85 Z255 F12.00 
G01 X21.55 Y14.8 Z255 F12.00 
G01 X21.5 Y14.75 Z255 F12.00 
G01 X21.45 Y14.8 Z255 F12.00 
G01 X21.45 Y14.85 Z255 F12.00 
G01 X21.5 Y15.2 Z255 F12.00 
G01 X21.6 Y15.35 Z255 F12.00 
G01 X21.65 Y15.4 Z255 F12.00 
G01 X21.65 Y15.45 Z255 F12.00 
G01 X21.7 Y15.6 Z255 F12.00 
G01 X21.75 Y15.6 Z255 F12.00 
G01 X21.8 Y15.65 Z255 F12.00 
G01 X21.75 Y15.7 Z255 F12.00 
G01 X21.75 Y15.8 Z255 F12.00 
G01 X21.75 Y15.85 Z255 F12.00 
G01 X21.7 Y16.05 Z255 F12.00 
G01 X21.7 Y16.1 Z255 F12.00 
G01 X21.75 Y16.15 Z255 F12.00 
G01 X21.85 Y16.3 Z255 F12.00 
G01 X21.8 Y16.35 Z255 F12.00 
G01 X21.7 Y16.35 Z255 F12.00 
G01 X21.75 Y16.3 Z255 F12.00 
G01 X21.7 Y16.25 Z255 F12.00 
G01 X21.65 Y16.25 Z255 F12.00 
G01 X21.65 Y16.25 Z255 F12.00 
G00 X21.85 Y16.15 Z0 F50.00 

G01 X21.9 Y16.15 Z255 F12.00 
G01 X21.95 Y16.1 Z255 F12.00 
G01 X22.0 Y16.15 Z255 F12.00 
G01 X22.0 Y16.2 Z255 F12.00 
G01 X22.05 Y16.3 Z255 F12.00 
G01 X22.05 Y16.35 Z255 F12.00 
G01 X22.0 Y16.75 Z255 F12.00 
G01 X22.0 Y16.8 Z255 F12.00 
G01 X21.95 Y16.85 Z255 F12.00 
G01 X21.95 Y16.9 Z255 F12.00 
G01 X21.9 Y16.95 Z255 F12.00 
G01 X21.85 Y16.95 Z255 F12.00 
G01 X21.8 Y16.9 Z255 F12.00 
G01 X21.8 Y16.85 Z255 F12.00 
G01 X21.75 Y16.8 Z255 F12.00 
G01 X21.65 Y16.8 Z255 F12.00 
G01 X21.6 Y16.9 Z255 F12.00 
G01 X21.65 Y17.0 Z255 F12.00 
G01 X21.65 Y17.05 Z255 F12.00 
G01 X21.7 Y17.1 Z255 F12.00 
G01 X21.8 Y17.15 Z255 F12.00 
G01 X21.85 Y17.1 Z255 F12.00 
G01 X21.9 Y17.1 Z255 F12.00 
G01 X22.0 Y17.05 Z255 F12.00 
G01 X22.05 Y17.05 Z255 F12.00 
G01 X22.1 Y17.1 Z255 F12.00 
G01 X22.1 Y17.15 Z255 F12.00 
G01 X22.05 Y17.2 Z255 F12.00 
G01 X22.05 Y17.25 Z255 F12.00 
G01 X22.1 Y17.3 Z255 F12.00 
G01 X22.1 Y17.4 Z255 F12.00 
G01 X22.15 Y17.45 Z255 F12.00 
G01 X22.15 Y17.55 Z255 F12.00 
G01 X22.2 Y17.6 Z255 F12.00 
G01 X22.2 Y17.7 Z255 F12.00 
G01 X22.1 Y17.7 Z255 F12.00 
G01 X22.15 Y17.65 Z255 F12.00 
G01 X22.1 Y17.6 Z255 F12.00 
G01 X22.05 Y17.65 Z255 F12.00 
G01 X22.05 Y17.7 Z255 F12.00 
G01 X22.0 Y17.75 Z255 F12.00 
G01 X21.95 Y17.7 Z255 F12.00 
G01 X21.95 Y17.7 Z255 F12.00 
G00 X22.15 Y17.8 Z0 F50.00 

G01 X22.15 Y17.8 Z255 F12.00 
G00 X22.15 Y17.95 Z0 F50.00 

G01 X22.3 Y18.0 Z255 F12.00 
G01 X22.25 Y17.95 Z255 F12.00 
G01 X22.25 Y17.95 Z255 F12.00 
G00 X22.2 Y18.1 Z0 F50.00 

G01 X22.25 Y18.2 Z255 F12.00 
G01 X22.3 Y18.3 Z255 F12.00 
G01 X22.25 Y18.35 Z255 F12.00 
G01 X22.2 Y18.3 Z255 F12.00 
G01 X22.2 Y18.35 Z255 F12.00 
G01 X22.15 Y18.4 Z255 F12.00 
G01 X22.2 Y18.45 Z255 F12.00 
G01 X22.2 Y18.5 Z255 F12.00 
G01 X22.25 Y18.6 Z255 F12.00 
G01 X22.3 Y18.55 Z255 F12.00 
G01 X22.35 Y18.6 Z255 F12.00 
G01 X22.35 Y18.65 Z255 F12.00 
G01 X22.3 Y18.7 Z255 F12.00 
G01 X22.25 Y18.85 Z255 F12.00 
G01 X22.2 Y18.9 Z255 F12.00 
G01 X22.25 Y18.95 Z255 F12.00 
G01 X22.2 Y19.0 Z255 F12.00 
G01 X22.15 Y18.95 Z255 F12.00 
G01 X22.15 Y18.9 Z255 F12.00 
G01 X22.15 Y18.85 Z255 F12.00 
G00 X22.0 Y18.9 Z0 F50.00 

G01 X22.0 Y18.9 Z255 F12.00 
G00 X21.9 Y18.95 Z0 F50.00 

G01 X21.95 Y19.0 Z255 F12.00 
G01 X22.1 Y19.05 Z255 F12.00 
G01 X22.15 Y19.1 Z255 F12.00 
G01 X22.25 Y19.1 Z255 F12.00 
G01 X22.35 Y19.1 Z255 F12.00 
G01 X22.4 Y19.05 Z255 F12.00 
G01 X22.35 Y19.0 Z255 F12.00 
G01 X22.35 Y18.9 Z255 F12.00 
G01 X22.3 Y18.85 Z255 F12.00 
G01 X22.3 Y18.85 Z255 F12.00 
G00 X22.25 Y18.65 Z0 F50.00 

G01 X22.2 Y18.6 Z255 F12.00 
G01 X22.15 Y18.65 Z255 F12.00 
G01 X22.15 Y18.7 Z255 F12.00 
G01 X22.1 Y18.65 Z255 F12.00 
G01 X22.1 Y18.65 Z255 F12.00 
G00 X22.0 Y18.5 Z0 F50.00 

G01 X22.0 Y18.45 Z255 F12.00 
G01 X22.0 Y18.45 Z255 F12.00 
G00 X22.1 Y18.3 Z0 F50.00 

G01 X22.05 Y18.1 Z255 F12.00 
G01 X22.1 Y18.05 Z255 F12.00 
G01 X22.05 Y18.05 Z255 F12.00 
G01 X22.1 Y18.1 Z255 F12.00 
G01 X22.1 Y18.1 Z255 F12.00 
G00 X21.75 Y18.4 Z0 F50.00 

G01 X21.8 Y18.45 Z255 F12.00 
G01 X21.85 Y18.55 Z255 F12.00 
G01 X21.85 Y18.55 Z255 F12.00 
G00 X21.8 Y18.4 Z0 F50.00 

G01 X21.8 Y18.4 Z255 F12.00 
G00 X21.65 Y18.1 Z0 F50.00 

G01 X21.65 Y18.1 Z255 F12.00 
G00 X21.45 Y17.85 Z0 F50.00 

G01 X21.4 Y17.8 Z255 F12.00 
G01 X21.4 Y17.75 Z255 F12.00 
G01 X21.4 Y17.7 Z255 F12.00 
G00 X21.0 Y17.65 Z0 F50.00 

G01 X20.95 Y17.65 Z255 F12.00 
G01 X21.0 Y17.7 Z255 F12.00 
G01 X20.95 Y17.75 Z255 F12.00 
G01 X20.95 Y17.85 Z255 F12.00 
G01 X20.9 Y17.85 Z255 F12.00 
G01 X20.85 Y17.9 Z255 F12.00 
G01 X20.8 Y17.9 Z255 F12.00 
G01 X20.75 Y17.95 Z255 F12.00 
G01 X20.7 Y17.95 Z255 F12.00 
G01 X20.65 Y17.9 Z255 F12.00 
G01 X20.6 Y17.8 Z255 F12.00 
G01 X20.65 Y17.65 Z255 F12.00 
G01 X20.7 Y17.65 Z255 F12.00 
G01 X20.9 Y17.65 Z255 F12.00 
G00 X21.2 Y18.3 Z0 F50.00 

G01 X21.25 Y18.35 Z255 F12.00 
G01 X21.25 Y18.4 Z255 F12.00 
G01 X21.2 Y18.45 Z255 F12.00 
G01 X21.2 Y18.55 Z255 F12.00 
G01 X21.15 Y18.55 Z255 F12.00 
G01 X21.2 Y18.5 Z255 F12.00 
G01 X21.2 Y18.5 Z255 F12.00 
G00 X21.15 Y18.4 Z0 F50.00 

G01 X21.1 Y18.4 Z255 F12.00 
G01 X21.15 Y18.35 Z255 F12.00 
G01 X21.15 Y18.35 Z255 F12.00 
G00 X21.0 Y18.45 Z0 F50.00 

G01 X21.05 Y18.5 Z255 F12.00 
G01 X21.0 Y18.55 Z255 F12.00 
G01 X20.95 Y18.55 Z255 F12.00 
G01 X20.9 Y18.6 Z255 F12.00 
G01 X20.9 Y18.7 Z255 F12.00 
G01 X20.95 Y18.7 Z255 F12.00 
G01 X20.9 Y18.75 Z255 F12.00 
G01 X20.9 Y18.75 Z255 F12.00 
G00 X21.05 Y18.7 Z0 F50.00 

G01 X21.1 Y18.65 Z255 F12.00 
G01 X21.1 Y18.6 Z255 F12.00 
G01 X21.1 Y18.6 Z255 F12.00 
G00 X21.85 Y18.75 Z0 F50.00 

G01 X21.8 Y18.8 Z255 F12.00 
G01 X21.8 Y18.8 Z255 F12.00 
G00 X22.0 Y19.1 Z0 F50.00 

G01 X21.95 Y19.1 Z255 F12.00 
G01 X21.95 Y19.1 Z255 F12.00 
G00 X22.1 Y19.2 Z0 F50.00 

G01 X22.15 Y19.25 Z255 F12.00 
G01 X22.2 Y19.25 Z255 F12.00 
G01 X22.15 Y19.3 Z255 F12.00 
G01 X22.2 Y19.35 Z255 F12.00 
G01 X22.2 Y19.45 Z255 F12.00 
G01 X22.25 Y19.5 Z255 F12.00 
G01 X22.2 Y19.55 Z255 F12.00 
G01 X22.25 Y19.6 Z255 F12.00 
G01 X22.2 Y19.65 Z255 F12.00 
G01 X22.25 Y19.7 Z255 F12.00 
G01 X22.4 Y19.9 Z255 F12.00 
G01 X22.45 Y19.95 Z255 F12.00 
G01 X22.4 Y20.0 Z255 F12.00 
G01 X22.3 Y20.0 Z255 F12.00 
G01 X22.35 Y19.95 Z255 F12.00 
G01 X22.3 Y19.95 Z255 F12.00 
G01 X22.25 Y20.0 Z255 F12.00 
G01 X22.25 Y20.05 Z255 F12.00 
G01 X22.2 Y20.15 Z255 F12.00 
G01 X22.25 Y20.2 Z255 F12.00 
G01 X22.25 Y20.25 Z255 F12.00 
G01 X22.3 Y20.3 Z255 F12.00 
G01 X22.35 Y20.25 Z255 F12.00 
G01 X22.35 Y20.15 Z255 F12.00 
G01 X22.35 Y20.2 Z255 F12.00 
G01 X22.35 Y20.2 Z255 F12.00 
G00 X22.4 Y20.05 Z0 F50.00 

G01 X22.45 Y20.1 Z255 F12.00 
G01 X22.45 Y20.2 Z255 F12.00 
G01 X22.45 Y20.2 Z255 F12.00 
G00 X22.1 Y20.25 Z0 F50.00 

G01 X22.0 Y20.3 Z255 F12.00 
G01 X21.95 Y20.35 Z255 F12.00 
G01 X21.85 Y20.5 Z255 F12.00 
G01 X21.8 Y20.55 Z255 F12.00 
G01 X21.7 Y20.55 Z255 F12.00 
G01 X21.75 Y20.55 Z255 F12.00 
G01 X21.75 Y20.55 Z255 F12.00 
G00 X21.8 Y20.7 Z0 F50.00 

G01 X21.8 Y20.75 Z255 F12.00 
G01 X21.85 Y20.85 Z255 F12.00 
G01 X22.1 Y21.05 Z255 F12.00 
G01 X22.15 Y21.1 Z255 F12.00 
G01 X22.3 Y21.15 Z255 F12.00 
G01 X22.35 Y21.2 Z255 F12.00 
G01 X22.45 Y21.25 Z255 F12.00 
G01 X22.5 Y21.2 Z255 F12.00 
G01 X22.55 Y21.25 Z255 F12.00 
G01 X22.6 Y21.2 Z255 F12.00 
G01 X22.65 Y21.25 Z255 F12.00 
G01 X22.75 Y21.25 Z255 F12.00 
G01 X22.8 Y21.25 Z255 F12.00 
G01 X22.85 Y21.2 Z255 F12.00 
G01 X22.9 Y21.2 Z255 F12.00 
G01 X23.05 Y21.25 Z255 F12.00 
G01 X23.15 Y21.25 Z255 F12.00 
G01 X23.15 Y21.2 Z255 F12.00 
G01 X23.2 Y21.15 Z255 F12.00 
G01 X23.25 Y21.2 Z255 F12.00 
G01 X23.3 Y21.3 Z255 F12.00 
G01 X23.25 Y21.35 Z255 F12.00 
G01 X23.2 Y21.45 Z255 F12.00 
G01 X23.15 Y21.5 Z255 F12.00 
G01 X23.1 Y21.45 Z255 F12.00 
G01 X23.05 Y21.45 Z255 F12.00 
G01 X23.1 Y21.4 Z255 F12.00 
G01 X23.05 Y21.35 Z255 F12.00 
G01 X23.1 Y21.35 Z255 F12.00 
G01 X23.05 Y21.3 Z255 F12.00 
G01 X23.05 Y21.3 Z255 F12.00 
G00 X22.95 Y21.5 Z0 F50.00 

G01 X22.7 Y21.55 Z255 F12.00 
G01 X22.6 Y21.6 Z255 F12.00 
G01 X22.55 Y21.65 Z255 F12.00 
G01 X22.5 Y21.65 Z255 F12.00 
G01 X22.45 Y21.7 Z255 F12.00 
G01 X22.45 Y21.75 Z255 F12.00 
G01 X22.5 Y21.9 Z255 F12.00 
G01 X22.6 Y21.9 Z255 F12.00 
G01 X22.55 Y21.85 Z255 F12.00 
G01 X22.55 Y21.85 Z255 F12.00 
G00 X22.45 Y21.95 Z0 F50.00 

G01 X22.4 Y22.05 Z255 F12.00 
G01 X22.45 Y22.05 Z255 F12.00 
G01 X22.5 Y22.1 Z255 F12.00 
G01 X22.5 Y22.2 Z255 F12.00 
G01 X22.45 Y22.2 Z255 F12.00 
G01 X22.4 Y22.25 Z255 F12.00 
G01 X22.4 Y22.3 Z255 F12.00 
G01 X22.35 Y22.45 Z255 F12.00 
G01 X22.4 Y22.5 Z255 F12.00 
G01 X22.4 Y22.55 Z255 F12.00 
G01 X22.35 Y22.65 Z255 F12.00 
G01 X22.4 Y22.7 Z255 F12.00 
G01 X22.35 Y22.75 Z255 F12.00 
G01 X22.4 Y22.8 Z255 F12.00 
G01 X22.4 Y22.85 Z255 F12.00 
G01 X22.35 Y22.9 Z255 F12.00 
G01 X22.3 Y22.9 Z255 F12.00 
G01 X22.35 Y22.95 Z255 F12.00 
G01 X22.35 Y23.0 Z255 F12.00 
G01 X22.4 Y23.1 Z255 F12.00 
G01 X22.45 Y23.1 Z255 F12.00 
G01 X22.55 Y23.15 Z255 F12.00 
G01 X22.5 Y23.2 Z255 F12.00 
G01 X22.4 Y23.2 Z255 F12.00 
G01 X22.4 Y23.25 Z255 F12.00 
G01 X22.35 Y23.3 Z255 F12.00 
G01 X22.35 Y23.35 Z255 F12.00 
G01 X22.3 Y23.5 Z255 F12.00 
G01 X22.3 Y23.55 Z255 F12.00 
G01 X22.25 Y23.6 Z255 F12.00 
G01 X22.2 Y23.7 Z255 F12.00 
G01 X22.15 Y23.75 Z255 F12.00 
G01 X22.15 Y23.85 Z255 F12.00 
G01 X22.1 Y23.9 Z255 F12.00 
G01 X22.1 Y23.95 Z255 F12.00 
G01 X22.1 Y23.95 Z255 F12.00 
G00 X22.1 Y23.7 Z0 F50.00 

G01 X22.1 Y23.7 Z255 F12.00 
G00 X22.55 Y21.45 Z0 F50.00 

G01 X22.55 Y21.4 Z255 F12.00 
G01 X22.5 Y21.35 Z255 F12.00 
G01 X22.45 Y21.4 Z255 F12.00 
G01 X22.4 Y21.35 Z255 F12.00 
G01 X22.45 Y21.35 Z255 F12.00 
G01 X22.4 Y21.3 Z255 F12.00 
G01 X22.4 Y21.3 Z255 F12.00 
G00 X21.95 Y20.25 Z0 F50.00 

G01 X22.1 Y20.2 Z255 F12.00 
G01 X22.1 Y20.15 Z255 F12.00 
G01 X22.1 Y20.1 Z255 F12.00 
G00 X22.25 Y19.95 Z0 F50.00 

G01 X22.25 Y19.95 Z255 F12.00 
G00 X22.2 Y19.75 Z0 F50.00 

G01 X22.15 Y19.65 Z255 F12.00 
G01 X22.15 Y19.6 Z255 F12.00 
G01 X22.15 Y19.6 Z255 F12.00 
G00 X22.1 Y19.45 Z0 F50.00 

G01 X22.15 Y19.4 Z255 F12.00 
G01 X22.1 Y19.35 Z255 F12.00 
G01 X22.05 Y19.4 Z255 F12.00 
G01 X22.0 Y19.35 Z255 F12.00 
G01 X22.05 Y19.3 Z255 F12.00 
G01 X22.05 Y19.25 Z255 F12.00 
G01 X22.05 Y19.25 Z255 F12.00 
G00 X21.9 Y19.25 Z0 F50.00 

G01 X21.9 Y19.25 Z255 F12.00 
G00 X21.95 Y19.45 Z0 F50.00 

G01 X21.95 Y19.4 Z255 F12.00 
G01 X21.95 Y19.4 Z255 F12.00 
G00 X22.1 Y19.1 Z0 F50.00 

G01 X22.1 Y19.1 Z255 F12.00 
G00 X22.35 Y19.2 Z0 F50.00 

G01 X22.3 Y19.25 Z255 F12.00 
G01 X22.25 Y19.25 Z255 F12.00 
G01 X22.25 Y19.25 Z255 F12.00 
G00 X22.35 Y19.45 Z0 F50.00 

G01 X22.3 Y19.5 Z255 F12.00 
G01 X22.3 Y19.5 Z255 F12.00 
G00 X22.4 Y19.7 Z0 F50.00 

G01 X22.35 Y19.75 Z255 F12.00 
G01 X22.3 Y19.8 Z255 F12.00 
G00 X22.2 Y18.2 Z0 F50.00 

G01 X22.2 Y18.2 Z255 F12.00 
G00 X22.05 Y17.55 Z0 F50.00 

G01 X22.05 Y17.55 Z255 F12.00 
G00 X22.0 Y17.4 Z0 F50.00 

G01 X22.0 Y17.4 Z255 F12.00 
G00 X22.05 Y17.3 Z0 F50.00 

G01 X22.05 Y17.3 Z255 F12.00 
G00 X21.6 Y16.7 Z0 F50.00 

G01 X21.6 Y16.75 Z255 F12.00 
G01 X21.6 Y16.8 Z255 F12.00 
G00 X21.7 Y16.5 Z0 F50.00 

G01 X21.7 Y16.5 Z255 F12.00 
G00 X21.6 Y16.45 Z0 F50.00 

G01 X21.65 Y16.35 Z255 F12.00 
G01 X21.6 Y16.35 Z255 F12.00 
G01 X21.6 Y16.35 Z255 F12.00 
G00 X20.75 Y15.8 Z0 F50.00 

G01 X20.55 Y15.95 Z255 F12.00 
G01 X20.45 Y15.9 Z255 F12.00 
G01 X20.45 Y15.85 Z255 F12.00 
G01 X20.5 Y15.75 Z255 F12.00 
G01 X20.55 Y15.75 Z255 F12.00 
G01 X20.6 Y15.7 Z255 F12.00 
G01 X20.65 Y15.75 Z255 F12.00 
G01 X20.7 Y15.75 Z255 F12.00 
G01 X20.75 Y15.7 Z255 F12.00 
G01 X20.75 Y15.7 Z255 F12.00 
G00 X21.15 Y15.25 Z0 F50.00 

G01 X21.15 Y15.25 Z255 F12.00 
G00 X21.0 Y14.75 Z0 F50.00 

G01 X21.0 Y14.75 Z255 F12.00 
G00 X20.85 Y14.75 Z0 F50.00 

G01 X20.7 Y14.85 Z255 F12.00 
G01 X20.65 Y14.9 Z255 F12.00 
G01 X20.6 Y14.85 Z255 F12.00 
G01 X20.65 Y14.8 Z255 F12.00 
G01 X20.75 Y14.65 Z255 F12.00 
G01 X20.8 Y14.6 Z255 F12.00 
G01 X20.85 Y14.65 Z255 F12.00 
G01 X20.9 Y14.6 Z255 F12.00 
G01 X20.95 Y14.6 Z255 F12.00 
G01 X20.9 Y14.65 Z255 F12.00 
G01 X20.9 Y14.65 Z255 F12.00 
G00 X20.85 Y14.5 Z0 F50.00 

G01 X20.8 Y14.55 Z255 F12.00 
G01 X20.8 Y14.55 Z255 F12.00 
G00 X20.9 Y14.5 Z0 F50.00 

G01 X20.9 Y14.5 Z255 F12.00 
G00 X20.85 Y14.25 Z0 F50.00 

G01 X20.9 Y14.25 Z255 F12.00 
G00 X21.2 Y14.0 Z0 F50.00 

G01 X21.2 Y14.0 Z255 F12.00 
G00 X20.95 Y13.8 Z0 F50.00 

G01 X20.95 Y13.8 Z255 F12.00 
G00 X20.15 Y12.9 Z0 F50.00 

G01 X20.1 Y12.9 Z255 F12.00 
G01 X20.1 Y12.9 Z255 F12.00 
G00 X21.6 Y10.9 Z0 F50.00 

G01 X21.6 Y10.85 Z255 F12.00 
G01 X21.55 Y10.8 Z255 F12.00 
G01 X21.5 Y10.85 Z255 F12.00 
G01 X21.5 Y10.9 Z255 F12.00 
G01 X21.5 Y10.9 Z255 F12.00 
G00 X21.1 Y10.2 Z0 F50.00 

G01 X21.05 Y10.15 Z255 F12.00 
G01 X21.1 Y10.1 Z255 F12.00 
G01 X21.05 Y10.05 Z255 F12.00 
G01 X21.1 Y10.0 Z255 F12.00 
G01 X21.05 Y10.0 Z255 F12.00 
G01 X21.0 Y9.95 Z255 F12.00 
G01 X21.0 Y9.9 Z255 F12.00 
G01 X20.95 Y9.85 Z255 F12.00 
G01 X21.0 Y9.8 Z255 F12.00 
G01 X21.05 Y9.8 Z255 F12.00 
G01 X21.1 Y9.75 Z255 F12.00 
G01 X21.05 Y9.7 Z255 F12.00 
G01 X20.9 Y9.5 Z255 F12.00 
G01 X20.85 Y9.4 Z255 F12.00 
G01 X20.9 Y9.35 Z255 F12.00 
G01 X20.95 Y9.25 Z255 F12.00 
G01 X20.85 Y9.2 Z255 F12.00 
G01 X20.8 Y9.2 Z255 F12.00 
G01 X20.75 Y9.25 Z255 F12.00 
G01 X20.65 Y9.25 Z255 F12.00 
G01 X20.7 Y9.2 Z255 F12.00 
G01 X20.75 Y9.1 Z255 F12.00 
G01 X20.8 Y9.05 Z255 F12.00 
G01 X20.9 Y9.05 Z255 F12.00 
G01 X20.85 Y9.05 Z255 F12.00 
G01 X20.9 Y9.0 Z255 F12.00 
G01 X20.9 Y8.95 Z255 F12.00 
G01 X20.85 Y8.9 Z255 F12.00 
G01 X20.9 Y8.85 Z255 F12.00 
G01 X20.85 Y8.8 Z255 F12.00 
G01 X20.8 Y8.85 Z255 F12.00 
G01 X20.8 Y8.9 Z255 F12.00 
G01 X20.8 Y8.9 Z255 F12.00 
G00 X21.25 Y8.95 Z0 F50.00 

G01 X21.3 Y9.0 Z255 F12.00 
G01 X21.35 Y8.95 Z255 F12.00 
G01 X21.35 Y8.95 Z255 F12.00 
G00 X21.2 Y9.1 Z0 F50.00 

G01 X21.2 Y9.1 Z255 F12.00 
G00 X20.7 Y9.0 Z0 F50.00 

G01 X20.6 Y9.0 Z255 F12.00 
G01 X20.6 Y9.05 Z255 F12.00 
G01 X20.65 Y9.1 Z255 F12.00 
G01 X20.7 Y9.05 Z255 F12.00 
G01 X20.7 Y9.05 Z255 F12.00 
G00 X20.65 Y9.15 Z0 F50.00 

G01 X20.6 Y9.15 Z255 F12.00 
G01 X20.55 Y9.2 Z255 F12.00 
G01 X20.6 Y9.25 Z255 F12.00 
G01 X20.55 Y9.25 Z255 F12.00 
G01 X20.55 Y9.25 Z255 F12.00 
G00 X20.4 Y9.2 Z0 F50.00 

G01 X20.4 Y9.2 Z255 F12.00 
G00 X20.45 Y9.05 Z0 F50.00 

G01 X20.45 Y9.1 Z255 F12.00 
G01 X20.45 Y9.1 Z255 F12.00 
G00 X20.4 Y8.95 Z0 F50.00 

G01 X20.35 Y8.85 Z255 F12.00 
G01 X20.4 Y8.8 Z255 F12.00 
G01 X20.45 Y8.8 Z255 F12.00 
G01 X20.5 Y8.85 Z255 F12.00 
G01 X20.5 Y8.9 Z255 F12.00 
G01 X20.45 Y8.95 Z255 F12.00 
G01 X20.45 Y8.95 Z255 F12.00 
G00 X20.65 Y9.4 Z0 F50.00 

G01 X20.65 Y9.5 Z255 F12.00 
G01 X20.65 Y9.6 Z255 F12.00 
G01 X20.55 Y9.65 Z255 F12.00 
G01 X20.5 Y9.6 Z255 F12.00 
G01 X20.55 Y9.55 Z255 F12.00 
G01 X20.5 Y9.55 Z255 F12.00 
G01 X20.55 Y9.5 Z255 F12.00 
G01 X20.5 Y9.45 Z255 F12.00 
G01 X20.55 Y9.4 Z255 F12.00 
G01 X20.55 Y9.4 Z255 F12.00 
G00 X20.4 Y9.45 Z0 F50.00 

G01 X20.45 Y9.5 Z255 F12.00 
G01 X20.45 Y9.5 Z255 F12.00 
G00 X20.35 Y9.45 Z0 F50.00 

G01 X20.35 Y9.45 Z255 F12.00 
G00 X20.35 Y9.65 Z0 F50.00 

G01 X20.25 Y9.7 Z255 F12.00 
G01 X20.2 Y9.75 Z255 F12.00 
G01 X20.2 Y9.8 Z255 F12.00 
G01 X20.15 Y9.9 Z255 F12.00 
G01 X20.2 Y9.95 Z255 F12.00 
G01 X20.2 Y10.0 Z255 F12.00 
G01 X20.25 Y10.05 Z255 F12.00 
G01 X20.25 Y10.1 Z255 F12.00 
G01 X20.3 Y10.15 Z255 F12.00 
G01 X20.35 Y10.1 Z255 F12.00 
G01 X20.4 Y10.15 Z255 F12.00 
G01 X20.45 Y10.15 Z255 F12.00 
G01 X20.55 Y10.1 Z255 F12.00 
G01 X20.65 Y10.1 Z255 F12.00 
G01 X20.7 Y10.05 Z255 F12.00 
G01 X20.75 Y10.1 Z255 F12.00 
G01 X20.75 Y10.15 Z255 F12.00 
G01 X20.8 Y10.2 Z255 F12.00 
G01 X20.85 Y10.15 Z255 F12.00 
G01 X20.9 Y10.15 Z255 F12.00 
G01 X21.0 Y10.1 Z255 F12.00 
G01 X21.0 Y10.1 Z255 F12.00 
G00 X20.65 Y9.95 Z0 F50.00 

G01 X20.6 Y10.0 Z255 F12.00 
G01 X20.6 Y10.0 Z255 F12.00 
G00 X20.65 Y10.15 Z0 F50.00 

G01 X20.65 Y10.2 Z255 F12.00 
G01 X20.6 Y10.3 Z255 F12.00 
G01 X20.55 Y10.35 Z255 F12.00 
G00 X20.75 Y9.55 Z0 F50.00 

G01 X20.7 Y9.5 Z255 F12.00 
G01 X20.75 Y9.45 Z255 F12.00 
G01 X20.75 Y9.45 Z255 F12.00 
G00 X20.95 Y7.85 Z0 F50.00 

G01 X21.0 Y7.8 Z255 F12.00 
G01 X21.1 Y7.8 Z255 F12.00 
G01 X21.15 Y7.75 Z255 F12.00 
G01 X21.1 Y7.7 Z255 F12.00 
G01 X21.1 Y7.65 Z255 F12.00 
G01 X21.05 Y7.6 Z255 F12.00 
G01 X21.05 Y7.5 Z255 F12.00 
G01 X21.25 Y7.3 Z255 F12.00 
G00 X20.8 Y7.4 Z0 F50.00 

G01 X20.8 Y7.4 Z255 F12.00 
G00 X20.75 Y7.55 Z0 F50.00 

G01 X20.7 Y7.6 Z255 F12.00 
G01 X20.65 Y7.6 Z255 F12.00 
G01 X20.55 Y7.55 Z255 F12.00 
G01 X20.6 Y7.5 Z255 F12.00 
G01 X20.6 Y7.45 Z255 F12.00 
G01 X20.6 Y7.45 Z255 F12.00 
G00 X20.45 Y7.55 Z0 F50.00 

G01 X20.45 Y7.55 Z255 F12.00 
G00 X20.5 Y7.3 Z0 F50.00 

G01 X20.5 Y7.3 Z255 F12.00 
G00 X20.6 Y6.95 Z0 F50.00 

G01 X20.6 Y6.95 Z255 F12.00 
G00 X20.7 Y6.8 Z0 F50.00 

G01 X20.75 Y6.75 Z255 F12.00 
G01 X20.8 Y6.65 Z255 F12.00 
G01 X20.8 Y6.65 Z255 F12.00 
G00 X21.1 Y6.6 Z0 F50.00 

G01 X21.15 Y6.65 Z255 F12.00 
G01 X21.2 Y6.6 Z255 F12.00 
G01 X21.15 Y6.55 Z255 F12.00 
G01 X21.15 Y6.55 Z255 F12.00 
G00 X21.0 Y6.5 Z0 F50.00 

G01 X21.05 Y6.45 Z255 F12.00 
G01 X21.0 Y6.4 Z255 F12.00 
G01 X20.95 Y6.45 Z255 F12.00 
G01 X20.95 Y6.45 Z255 F12.00 
G00 X20.5 Y6.8 Z0 F50.00 

G01 X20.5 Y6.8 Z255 F12.00 
G00 X20.35 Y6.8 Z0 F50.00 

G01 X20.3 Y6.75 Z255 F12.00 
G01 X20.35 Y6.7 Z255 F12.00 
G01 X20.3 Y6.65 Z255 F12.00 
G01 X20.35 Y6.65 Z255 F12.00 
G01 X20.3 Y6.7 Z255 F12.00 
G01 X20.3 Y6.7 Z255 F12.00 
G00 X20.4 Y6.2 Z0 F50.00 

G01 X20.4 Y6.2 Z255 F12.00 
G00 X20.55 Y6.25 Z0 F50.00 

G01 X20.55 Y6.25 Z255 F12.00 
G00 X20.0 Y5.45 Z0 F50.00 

G01 X20.0 Y5.45 Z255 F12.00 
G00 X20.25 Y5.1 Z0 F50.00 

G01 X20.25 Y5.1 Z255 F12.00 
G00 X20.25 Y4.8 Z0 F50.00 

G01 X20.25 Y4.75 Z255 F12.00 
G01 X20.3 Y4.7 Z255 F12.00 
G01 X20.35 Y4.75 Z255 F12.00 
G01 X20.4 Y4.7 Z255 F12.00 
G01 X20.35 Y4.65 Z255 F12.00 
G01 X20.35 Y4.65 Z255 F12.00 
G00 X20.45 Y4.8 Z0 F50.00 

G01 X20.45 Y4.85 Z255 F12.00 
G01 X20.4 Y4.9 Z255 F12.00 
G01 X20.35 Y4.85 Z255 F12.00 
G01 X20.35 Y4.85 Z255 F12.00 
G00 X20.1 Y4.65 Z0 F50.00 

G01 X20.15 Y4.6 Z255 F12.00 
G01 X20.1 Y4.55 Z255 F12.00 
G01 X20.15 Y4.5 Z255 F12.00 
G01 X20.2 Y4.45 Z255 F12.00 
G00 X20.05 Y4.8 Z0 F50.00 

G01 X20.1 Y4.8 Z255 F12.00 
G01 X20.1 Y4.8 Z255 F12.00 
G00 X20.9 Y4.65 Z0 F50.00 

G01 X20.95 Y4.7 Z255 F12.00 
G01 X20.95 Y4.75 Z255 F12.00 
G01 X20.9 Y4.8 Z255 F12.00 
G01 X20.85 Y4.75 Z255 F12.00 
G01 X20.85 Y4.75 Z255 F12.00 
G00 X22.1 Y4.8 Z0 F50.00 

G01 X22.15 Y5.4 Z255 F12.00 
G01 X22.15 Y5.45 Z255 F12.00 
G01 X22.1 Y5.55 Z255 F12.00 
G01 X22.15 Y5.6 Z255 F12.00 
G01 X22.15 Y5.65 Z255 F12.00 
G01 X22.2 Y5.8 Z255 F12.00 
G01 X22.2 Y5.85 Z255 F12.00 
G01 X22.25 Y5.95 Z255 F12.00 
G01 X22.25 Y6.0 Z255 F12.00 
G01 X22.3 Y6.1 Z255 F12.00 
G01 X22.3 Y6.15 Z255 F12.00 
G01 X22.35 Y6.3 Z255 F12.00 
G01 X22.35 Y6.35 Z255 F12.00 
G01 X22.3 Y7.6 Z255 F12.00 
G01 X22.3 Y7.65 Z255 F12.00 
G01 X22.25 Y7.95 Z255 F12.00 
G01 X22.25 Y8.0 Z255 F12.00 
G01 X22.3 Y9.6 Z255 F12.00 
G01 X22.3 Y9.65 Z255 F12.00 
G01 X22.25 Y9.75 Z255 F12.00 
G01 X22.25 Y9.8 Z255 F12.00 
G01 X22.3 Y9.85 Z255 F12.00 
G01 X22.3 Y9.9 Z255 F12.00 
G01 X22.35 Y10.35 Z255 F12.00 
G01 X22.3 Y10.4 Z255 F12.00 
G01 X22.3 Y10.45 Z255 F12.00 
G01 X22.35 Y10.5 Z255 F12.00 
G01 X22.4 Y10.45 Z255 F12.00 
G01 X22.45 Y10.45 Z255 F12.00 
G01 X22.5 Y10.5 Z255 F12.00 
G01 X22.5 Y10.55 Z255 F12.00 
G01 X22.45 Y10.6 Z255 F12.00 
G01 X22.45 Y10.7 Z255 F12.00 
G01 X22.4 Y10.75 Z255 F12.00 
G01 X22.35 Y10.7 Z255 F12.00 
G01 X22.35 Y10.7 Z255 F12.00 
G00 X22.35 Y10.55 Z0 F50.00 

G01 X22.35 Y10.55 Z255 F12.00 
G00 X22.5 Y10.35 Z0 F50.00 

G01 X22.45 Y10.3 Z255 F12.00 
G01 X22.5 Y10.25 Z255 F12.00 
G01 X22.55 Y10.25 Z255 F12.00 
G01 X22.6 Y10.2 Z255 F12.00 
G01 X22.55 Y10.15 Z255 F12.00 
G01 X22.55 Y10.1 Z255 F12.00 
G01 X22.6 Y10.05 Z255 F12.00 
G01 X22.55 Y10.0 Z255 F12.00 
G01 X22.5 Y10.0 Z255 F12.00 
G01 X22.55 Y9.95 Z255 F12.00 
G01 X22.55 Y9.9 Z255 F12.00 
G01 X22.6 Y9.85 Z255 F12.00 
G01 X22.55 Y9.8 Z255 F12.00 
G01 X22.55 Y9.75 Z255 F12.00 
G01 X22.6 Y9.7 Z255 F12.00 
G01 X22.6 Y9.65 Z255 F12.00 
G01 X22.55 Y9.6 Z255 F12.00 
G01 X22.6 Y9.6 Z255 F12.00 
G01 X22.65 Y9.55 Z255 F12.00 
G01 X22.65 Y9.5 Z255 F12.00 
G01 X22.7 Y9.2 Z255 F12.00 
G01 X22.8 Y9.2 Z255 F12.00 
G01 X22.85 Y9.2 Z255 F12.00 
G01 X22.9 Y9.15 Z255 F12.00 
G01 X22.85 Y9.1 Z255 F12.00 
G01 X22.8 Y9.1 Z255 F12.00 
G01 X22.8 Y9.1 Z255 F12.00 
G00 X22.7 Y9.05 Z0 F50.00 

G01 X22.75 Y8.95 Z255 F12.00 
G01 X22.75 Y8.85 Z255 F12.00 
G01 X22.7 Y8.85 Z255 F12.00 
G01 X22.75 Y8.8 Z255 F12.00 
G01 X22.75 Y8.75 Z255 F12.00 
G01 X22.8 Y8.6 Z255 F12.00 
G01 X22.8 Y8.5 Z255 F12.00 
G01 X22.85 Y8.45 Z255 F12.00 
G01 X22.85 Y8.35 Z255 F12.00 
G01 X22.8 Y8.4 Z255 F12.00 
G01 X22.75 Y8.5 Z255 F12.00 
G01 X22.75 Y8.55 Z255 F12.00 
G00 X22.75 Y8.25 Z0 F50.00 

G01 X22.8 Y8.2 Z255 F12.00 
G01 X22.85 Y8.25 Z255 F12.00 
G01 X22.85 Y8.3 Z255 F12.00 
G01 X22.8 Y8.35 Z255 F12.00 
G01 X22.8 Y8.35 Z255 F12.00 
G00 X22.8 Y8.1 Z0 F50.00 

G01 X22.85 Y8.0 Z255 F12.00 
G01 X22.8 Y7.95 Z255 F12.00 
G01 X22.8 Y7.9 Z255 F12.00 
G01 X22.85 Y7.85 Z255 F12.00 
G01 X22.85 Y7.8 Z255 F12.00 
G01 X22.8 Y7.75 Z255 F12.00 
G01 X22.8 Y7.7 Z255 F12.00 
G01 X22.85 Y7.65 Z255 F12.00 
G01 X22.8 Y7.6 Z255 F12.00 
G01 X22.85 Y7.55 Z255 F12.00 
G01 X22.8 Y7.5 Z255 F12.00 
G01 X22.8 Y7.45 Z255 F12.00 
G01 X22.75 Y7.4 Z255 F12.00 
G01 X22.8 Y7.4 Z255 F12.00 
G01 X22.85 Y7.35 Z255 F12.00 
G01 X22.85 Y7.3 Z255 F12.00 
G01 X22.8 Y7.2 Z255 F12.00 
G01 X22.75 Y7.25 Z255 F12.00 
G01 X22.75 Y7.2 Z255 F12.00 
G01 X22.8 Y7.15 Z255 F12.00 
G01 X22.8 Y7.1 Z255 F12.00 
G01 X22.85 Y6.85 Z255 F12.00 
G01 X22.85 Y6.75 Z255 F12.00 
G01 X22.75 Y6.6 Z255 F12.00 
G01 X22.8 Y6.45 Z255 F12.00 
G01 X22.8 Y6.4 Z255 F12.00 
G01 X22.85 Y6.35 Z255 F12.00 
G01 X22.9 Y6.25 Z255 F12.00 
G01 X22.85 Y6.1 Z255 F12.00 
G01 X22.9 Y6.05 Z255 F12.00 
G01 X22.9 Y6.0 Z255 F12.00 
G01 X22.85 Y5.9 Z255 F12.00 
G01 X22.8 Y5.95 Z255 F12.00 
G01 X22.8 Y5.9 Z255 F12.00 
G01 X22.85 Y5.85 Z255 F12.00 
G01 X22.9 Y5.9 Z255 F12.00 
G01 X22.95 Y5.85 Z255 F12.00 
G01 X22.95 Y5.8 Z255 F12.00 
G01 X22.9 Y5.75 Z255 F12.00 
G01 X22.9 Y5.65 Z255 F12.00 
G01 X22.95 Y5.65 Z255 F12.00 
G01 X23.0 Y5.6 Z255 F12.00 
G01 X22.95 Y5.55 Z255 F12.00 
G01 X22.9 Y5.55 Z255 F12.00 
G01 X22.9 Y5.55 Z255 F12.00 
G00 X22.85 Y5.4 Z0 F50.00 

G01 X22.9 Y5.35 Z255 F12.00 
G01 X22.95 Y5.35 Z255 F12.00 
G01 X23.0 Y5.3 Z255 F12.00 
G01 X23.0 Y5.25 Z255 F12.00 
G01 X22.95 Y5.2 Z255 F12.00 
G01 X22.9 Y5.2 Z255 F12.00 
G01 X22.85 Y5.15 Z255 F12.00 
G01 X22.85 Y5.2 Z255 F12.00 
G01 X22.85 Y5.2 Z255 F12.00 
G00 X22.8 Y5.05 Z0 F50.00 

G01 X22.85 Y5.0 Z255 F12.00 
G01 X22.85 Y4.95 Z255 F12.00 
G01 X22.9 Y4.8 Z255 F12.00 
G01 X22.9 Y4.7 Z255 F12.00 
G01 X22.85 Y4.7 Z255 F12.00 
G01 X22.85 Y4.7 Z255 F12.00 
G00 X22.9 Y4.55 Z0 F50.00 

G01 X22.95 Y4.45 Z255 F12.00 
G01 X23.0 Y4.4 Z255 F12.00 
G01 X23.05 Y4.45 Z255 F12.00 
G01 X23.1 Y4.6 Z255 F12.00 
G01 X23.05 Y4.55 Z255 F12.00 
G01 X23.05 Y4.55 Z255 F12.00 
G00 X23.15 Y4.4 Z0 F50.00 

G01 X23.1 Y4.35 Z255 F12.00 
G01 X23.15 Y4.3 Z255 F12.00 
G01 X23.15 Y4.2 Z255 F12.00 
G01 X23.05 Y4.15 Z255 F12.00 
G01 X23.0 Y4.2 Z255 F12.00 
G01 X23.0 Y4.25 Z255 F12.00 
G01 X23.05 Y4.3 Z255 F12.00 
G01 X23.05 Y4.35 Z255 F12.00 
G01 X23.05 Y4.35 Z255 F12.00 
G00 X22.85 Y4.4 Z0 F50.00 

G01 X22.9 Y4.4 Z255 F12.00 
G01 X22.9 Y4.4 Z255 F12.00 
G00 X22.8 Y4.55 Z0 F50.00 

G01 X22.8 Y4.5 Z255 F12.00 
G01 X22.8 Y4.5 Z255 F12.00 
G00 X22.85 Y4.3 Z0 F50.00 

G01 X22.8 Y4.25 Z255 F12.00 
G01 X22.85 Y4.2 Z255 F12.00 
G01 X22.85 Y4.1 Z255 F12.00 
G01 X22.8 Y4.1 Z255 F12.00 
G01 X22.8 Y4.1 Z255 F12.00 
G00 X22.85 Y3.95 Z0 F50.00 

G01 X22.85 Y3.9 Z255 F12.00 
G01 X22.9 Y3.7 Z255 F12.00 
G01 X22.95 Y3.75 Z255 F12.00 
G01 X23.0 Y3.7 Z255 F12.00 
G01 X22.95 Y3.65 Z255 F12.00 
G01 X22.95 Y3.65 Z255 F12.00 
G00 X22.85 Y3.6 Z0 F50.00 

G01 X22.8 Y3.7 Z255 F12.00 
G01 X22.75 Y3.75 Z255 F12.00 
G01 X22.75 Y3.75 Z255 F12.00 
G00 X22.85 Y3.45 Z0 F50.00 

G01 X22.9 Y3.35 Z255 F12.00 
G01 X22.85 Y3.3 Z255 F12.00 
G01 X22.8 Y3.15 Z255 F12.00 
G01 X22.9 Y3.0 Z255 F12.00 
G01 X22.85 Y2.95 Z255 F12.00 
G01 X22.85 Y2.9 Z255 F12.00 
G01 X22.8 Y2.85 Z255 F12.00 
G01 X22.75 Y2.75 Z255 F12.00 
G01 X22.8 Y2.7 Z255 F12.00 
G01 X22.8 Y2.65 Z255 F12.00 
G01 X22.75 Y2.6 Z255 F12.00 
G01 X22.8 Y2.55 Z255 F12.00 
G01 X22.8 Y2.5 Z255 F12.00 
G01 X22.85 Y2.45 Z255 F12.00 
G01 X22.85 Y2.4 Z255 F12.00 
G01 X22.8 Y2.35 Z255 F12.00 
G01 X22.75 Y2.35 Z255 F12.00 
G01 X22.8 Y2.3 Z255 F12.00 
G01 X22.8 Y2.2 Z255 F12.00 
G01 X22.75 Y2.2 Z255 F12.00 
G01 X22.8 Y2.15 Z255 F12.00 
G01 X22.8 Y2.1 Z255 F12.00 
G01 X22.85 Y2.0 Z255 F12.00 
G01 X22.85 Y1.95 Z255 F12.00 
G01 X22.8 Y1.9 Z255 F12.00 
G01 X22.8 Y1.85 Z255 F12.00 
G01 X22.75 Y1.65 Z255 F12.00 
G01 X22.7 Y1.65 Z255 F12.00 
G01 X22.75 Y1.6 Z255 F12.00 
G01 X22.85 Y1.6 Z255 F12.00 
G01 X22.9 Y1.55 Z255 F12.00 
G01 X22.85 Y1.5 Z255 F12.00 
G01 X22.8 Y1.5 Z255 F12.00 
G01 X22.85 Y1.45 Z255 F12.00 
G01 X22.85 Y1.4 Z255 F12.00 
G01 X22.8 Y1.3 Z255 F12.00 
G01 X22.8 Y1.25 Z255 F12.00 
G01 X22.75 Y1.2 Z255 F12.00 
G01 X22.8 Y1.15 Z255 F12.00 
G01 X22.8 Y1.1 Z255 F12.00 
G01 X22.85 Y1.05 Z255 F12.00 
G01 X22.8 Y1.0 Z255 F12.00 
G01 X22.8 Y0.95 Z255 F12.00 
G01 X22.85 Y0.9 Z255 F12.00 
G01 X22.8 Y0.85 Z255 F12.00 
G01 X22.75 Y0.9 Z255 F12.00 
G01 X22.7 Y0.9 Z255 F12.00 
G01 X22.75 Y0.85 Z255 F12.00 
G01 X22.8 Y0.75 Z255 F12.00 
G01 X22.85 Y0.4 Z255 F12.00 
G01 X22.8 Y0.35 Z255 F12.00 
G01 X22.85 Y0.3 Z255 F12.00 
G01 X22.85 Y0.25 Z255 F12.00 
G01 X22.8 Y0.2 Z255 F12.00 
G01 X22.8 Y0.15 Z255 F12.00 
G01 X22.85 Y0.1 Z255 F12.00 
G01 X22.8 Y0.05 Z255 F12.00 
G01 X22.85 Y0.0 Z255 F12.00 
G01 X22.85 Y0.0 Z255 F12.00 
G00 X22.65 Y0.2 Z0 F50.00 

G01 X22.65 Y0.15 Z255 F12.00 
G01 X22.65 Y0.15 Z255 F12.00 
G00 X22.75 Y0.35 Z0 F50.00 

G01 X22.75 Y0.35 Z255 F12.00 
G00 X22.6 Y0.4 Z0 F50.00 

G01 X22.6 Y0.4 Z255 F12.00 
G00 X22.7 Y0.85 Z0 F50.00 

G01 X22.7 Y0.85 Z255 F12.00 
G00 X22.7 Y1.1 Z0 F50.00 

G01 X22.65 Y1.2 Z255 F12.00 
G01 X22.7 Y1.2 Z255 F12.00 
G01 X22.7 Y1.2 Z255 F12.00 
G00 X22.0 Y1.5 Z0 F50.00 

G01 X22.0 Y1.55 Z255 F12.00 
G01 X22.05 Y2.05 Z255 F12.00 
G01 X22.05 Y2.1 Z255 F12.00 
G01 X22.1 Y2.4 Z255 F12.00 
G01 X22.05 Y2.45 Z255 F12.00 
G01 X22.05 Y2.5 Z255 F12.00 
G01 X22.0 Y2.65 Z255 F12.00 
G01 X22.0 Y2.7 Z255 F12.00 
G01 X22.05 Y2.9 Z255 F12.00 
G01 X22.0 Y2.95 Z255 F12.00 
G01 X22.0 Y3.0 Z255 F12.00 
G01 X22.05 Y3.05 Z255 F12.00 
G01 X22.05 Y3.1 Z255 F12.00 
G01 X22.1 Y3.85 Z255 F12.00 
G01 X22.05 Y3.9 Z255 F12.00 
G01 X22.05 Y3.95 Z255 F12.00 
G01 X22.1 Y4.15 Z255 F12.00 
G01 X22.1 Y4.2 Z255 F12.00 
G01 X22.15 Y4.55 Z255 F12.00 
G01 X22.1 Y4.6 Z255 F12.00 
G01 X22.1 Y4.65 Z255 F12.00 
G01 X22.1 Y4.7 Z255 F12.00 
G00 X22.75 Y6.1 Z0 F50.00 

G01 X22.8 Y6.15 Z255 F12.00 
G01 X22.8 Y6.2 Z255 F12.00 
G01 X22.75 Y6.35 Z255 F12.00 
G01 X22.75 Y6.35 Z255 F12.00 
G00 X22.75 Y7.65 Z0 F50.00 

G01 X22.75 Y7.65 Z255 F12.00 
G00 X22.7 Y7.95 Z0 F50.00 

G01 X22.7 Y7.95 Z255 F12.00 
G00 X21.75 Y12.75 Z0 F50.00 

G01 X21.7 Y12.8 Z255 F12.00 
G01 X21.7 Y12.85 Z255 F12.00 
G01 X21.65 Y13.05 Z255 F12.00 
G01 X21.6 Y13.05 Z255 F12.00 
G01 X21.55 Y13.0 Z255 F12.00 
G01 X21.55 Y12.95 Z255 F12.00 
G01 X21.6 Y12.75 Z255 F12.00 
G01 X21.65 Y12.7 Z255 F12.00 
G00 X21.9 Y12.9 Z0 F50.00 

G01 X21.95 Y13.0 Z255 F12.00 
G01 X21.9 Y13.1 Z255 F12.00 
G01 X21.85 Y13.05 Z255 F12.00 
G01 X21.85 Y13.0 Z255 F12.00 
G01 X21.85 Y12.95 Z255 F12.00 
G00 X21.9 Y12.8 Z0 F50.00 

G01 X21.9 Y12.8 Z255 F12.00 
G00 X22.05 Y14.4 Z0 F50.00 

G01 X22.05 Y14.45 Z255 F12.00 
G01 X22.0 Y14.6 Z255 F12.00 
G01 X21.95 Y14.55 Z255 F12.00 
G01 X21.95 Y14.5 Z255 F12.00 
G01 X21.95 Y14.4 Z255 F12.00 
G00 X22.3 Y14.75 Z0 F50.00 

G01 X22.25 Y14.8 Z255 F12.00 
G01 X22.2 Y14.75 Z255 F12.00 
G01 X22.2 Y14.75 Z255 F12.00 
G00 X21.5 Y14.7 Z0 F50.00 

G01 X21.5 Y14.6 Z255 F12.00 
G01 X21.5 Y14.55 Z255 F12.00 
G01 X21.45 Y14.5 Z255 F12.00 
G01 X21.45 Y14.5 Z255 F12.00 
G00 X21.2 Y14.45 Z0 F50.00 

G01 X21.2 Y14.45 Z255 F12.00 
G00 X20.6 Y14.9 Z0 F50.00 

G01 X20.55 Y14.9 Z255 F12.00 
G01 X20.55 Y14.9 Z255 F12.00 
G00 X21.05 Y16.5 Z0 F50.00 

G01 X21.0 Y16.55 Z255 F12.00 
G01 X20.95 Y16.5 Z255 F12.00 
G01 X20.9 Y16.55 Z255 F12.00 
G01 X20.9 Y16.6 Z255 F12.00 
G01 X20.95 Y16.65 Z255 F12.00 
G01 X21.0 Y16.6 Z255 F12.00 
G01 X21.0 Y16.6 Z255 F12.00 
G00 X20.85 Y16.75 Z0 F50.00 

G01 X20.8 Y16.75 Z255 F12.00 
G01 X20.85 Y16.7 Z255 F12.00 
G01 X20.8 Y16.65 Z255 F12.00 
G01 X20.75 Y16.7 Z255 F12.00 
G01 X20.75 Y16.8 Z255 F12.00 
G01 X20.7 Y16.8 Z255 F12.00 
G01 X20.65 Y16.8 Z255 F12.00 
G00 X20.85 Y16.65 Z0 F50.00 

G01 X20.85 Y16.65 Z255 F12.00 
G00 X20.35 Y0.05 Z0 F50.00 

G01 X20.35 Y0.05 Z255 F12.00 
G00 X20.5 Y0.0 Z0 F50.00 

G01 X20.55 Y0.05 Z255 F12.00 
G01 X20.55 Y0.1 Z255 F12.00 
G01 X20.5 Y0.15 Z255 F12.00 
G01 X20.45 Y0.15 Z255 F12.00 
G01 X20.45 Y0.15 Z255 F12.00 
G00 X22.05 Y0.1 Z0 F50.00 

G01 X22.05 Y0.15 Z255 F12.00 
G01 X22.0 Y0.5 Z255 F12.00 
G01 X22.0 Y0.55 Z255 F12.00 
G01 X22.0 Y1.4 Z255 F12.00 
G00 X22.85 Y3.5 Z0 F50.00 

G01 X22.85 Y3.5 Z255 F12.00 
G00 X22.75 Y4.2 Z0 F50.00 

G01 X22.75 Y4.2 Z255 F12.00 
G00 X20.4 Y3.25 Z0 F50.00 

G01 X20.35 Y3.2 Z255 F12.00 
G01 X20.4 Y3.15 Z255 F12.00 
G01 X20.4 Y3.15 Z255 F12.00 
G00 X20.4 Y2.85 Z0 F50.00 

G01 X20.4 Y2.85 Z255 F12.00 
G00 X20.3 Y2.75 Z0 F50.00 

G01 X20.3 Y2.75 Z255 F12.00 
G00 X20.5 Y2.75 Z0 F50.00 

G01 X20.55 Y2.7 Z255 F12.00 
G01 X20.5 Y2.65 Z255 F12.00 
G01 X20.5 Y2.65 Z255 F12.00 
G00 X20.85 Y7.6 Z0 F50.00 

G01 X20.8 Y7.65 Z255 F12.00 
G01 X20.8 Y7.7 Z255 F12.00 
G01 X20.85 Y7.75 Z255 F12.00 
G01 X20.9 Y7.75 Z255 F12.00 
G01 X21.0 Y7.75 Z255 F12.00 
G00 X21.05 Y7.9 Z0 F50.00 

G01 X21.05 Y7.9 Z255 F12.00 
G00 X20.95 Y7.6 Z0 F50.00 

G01 X20.9 Y7.6 Z255 F12.00 
G00 X30.0 Y12.9 Z0 F50.00 

G01 X30.1 Y12.9 Z255 F12.00 
G01 X30.15 Y12.95 Z255 F12.00 
G01 X30.2 Y12.9 Z255 F12.00 
G01 X30.25 Y12.9 Z255 F12.00 
G01 X30.2 Y12.85 Z255 F12.00 
G01 X30.15 Y12.9 Z255 F12.00 
G01 X30.05 Y12.9 Z255 F12.00 
G01 X30.05 Y12.9 Z255 F12.00 
G00 X30.1 Y12.8 Z0 F50.00 

G01 X30.15 Y12.8 Z255 F12.00 
G00 X30.3 Y12.8 Z0 F50.00 

G01 X30.35 Y12.8 Z255 F12.00 
G01 X30.4 Y12.75 Z255 F12.00 
G01 X30.35 Y12.7 Z255 F12.00 
G01 X30.3 Y12.7 Z255 F12.00 
G01 X30.35 Y12.65 Z255 F12.00 
G01 X30.4 Y12.55 Z255 F12.00 
G01 X30.35 Y12.5 Z255 F12.00 
G01 X30.3 Y12.55 Z255 F12.00 
G01 X30.15 Y12.6 Z255 F12.00 
G01 X30.2 Y12.55 Z255 F12.00 
G01 X30.2 Y12.55 Z255 F12.00 
G00 X30.35 Y12.9 Z0 F50.00 

G01 X30.45 Y12.95 Z255 F12.00 
G01 X30.5 Y13.05 Z255 F12.00 
G01 X30.55 Y13.1 Z255 F12.00 
G01 X30.6 Y13.1 Z255 F12.00 
G01 X30.65 Y13.15 Z255 F12.00 
G01 X30.6 Y13.2 Z255 F12.00 
G01 X30.6 Y13.25 Z255 F12.00 
G01 X30.65 Y13.3 Z255 F12.00 
G01 X30.65 Y13.35 Z255 F12.00 
G01 X30.7 Y13.4 Z255 F12.00 
G01 X30.75 Y13.35 Z255 F12.00 
G01 X30.8 Y13.4 Z255 F12.00 
G01 X30.85 Y13.35 Z255 F12.00 
G01 X30.9 Y13.4 Z255 F12.00 
G01 X30.95 Y13.4 Z255 F12.00 
G01 X31.0 Y13.45 Z255 F12.00 
G01 X30.95 Y13.5 Z255 F12.00 
G01 X30.9 Y13.5 Z255 F12.00 
G01 X30.85 Y13.55 Z255 F12.00 
G01 X30.9 Y13.6 Z255 F12.00 
G01 X30.95 Y13.6 Z255 F12.00 
G01 X31.0 Y13.65 Z255 F12.00 
G01 X31.1 Y13.65 Z255 F12.00 
G01 X31.05 Y13.6 Z255 F12.00 
G01 X31.05 Y13.6 Z255 F12.00 
G00 X31.05 Y13.75 Z0 F50.00 

G01 X31.05 Y13.85 Z255 F12.00 
G01 X31.0 Y13.8 Z255 F12.00 
G01 X30.9 Y13.8 Z255 F12.00 
G01 X30.9 Y13.85 Z255 F12.00 
G01 X30.95 Y13.9 Z255 F12.00 
G01 X31.1 Y13.95 Z255 F12.00 
G01 X31.05 Y13.9 Z255 F12.00 
G01 X31.0 Y13.85 Z255 F12.00 
G00 X30.95 Y14.0 Z0 F50.00 

G01 X30.9 Y14.05 Z255 F12.00 
G01 X30.95 Y14.1 Z255 F12.00 
G01 X30.95 Y14.15 Z255 F12.00 
G01 X30.9 Y14.35 Z255 F12.00 
G01 X30.85 Y14.45 Z255 F12.00 
G01 X30.8 Y14.5 Z255 F12.00 
G01 X30.65 Y14.7 Z255 F12.00 
G01 X30.6 Y14.75 Z255 F12.00 
G01 X30.6 Y14.85 Z255 F12.00 
G01 X30.55 Y14.9 Z255 F12.00 
G01 X30.5 Y14.9 Z255 F12.00 
G01 X30.45 Y14.95 Z255 F12.00 
G01 X30.4 Y14.9 Z255 F12.00 
G01 X30.45 Y14.9 Z255 F12.00 
G01 X30.45 Y14.9 Z255 F12.00 
G00 X30.4 Y15.05 Z0 F50.00 

G01 X30.4 Y15.1 Z255 F12.00 
G01 X30.35 Y15.15 Z255 F12.00 
G01 X30.4 Y15.2 Z255 F12.00 
G01 X30.35 Y15.25 Z255 F12.00 
G01 X30.3 Y15.25 Z255 F12.00 
G01 X30.25 Y15.3 Z255 F12.00 
G01 X30.25 Y15.35 Z255 F12.00 
G01 X30.2 Y15.4 Z255 F12.00 
G01 X30.15 Y15.4 Z255 F12.00 
G01 X30.1 Y15.45 Z255 F12.00 
G01 X30.1 Y15.5 Z255 F12.00 
G01 X30.15 Y15.55 Z255 F12.00 
G01 X30.1 Y15.6 Z255 F12.00 
G01 X29.6 Y16.05 Z255 F12.00 
G01 X29.55 Y16.1 Z255 F12.00 
G01 X29.6 Y16.15 Z255 F12.00 
G01 X29.55 Y16.2 Z255 F12.00 
G01 X29.35 Y16.45 Z255 F12.00 
G01 X29.3 Y16.5 Z255 F12.00 
G01 X29.2 Y16.55 Z255 F12.00 
G01 X29.15 Y16.6 Z255 F12.00 
G01 X29.15 Y16.7 Z255 F12.00 
G01 X29.15 Y16.8 Z255 F12.00 
G01 X29.1 Y16.75 Z255 F12.00 
G01 X29.05 Y16.8 Z255 F12.00 
G01 X29.0 Y16.75 Z255 F12.00 
G01 X29.05 Y16.75 Z255 F12.00 
G01 X29.1 Y16.7 Z255 F12.00 
G01 X29.1 Y16.7 Z255 F12.00 
G00 X28.9 Y16.7 Z0 F50.00 

G01 X28.9 Y16.75 Z255 F12.00 
G01 X28.9 Y16.75 Z255 F12.00 
G00 X28.9 Y16.95 Z0 F50.00 

G01 X28.85 Y16.95 Z255 F12.00 
G01 X28.8 Y17.0 Z255 F12.00 
G01 X28.8 Y17.05 Z255 F12.00 
G01 X28.75 Y17.2 Z255 F12.00 
G01 X28.7 Y17.2 Z255 F12.00 
G01 X28.65 Y17.25 Z255 F12.00 
G01 X28.5 Y17.35 Z255 F12.00 
G01 X28.45 Y17.4 Z255 F12.00 
G01 X28.4 Y17.35 Z255 F12.00 
G01 X28.45 Y17.3 Z255 F12.00 
G01 X28.45 Y17.3 Z255 F12.00 
G00 X28.5 Y17.2 Z0 F50.00 

G01 X28.5 Y17.2 Z255 F12.00 
G00 X28.4 Y17.5 Z0 F50.00 

G01 X28.3 Y17.65 Z255 F12.00 
G01 X28.25 Y17.75 Z255 F12.00 
G01 X28.2 Y17.7 Z255 F12.00 
G01 X28.15 Y17.7 Z255 F12.00 
G01 X28.1 Y17.75 Z255 F12.00 
G01 X28.15 Y17.8 Z255 F12.00 
G01 X28.15 Y17.85 Z255 F12.00 
G01 X28.1 Y17.9 Z255 F12.00 
G01 X28.15 Y17.95 Z255 F12.00 
G01 X28.1 Y18.0 Z255 F12.00 
G01 X28.05 Y17.95 Z255 F12.00 
G01 X28.0 Y17.95 Z255 F12.00 
G01 X28.05 Y17.9 Z255 F12.00 
G01 X28.05 Y17.9 Z255 F12.00 
G00 X27.9 Y17.85 Z0 F50.00 

G01 X27.9 Y17.85 Z255 F12.00 
G00 X27.95 Y18.05 Z0 F50.00 

G01 X27.9 Y18.1 Z255 F12.00 
G01 X27.95 Y18.15 Z255 F12.00 
G01 X27.9 Y18.2 Z255 F12.00 
G01 X27.85 Y18.2 Z255 F12.00 
G01 X27.8 Y18.25 Z255 F12.00 
G01 X27.75 Y18.25 Z255 F12.00 
G01 X27.8 Y18.3 Z255 F12.00 
G01 X27.75 Y18.35 Z255 F12.00 
G01 X27.65 Y18.4 Z255 F12.00 
G01 X27.7 Y18.45 Z255 F12.00 
G01 X27.65 Y18.5 Z255 F12.00 
G01 X27.55 Y18.5 Z255 F12.00 
G01 X27.5 Y18.55 Z255 F12.00 
G01 X27.45 Y18.5 Z255 F12.00 
G01 X27.5 Y18.45 Z255 F12.00 
G01 X27.55 Y18.45 Z255 F12.00 
G01 X27.6 Y18.4 Z255 F12.00 
G01 X27.55 Y18.35 Z255 F12.00 
G01 X27.5 Y18.4 Z255 F12.00 
G01 X27.5 Y18.4 Z255 F12.00 
G00 X27.35 Y18.6 Z0 F50.00 

G01 X27.3 Y18.55 Z255 F12.00 
G01 X27.35 Y18.55 Z255 F12.00 
G01 X27.4 Y18.6 Z255 F12.00 
G01 X27.45 Y18.55 Z255 F12.00 
G01 X27.45 Y18.55 Z255 F12.00 
G00 X27.6 Y18.6 Z0 F50.00 

G01 X27.6 Y18.6 Z255 F12.00 
G00 X27.45 Y18.7 Z0 F50.00 

G01 X27.4 Y18.75 Z255 F12.00 
G01 X27.35 Y18.75 Z255 F12.00 
G01 X27.25 Y18.8 Z255 F12.00 
G01 X27.2 Y18.75 Z255 F12.00 
G01 X27.15 Y18.8 Z255 F12.00 
G01 X27.1 Y18.95 Z255 F12.00 
G01 X27.05 Y19.0 Z255 F12.00 
G01 X26.95 Y19.05 Z255 F12.00 
G01 X26.8 Y19.1 Z255 F12.00 
G01 X26.85 Y19.15 Z255 F12.00 
G01 X26.8 Y19.2 Z255 F12.00 
G01 X26.75 Y19.15 Z255 F12.00 
G01 X26.75 Y19.1 Z255 F12.00 
G01 X26.75 Y19.1 Z255 F12.00 
G00 X26.6 Y19.15 Z0 F50.00 

G01 X26.55 Y19.1 Z255 F12.00 
G01 X26.6 Y19.05 Z255 F12.00 
G01 X26.55 Y19.05 Z255 F12.00 
G01 X26.5 Y19.1 Z255 F12.00 
G01 X26.5 Y19.05 Z255 F12.00 
G01 X26.5 Y19.05 Z255 F12.00 
G00 X26.35 Y19.2 Z0 F50.00 

G01 X26.4 Y19.25 Z255 F12.00 
G01 X26.4 Y19.3 Z255 F12.00 
G01 X26.45 Y19.35 Z255 F12.00 
G01 X26.5 Y19.35 Z255 F12.00 
G01 X26.6 Y19.3 Z255 F12.00 
G01 X26.6 Y19.25 Z255 F12.00 
G01 X26.6 Y19.2 Z255 F12.00 
G00 X26.75 Y19.2 Z0 F50.00 

G01 X26.8 Y19.25 Z255 F12.00 
G01 X26.8 Y19.3 Z255 F12.00 
G01 X26.75 Y19.35 Z255 F12.00 
G01 X26.7 Y19.3 Z255 F12.00 
G01 X26.7 Y19.3 Z255 F12.00 
G00 X26.1 Y19.2 Z0 F50.00 

G01 X26.15 Y19.25 Z255 F12.00 
G01 X26.1 Y19.3 Z255 F12.00 
G01 X26.15 Y19.35 Z255 F12.00 
G01 X26.1 Y19.35 Z255 F12.00 
G01 X26.15 Y19.3 Z255 F12.00 
G01 X26.1 Y19.25 Z255 F12.00 
G01 X26.0 Y19.2 Z255 F12.00 
G01 X25.95 Y19.25 Z255 F12.00 
G01 X25.9 Y19.2 Z255 F12.00 
G01 X25.95 Y19.15 Z255 F12.00 
G01 X25.95 Y19.15 Z255 F12.00 
G00 X26.0 Y19.35 Z0 F50.00 

G01 X26.05 Y19.45 Z255 F12.00 
G01 X26.1 Y19.5 Z255 F12.00 
G01 X26.2 Y19.55 Z255 F12.00 
G01 X26.4 Y19.5 Z255 F12.00 
G01 X26.35 Y19.45 Z255 F12.00 
G01 X26.35 Y19.35 Z255 F12.00 
G01 X26.35 Y19.35 Z255 F12.00 
G00 X26.3 Y19.45 Z0 F50.00 

G01 X26.25 Y19.45 Z255 F12.00 
G01 X26.25 Y19.45 Z255 F12.00 
G00 X25.95 Y19.5 Z0 F50.00 

G01 X26.0 Y19.65 Z255 F12.00 
G01 X25.95 Y19.65 Z255 F12.00 
G01 X25.9 Y19.6 Z255 F12.00 
G01 X25.85 Y19.6 Z255 F12.00 
G01 X25.8 Y19.65 Z255 F12.00 
G01 X25.75 Y19.65 Z255 F12.00 
G01 X25.7 Y19.6 Z255 F12.00 
G01 X25.7 Y19.55 Z255 F12.00 
G01 X25.75 Y19.5 Z255 F12.00 
G01 X25.75 Y19.45 Z255 F12.00 
G01 X25.8 Y19.4 Z255 F12.00 
G01 X25.85 Y19.4 Z255 F12.00 
G01 X25.85 Y19.4 Z255 F12.00 
G00 X25.55 Y19.65 Z0 F50.00 

G01 X25.5 Y19.7 Z255 F12.00 
G01 X25.4 Y19.7 Z255 F12.00 
G01 X25.35 Y19.75 Z255 F12.00 
G01 X25.35 Y19.8 Z255 F12.00 
G01 X25.4 Y19.85 Z255 F12.00 
G01 X25.45 Y19.8 Z255 F12.00 
G01 X25.55 Y19.8 Z255 F12.00 
G01 X25.6 Y19.75 Z255 F12.00 
G01 X25.6 Y19.75 Z255 F12.00 
G00 X25.6 Y19.95 Z0 F50.00 

G01 X25.55 Y20.0 Z255 F12.00 
G01 X25.5 Y19.95 Z255 F12.00 
G01 X25.45 Y20.0 Z255 F12.00 
G01 X25.35 Y20.05 Z255 F12.00 
G01 X25.3 Y20.0 Z255 F12.00 
G01 X25.35 Y19.95 Z255 F12.00 
G01 X25.4 Y19.95 Z255 F12.00 
G01 X25.4 Y19.95 Z255 F12.00 
G00 X24.95 Y20.1 Z0 F50.00 

G01 X25.0 Y20.15 Z255 F12.00 
G01 X24.95 Y20.2 Z255 F12.00 
G01 X24.9 Y20.15 Z255 F12.00 
G01 X24.9 Y20.15 Z255 F12.00 
G00 X24.95 Y20.0 Z0 F50.00 

G01 X24.95 Y20.0 Z255 F12.00 
G00 X24.85 Y20.25 Z0 F50.00 

G01 X24.85 Y20.35 Z255 F12.00 
G01 X24.8 Y20.3 Z255 F12.00 
G01 X24.75 Y20.15 Z255 F12.00 
G01 X24.75 Y20.15 Z255 F12.00 
G00 X23.75 Y20.8 Z0 F50.00 

G01 X23.75 Y20.9 Z255 F12.00 
G01 X23.7 Y20.95 Z255 F12.00 
G01 X23.65 Y21.1 Z255 F12.00 
G01 X23.6 Y21.15 Z255 F12.00 
G01 X23.55 Y21.1 Z255 F12.00 
G01 X23.5 Y21.15 Z255 F12.00 
G01 X23.4 Y21.2 Z255 F12.00 
G01 X23.35 Y21.15 Z255 F12.00 
G01 X23.4 Y21.1 Z255 F12.00 
G01 X23.45 Y21.1 Z255 F12.00 
G01 X23.5 Y21.05 Z255 F12.00 
G01 X23.5 Y20.95 Z255 F12.00 
G01 X23.45 Y21.0 Z255 F12.00 
G01 X23.4 Y21.0 Z255 F12.00 
G01 X23.35 Y20.95 Z255 F12.00 
G01 X23.4 Y20.9 Z255 F12.00 
G01 X23.5 Y20.85 Z255 F12.00 
G01 X23.65 Y20.85 Z255 F12.00 
G00 X23.75 Y20.7 Z0 F50.00 

G01 X23.75 Y20.7 Z255 F12.00 
G00 X23.6 Y21.0 Z0 F50.00 

G01 X23.6 Y21.0 Z255 F12.00 
G00 X22.65 Y21.4 Z0 F50.00 

G01 X22.65 Y21.4 Z255 F12.00 
G00 X26.15 Y19.05 Z0 F50.00 

G01 X26.2 Y19.0 Z255 F12.00 
G01 X26.3 Y18.95 Z255 F12.00 
G01 X26.4 Y18.9 Z255 F12.00 
G01 X26.5 Y18.85 Z255 F12.00 
G01 X26.55 Y18.8 Z255 F12.00 
G01 X26.6 Y18.85 Z255 F12.00 
G01 X26.55 Y18.85 Z255 F12.00 
G01 X26.6 Y18.9 Z255 F12.00 
G01 X26.6 Y18.9 Z255 F12.00 
G00 X26.65 Y18.75 Z0 F50.00 

G01 X26.7 Y18.7 Z255 F12.00 
G01 X26.7 Y18.65 Z255 F12.00 
G01 X26.65 Y18.6 Z255 F12.00 
G01 X26.7 Y18.55 Z255 F12.00 
G01 X26.8 Y18.55 Z255 F12.00 
G01 X26.8 Y18.6 Z255 F12.00 
G01 X26.8 Y18.6 Z255 F12.00 
G00 X26.8 Y18.4 Z0 F50.00 

G01 X26.85 Y18.4 Z255 F12.00 
G01 X26.9 Y18.35 Z255 F12.00 
G01 X26.95 Y18.4 Z255 F12.00 
G01 X26.9 Y18.4 Z255 F12.00 
G01 X26.9 Y18.4 Z255 F12.00 
G00 X27.0 Y18.25 Z0 F50.00 

G01 X27.35 Y17.95 Z255 F12.00 
G01 X27.4 Y17.9 Z255 F12.00 
G01 X27.45 Y17.9 Z255 F12.00 
G01 X27.45 Y17.9 Z255 F12.00 
G00 X27.5 Y17.75 Z0 F50.00 

G01 X27.6 Y17.75 Z255 F12.00 
G01 X27.65 Y17.7 Z255 F12.00 
G01 X27.6 Y17.65 Z255 F12.00 
G01 X27.65 Y17.6 Z255 F12.00 
G01 X27.7 Y17.45 Z255 F12.00 
G01 X27.65 Y17.5 Z255 F12.00 
G01 X27.65 Y17.5 Z255 F12.00 
G00 X27.75 Y17.45 Z0 F50.00 

G01 X27.8 Y17.4 Z255 F12.00 
G01 X27.8 Y17.3 Z255 F12.00 
G01 X27.75 Y17.35 Z255 F12.00 
G01 X27.75 Y17.35 Z255 F12.00 
G00 X27.9 Y17.25 Z0 F50.00 

G01 X28.0 Y17.1 Z255 F12.00 
G01 X28.05 Y17.05 Z255 F12.00 
G01 X28.2 Y16.85 Z255 F12.00 
G01 X28.25 Y16.8 Z255 F12.00 
G01 X28.25 Y16.75 Z255 F12.00 
G01 X28.3 Y16.7 Z255 F12.00 
G01 X28.35 Y16.6 Z255 F12.00 
G01 X28.4 Y16.55 Z255 F12.00 
G01 X28.4 Y16.5 Z255 F12.00 
G01 X28.45 Y16.4 Z255 F12.00 
G01 X28.55 Y16.35 Z255 F12.00 
G01 X28.55 Y16.35 Z255 F12.00 
G00 X28.6 Y16.2 Z0 F50.00 

G01 X28.6 Y16.15 Z255 F12.00 
G01 X28.65 Y16.1 Z255 F12.00 
G01 X28.65 Y16.05 Z255 F12.00 
G01 X28.7 Y16.0 Z255 F12.00 
G01 X28.7 Y15.95 Z255 F12.00 
G01 X28.75 Y15.9 Z255 F12.00 
G01 X28.8 Y15.8 Z255 F12.00 
G01 X28.85 Y15.7 Z255 F12.00 
G01 X28.85 Y15.65 Z255 F12.00 
G01 X28.9 Y15.55 Z255 F12.00 
G01 X29.05 Y15.35 Z255 F12.00 
G01 X29.1 Y15.2 Z255 F12.00 
G01 X29.1 Y15.15 Z255 F12.00 
G01 X29.15 Y15.1 Z255 F12.00 
G01 X29.15 Y15.05 Z255 F12.00 
G01 X29.2 Y14.95 Z255 F12.00 
G01 X29.2 Y14.9 Z255 F12.00 
G01 X29.25 Y14.75 Z255 F12.00 
G01 X29.35 Y14.6 Z255 F12.00 
G01 X29.4 Y14.45 Z255 F12.00 
G01 X29.4 Y14.4 Z255 F12.00 
G01 X29.45 Y14.35 Z255 F12.00 
G01 X29.45 Y14.3 Z255 F12.00 
G01 X29.5 Y14.25 Z255 F12.00 
G01 X29.45 Y14.2 Z255 F12.00 
G01 X29.45 Y14.15 Z255 F12.00 
G01 X29.5 Y14.1 Z255 F12.00 
G01 X29.55 Y14.0 Z255 F12.00 
G01 X29.6 Y13.9 Z255 F12.00 
G01 X29.6 Y13.85 Z255 F12.00 
G01 X29.65 Y13.7 Z255 F12.00 
G01 X29.65 Y13.6 Z255 F12.00 
G01 X29.7 Y13.55 Z255 F12.00 
G01 X29.75 Y13.55 Z255 F12.00 
G01 X29.7 Y13.5 Z255 F12.00 
G01 X29.75 Y13.45 Z255 F12.00 
G01 X29.75 Y13.4 Z255 F12.00 
G01 X29.8 Y13.3 Z255 F12.00 
G01 X29.85 Y13.35 Z255 F12.00 
G01 X29.85 Y13.3 Z255 F12.00 
G01 X29.85 Y13.3 Z255 F12.00 
G00 X29.9 Y13.2 Z0 F50.00 

G01 X29.85 Y13.15 Z255 F12.00 
G01 X29.8 Y13.2 Z255 F12.00 
G01 X29.75 Y13.25 Z255 F12.00 
G00 X29.85 Y13.05 Z0 F50.00 

G01 X29.9 Y13.0 Z255 F12.00 
G01 X29.95 Y13.0 Z255 F12.00 
G01 X30.0 Y13.0 Z255 F12.00 
G00 X30.4 Y13.2 Z0 F50.00 

G01 X30.45 Y13.2 Z255 F12.00 
G01 X30.45 Y13.2 Z255 F12.00 
G00 X30.75 Y13.2 Z0 F50.00 

G01 X30.8 Y13.15 Z255 F12.00 
G01 X30.75 Y13.1 Z255 F12.00 
G01 X30.75 Y13.1 Z255 F12.00 
G00 X30.85 Y13.25 Z0 F50.00 

G01 X30.85 Y13.3 Z255 F12.00 
G01 X30.85 Y13.3 Z255 F12.00 
G00 X30.75 Y13.25 Z0 F50.00 

G01 X30.75 Y13.25 Z255 F12.00 
G00 X30.8 Y13.45 Z0 F50.00 

G01 X30.85 Y13.5 Z255 F12.00 
G00 X30.8 Y13.85 Z0 F50.00 

G01 X30.85 Y13.9 Z255 F12.00 
G01 X30.85 Y13.9 Z255 F12.00 
G00 X30.8 Y14.25 Z0 F50.00 

G01 X30.75 Y14.3 Z255 F12.00 
G01 X30.75 Y14.3 Z255 F12.00 
G00 X30.7 Y14.5 Z0 F50.00 

G01 X30.6 Y14.55 Z255 F12.00 
G01 X30.65 Y14.6 Z255 F12.00 
G01 X30.65 Y14.6 Z255 F12.00 
G00 X30.1 Y15.25 Z0 F50.00 

G01 X30.15 Y15.2 Z255 F12.00 
G01 X30.15 Y15.2 Z255 F12.00 
G00 X29.95 Y15.55 Z0 F50.00 

G01 X29.9 Y15.55 Z255 F12.00 
G01 X29.9 Y15.55 Z255 F12.00 
G00 X29.5 Y16.05 Z0 F50.00 

G01 X29.5 Y16.05 Z255 F12.00 
G00 X29.45 Y16.2 Z0 F50.00 

G01 X29.35 Y16.2 Z255 F12.00 
G00 X29.35 Y16.35 Z0 F50.00 

G01 X29.35 Y16.35 Z255 F12.00 
G00 X29.0 Y16.9 Z0 F50.00 

G01 X29.0 Y16.9 Z255 F12.00 
G00 X28.35 Y17.5 Z0 F50.00 

G01 X28.35 Y17.5 Z255 F12.00 
G00 X28.1 Y17.7 Z0 F50.00 

G01 X28.1 Y17.7 Z255 F12.00 
G00 X27.2 Y18.65 Z0 F50.00 

G01 X27.25 Y18.75 Z255 F12.00 
G01 X27.25 Y18.75 Z255 F12.00 
G00 X27.2 Y18.9 Z0 F50.00 

G01 X27.15 Y18.85 Z255 F12.00 
G01 X27.15 Y18.85 Z255 F12.00 
G00 X32.15 Y14.9 Z0 F50.00 

G01 X32.5 Y14.5 Z255 F12.00 
G01 X32.55 Y14.45 Z255 F12.00 
G01 X32.6 Y14.45 Z255 F12.00 
G01 X32.65 Y14.4 Z255 F12.00 
G01 X32.75 Y14.35 Z255 F12.00 
G01 X32.8 Y14.3 Z255 F12.00 
G01 X32.8 Y14.25 Z255 F12.00 
G01 X32.85 Y14.3 Z255 F12.00 
G01 X32.85 Y14.3 Z255 F12.00 
G00 X32.75 Y14.15 Z0 F50.00 

G01 X32.8 Y14.1 Z255 F12.00 
G01 X32.85 Y14.15 Z255 F12.00 
G01 X32.9 Y14.1 Z255 F12.00 
G01 X32.95 Y14.15 Z255 F12.00 
G01 X33.05 Y14.15 Z255 F12.00 
G01 X33.0 Y14.1 Z255 F12.00 
G01 X32.95 Y14.05 Z255 F12.00 
G00 X33.1 Y14.05 Z0 F50.00 

G01 X33.15 Y14.1 Z255 F12.00 
G01 X33.25 Y14.1 Z255 F12.00 
G01 X33.3 Y14.15 Z255 F12.00 
G01 X33.4 Y14.2 Z255 F12.00 
G01 X33.5 Y14.15 Z255 F12.00 
G01 X33.55 Y14.2 Z255 F12.00 
G01 X33.6 Y14.2 Z255 F12.00 
G01 X33.65 Y14.15 Z255 F12.00 
G01 X33.85 Y14.0 Z255 F12.00 
G01 X33.95 Y13.95 Z255 F12.00 
G01 X34.0 Y14.0 Z255 F12.00 
G01 X34.05 Y14.0 Z255 F12.00 
G01 X34.15 Y14.05 Z255 F12.00 
G01 X34.15 Y14.1 Z255 F12.00 
G01 X34.1 Y14.15 Z255 F12.00 
G01 X34.15 Y14.2 Z255 F12.00 
G01 X34.25 Y14.25 Z255 F12.00 
G01 X34.35 Y14.3 Z255 F12.00 
G01 X34.35 Y14.35 Z255 F12.00 
G01 X34.3 Y14.4 Z255 F12.00 
G01 X34.35 Y14.45 Z255 F12.00 
G01 X34.3 Y14.5 Z255 F12.00 
G01 X34.35 Y14.5 Z255 F12.00 
G01 X34.4 Y14.45 Z255 F12.00 
G01 X34.45 Y14.5 Z255 F12.00 
G01 X34.45 Y14.55 Z255 F12.00 
G01 X34.5 Y14.7 Z255 F12.00 
G01 X34.55 Y14.7 Z255 F12.00 
G01 X34.6 Y14.75 Z255 F12.00 
G01 X34.6 Y14.8 Z255 F12.00 
G01 X34.65 Y14.85 Z255 F12.00 
G01 X34.85 Y14.95 Z255 F12.00 
G01 X34.9 Y15.0 Z255 F12.00 
G01 X34.95 Y15.0 Z255 F12.00 
G01 X35.0 Y15.05 Z255 F12.00 
G01 X35.1 Y15.1 Z255 F12.00 
G01 X35.05 Y15.15 Z255 F12.00 
G01 X35.05 Y15.15 Z255 F12.00 
G00 X35.2 Y15.1 Z0 F50.00 

G01 X35.25 Y15.05 Z255 F12.00 
G01 X35.3 Y15.1 Z255 F12.00 
G01 X35.35 Y15.1 Z255 F12.00 
G01 X35.6 Y15.05 Z255 F12.00 
G01 X35.65 Y15.1 Z255 F12.00 
G01 X35.7 Y15.1 Z255 F12.00 
G01 X35.75 Y15.05 Z255 F12.00 
G01 X35.8 Y15.1 Z255 F12.00 
G01 X35.85 Y15.1 Z255 F12.00 
G01 X35.9 Y15.05 Z255 F12.00 
G01 X35.95 Y15.05 Z255 F12.00 
G01 X35.95 Y15.05 Z255 F12.00 
G00 X34.9 Y15.1 Z0 F50.00 

G01 X34.9 Y15.1 Z255 F12.00 
G00 X34.75 Y15.05 Z0 F50.00 

G01 X34.7 Y15.0 Z255 F12.00 
G01 X34.7 Y15.05 Z255 F12.00 
G01 X34.7 Y15.05 Z255 F12.00 
G00 X34.1 Y13.9 Z0 F50.00 

G01 X34.15 Y13.85 Z255 F12.00 
G01 X34.2 Y13.85 Z255 F12.00 
G01 X34.25 Y13.9 Z255 F12.00 
G01 X34.2 Y13.95 Z255 F12.00 
G01 X34.2 Y13.95 Z255 F12.00 
G00 X34.0 Y13.85 Z0 F50.00 

G01 X34.05 Y13.8 Z255 F12.00 
G01 X34.15 Y13.8 Z255 F12.00 
G01 X34.2 Y13.75 Z255 F12.00 
G01 X34.15 Y13.7 Z255 F12.00 
G01 X34.15 Y13.7 Z255 F12.00 
G00 X33.95 Y13.8 Z0 F50.00 

G01 X33.95 Y13.8 Z255 F12.00 
G00 X33.55 Y14.05 Z0 F50.00 

G01 X33.5 Y14.1 Z255 F12.00 
G01 X33.5 Y14.1 Z255 F12.00 
G00 X33.4 Y14.35 Z0 F50.00 

G01 X33.4 Y14.35 Z255 F12.00 
G00 X33.25 Y14.15 Z0 F50.00 

G01 X33.2 Y14.0 Z255 F12.00 
G01 X33.25 Y14.0 Z255 F12.00 
G01 X33.3 Y14.05 Z255 F12.00 
G01 X33.35 Y14.1 Z255 F12.00 
G00 X32.35 Y14.85 Z0 F50.00 

G01 X32.35 Y14.85 Z255 F12.00 
G00 X32.15 Y15.05 Z0 F50.00 

G01 X32.1 Y15.1 Z255 F12.00 
G01 X32.05 Y15.2 Z255 F12.00 
G01 X32.0 Y15.25 Z255 F12.00 
G01 X31.95 Y15.25 Z255 F12.00 
G01 X32.0 Y15.3 Z255 F12.00 
G01 X32.0 Y15.3 Z255 F12.00 
G00 X31.9 Y15.35 Z0 F50.00 

G01 X31.85 Y15.4 Z255 F12.00 
G01 X31.8 Y15.5 Z255 F12.00 
G01 X31.75 Y15.55 Z255 F12.00 
G01 X31.65 Y15.75 Z255 F12.00 
G01 X31.65 Y15.8 Z255 F12.00 
G01 X31.65 Y15.8 Z255 F12.00 
G00 X31.55 Y15.8 Z0 F50.00 

G01 X31.5 Y15.95 Z255 F12.00 
G01 X31.5 Y16.0 Z255 F12.00 
G01 X31.45 Y16.05 Z255 F12.00 
G01 X31.4 Y16.05 Z255 F12.00 
G01 X31.35 Y16.1 Z255 F12.00 
G01 X31.35 Y16.15 Z255 F12.00 
G01 X31.3 Y16.25 Z255 F12.00 
G01 X31.25 Y16.2 Z255 F12.00 
G01 X31.2 Y16.25 Z255 F12.00 
G01 X31.2 Y16.3 Z255 F12.00 
G01 X31.15 Y16.35 Z255 F12.00 
G01 X31.2 Y16.4 Z255 F12.00 
G01 X31.15 Y16.45 Z255 F12.00 
G01 X31.05 Y16.6 Z255 F12.00 
G01 X31.0 Y16.65 Z255 F12.00 
G01 X30.95 Y16.75 Z255 F12.00 
G01 X30.9 Y16.8 Z255 F12.00 
G01 X30.85 Y16.9 Z255 F12.00 
G01 X30.8 Y16.95 Z255 F12.00 
G01 X30.8 Y17.0 Z255 F12.00 
G01 X30.75 Y17.05 Z255 F12.00 
G01 X30.65 Y17.2 Z255 F12.00 
G01 X30.6 Y17.25 Z255 F12.00 
G01 X30.55 Y17.35 Z255 F12.00 
G01 X30.5 Y17.4 Z255 F12.00 
G01 X30.45 Y17.55 Z255 F12.00 
G01 X30.4 Y17.6 Z255 F12.00 
G01 X30.35 Y17.6 Z255 F12.00 
G01 X30.3 Y17.65 Z255 F12.00 
G01 X30.3 Y17.7 Z255 F12.00 
G01 X30.25 Y17.75 Z255 F12.00 
G01 X30.15 Y17.9 Z255 F12.00 
G01 X30.1 Y18.0 Z255 F12.00 
G01 X30.05 Y18.1 Z255 F12.00 
G01 X30.0 Y18.15 Z255 F12.00 
G01 X29.85 Y18.35 Z255 F12.00 
G01 X29.8 Y18.4 Z255 F12.00 
G01 X29.75 Y18.35 Z255 F12.00 
G01 X29.7 Y18.4 Z255 F12.00 
G01 X29.7 Y18.45 Z255 F12.00 
G01 X29.65 Y18.6 Z255 F12.00 
G01 X29.65 Y18.65 Z255 F12.00 
G01 X29.6 Y18.7 Z255 F12.00 
G01 X29.5 Y18.85 Z255 F12.00 
G01 X29.45 Y18.9 Z255 F12.00 
G01 X29.4 Y19.0 Z255 F12.00 
G01 X29.35 Y19.05 Z255 F12.00 
G01 X29.3 Y19.05 Z255 F12.00 
G01 X29.25 Y19.1 Z255 F12.00 
G01 X29.3 Y19.15 Z255 F12.00 
G01 X29.25 Y19.15 Z255 F12.00 
G01 X29.2 Y19.2 Z255 F12.00 
G01 X29.2 Y19.25 Z255 F12.00 
G01 X29.15 Y19.3 Z255 F12.00 
G01 X29.1 Y19.4 Z255 F12.00 
G01 X29.05 Y19.5 Z255 F12.00 
G01 X28.95 Y19.55 Z255 F12.00 
G01 X28.9 Y19.6 Z255 F12.00 
G01 X28.95 Y19.65 Z255 F12.00 
G01 X28.9 Y19.7 Z255 F12.00 
G01 X28.95 Y19.7 Z255 F12.00 
G01 X28.95 Y19.7 Z255 F12.00 
G00 X28.8 Y19.7 Z0 F50.00 

G01 X28.75 Y19.75 Z255 F12.00 
G01 X28.8 Y19.8 Z255 F12.00 
G01 X28.8 Y19.85 Z255 F12.00 
G01 X28.85 Y19.8 Z255 F12.00 
G01 X28.85 Y19.8 Z255 F12.00 
G00 X28.7 Y19.9 Z0 F50.00 

G01 X28.7 Y19.95 Z255 F12.00 
G01 X28.65 Y20.0 Z255 F12.00 
G01 X28.65 Y20.05 Z255 F12.00 
G01 X28.65 Y20.05 Z255 F12.00 
G00 X28.5 Y20.1 Z0 F50.00 

G01 X28.5 Y20.15 Z255 F12.00 
G01 X28.55 Y20.25 Z255 F12.00 
G01 X28.5 Y20.25 Z255 F12.00 
G01 X28.45 Y20.3 Z255 F12.00 
G01 X28.4 Y20.4 Z255 F12.00 
G01 X28.45 Y20.45 Z255 F12.00 
G01 X28.4 Y20.45 Z255 F12.00 
G01 X28.35 Y20.5 Z255 F12.00 
G01 X28.35 Y20.55 Z255 F12.00 
G01 X28.4 Y20.6 Z255 F12.00 
G01 X28.35 Y20.65 Z255 F12.00 
G01 X28.25 Y20.7 Z255 F12.00 
G01 X28.3 Y20.75 Z255 F12.00 
G01 X28.25 Y20.8 Z255 F12.00 
G01 X28.3 Y20.85 Z255 F12.00 
G01 X28.35 Y20.85 Z255 F12.00 
G01 X28.4 Y20.8 Z255 F12.00 
G01 X28.45 Y20.85 Z255 F12.00 
G01 X28.5 Y20.8 Z255 F12.00 
G01 X28.55 Y20.85 Z255 F12.00 
G01 X28.65 Y20.9 Z255 F12.00 
G01 X28.7 Y20.85 Z255 F12.00 
G01 X28.75 Y20.9 Z255 F12.00 
G01 X29.05 Y21.1 Z255 F12.00 
G01 X29.0 Y21.1 Z255 F12.00 
G01 X28.95 Y21.05 Z255 F12.00 
G01 X28.8 Y21.0 Z255 F12.00 
G01 X28.8 Y21.1 Z255 F12.00 
G01 X28.9 Y21.15 Z255 F12.00 
G01 X28.9 Y21.15 Z255 F12.00 
G00 X29.05 Y21.25 Z0 F50.00 

G01 X29.1 Y21.25 Z255 F12.00 
G01 X29.15 Y21.2 Z255 F12.00 
G01 X29.15 Y21.25 Z255 F12.00 
G01 X29.2 Y21.3 Z255 F12.00 
G01 X29.25 Y21.3 Z255 F12.00 
G01 X29.2 Y21.35 Z255 F12.00 
G01 X29.25 Y21.4 Z255 F12.00 
G01 X29.2 Y21.45 Z255 F12.00 
G01 X29.15 Y21.4 Z255 F12.00 
G01 X29.15 Y21.4 Z255 F12.00 
G00 X29.35 Y21.25 Z0 F50.00 

G01 X29.35 Y21.2 Z255 F12.00 
G01 X29.4 Y21.25 Z255 F12.00 
G01 X29.5 Y21.3 Z255 F12.00 
G01 X29.55 Y21.35 Z255 F12.00 
G01 X29.6 Y21.3 Z255 F12.00 
G01 X29.55 Y21.25 Z255 F12.00 
G01 X29.6 Y21.25 Z255 F12.00 
G01 X29.65 Y21.3 Z255 F12.00 
G01 X29.75 Y21.3 Z255 F12.00 
G01 X29.7 Y21.25 Z255 F12.00 
G01 X29.75 Y21.25 Z255 F12.00 
G01 X29.75 Y21.25 Z255 F12.00 
G00 X29.8 Y21.4 Z0 F50.00 

G01 X29.85 Y21.4 Z255 F12.00 
G01 X29.9 Y21.45 Z255 F12.00 
G01 X29.9 Y21.5 Z255 F12.00 
G01 X29.95 Y21.55 Z255 F12.00 
G01 X30.05 Y21.6 Z255 F12.00 
G01 X30.1 Y21.55 Z255 F12.00 
G01 X30.15 Y21.6 Z255 F12.00 
G01 X30.3 Y21.7 Z255 F12.00 
G01 X30.35 Y21.65 Z255 F12.00 
G01 X30.4 Y21.7 Z255 F12.00 
G01 X30.45 Y21.7 Z255 F12.00 
G01 X30.5 Y21.75 Z255 F12.00 
G01 X30.55 Y21.75 Z255 F12.00 
G01 X30.6 Y21.8 Z255 F12.00 
G01 X30.7 Y21.85 Z255 F12.00 
G01 X30.8 Y21.9 Z255 F12.00 
G01 X30.85 Y21.9 Z255 F12.00 
G01 X30.8 Y21.95 Z255 F12.00 
G01 X30.85 Y22.0 Z255 F12.00 
G01 X31.0 Y22.1 Z255 F12.00 
G01 X31.05 Y22.15 Z255 F12.00 
G01 X31.1 Y22.15 Z255 F12.00 
G01 X31.15 Y22.2 Z255 F12.00 
G01 X31.15 Y22.25 Z255 F12.00 
G01 X31.2 Y22.35 Z255 F12.00 
G01 X31.3 Y22.4 Z255 F12.00 
G01 X31.35 Y22.45 Z255 F12.00 
G01 X31.35 Y22.5 Z255 F12.00 
G01 X31.4 Y22.55 Z255 F12.00 
G01 X32.15 Y23.35 Z255 F12.00 
G01 X32.2 Y23.4 Z255 F12.00 
G01 X32.25 Y23.4 Z255 F12.00 
G01 X32.35 Y23.45 Z255 F12.00 
G01 X32.35 Y23.55 Z255 F12.00 
G01 X32.3 Y23.5 Z255 F12.00 
G01 X32.3 Y23.5 Z255 F12.00 
G00 X32.45 Y23.6 Z0 F50.00 

G01 X32.5 Y23.6 Z255 F12.00 
G01 X32.55 Y23.65 Z255 F12.00 
G01 X32.55 Y23.7 Z255 F12.00 
G01 X32.6 Y23.75 Z255 F12.00 
G01 X32.65 Y23.75 Z255 F12.00 
G01 X32.7 Y23.8 Z255 F12.00 
G01 X32.8 Y23.85 Z255 F12.00 
G01 X32.85 Y23.9 Z255 F12.00 
G01 X32.85 Y23.95 Z255 F12.00 
G01 X32.85 Y23.95 Z255 F12.00 
G00 X30.9 Y22.0 Z0 F50.00 

G01 X30.9 Y22.0 Z255 F12.00 
G00 X30.6 Y21.75 Z0 F50.00 

G01 X30.6 Y21.75 Z255 F12.00 
G00 X30.1 Y21.5 Z0 F50.00 

G01 X30.05 Y21.5 Z255 F12.00 
G01 X30.0 Y21.5 Z255 F12.00 
G00 X29.6 Y21.35 Z0 F50.00 

G01 X29.6 Y21.35 Z255 F12.00 
G00 X29.1 Y20.95 Z0 F50.00 

G01 X29.05 Y20.95 Z255 F12.00 
G01 X29.1 Y21.0 Z255 F12.00 
G01 X29.1 Y21.0 Z255 F12.00 
G00 X28.9 Y20.85 Z0 F50.00 

G01 X28.9 Y20.85 Z255 F12.00 
G00 X28.15 Y20.7 Z0 F50.00 

G01 X28.15 Y20.75 Z255 F12.00 
G01 X28.1 Y20.8 Z255 F12.00 
G01 X28.15 Y20.85 Z255 F12.00 
G01 X28.3 Y21.1 Z255 F12.00 
G01 X28.25 Y21.05 Z255 F12.00 
G01 X28.25 Y21.05 Z255 F12.00 
G00 X28.1 Y21.0 Z0 F50.00 

G01 X28.05 Y20.95 Z255 F12.00 
G01 X28.05 Y20.9 Z255 F12.00 
G01 X28.1 Y20.85 Z255 F12.00 
G01 X28.15 Y20.9 Z255 F12.00 
G01 X28.2 Y20.85 Z255 F12.00 
G01 X28.25 Y20.85 Z255 F12.00 
G01 X28.3 Y20.9 Z255 F12.00 
G01 X28.3 Y20.9 Z255 F12.00 
G00 X28.15 Y21.15 Z0 F50.00 

G01 X28.1 Y21.2 Z255 F12.00 
G01 X28.05 Y21.15 Z255 F12.00 
G01 X28.05 Y21.15 Z255 F12.00 
G00 X34.35 Y13.85 Z0 F50.00 

G01 X34.4 Y13.8 Z255 F12.00 
G01 X34.35 Y13.75 Z255 F12.00 
G01 X34.35 Y13.75 Z255 F12.00 
G00 X34.45 Y11.2 Z0 F50.00 

G01 X34.55 Y11.2 Z255 F12.00 
G01 X34.65 Y11.25 Z255 F12.00 
G01 X34.7 Y11.2 Z255 F12.00 
G01 X34.65 Y11.15 Z255 F12.00 
G01 X34.6 Y11.15 Z255 F12.00 
G01 X34.65 Y11.1 Z255 F12.00 
G01 X34.65 Y11.05 Z255 F12.00 
G01 X34.7 Y11.0 Z255 F12.00 
G01 X34.85 Y10.9 Z255 F12.00 
G01 X34.9 Y10.85 Z255 F12.00 
G01 X34.9 Y10.8 Z255 F12.00 
G01 X34.95 Y10.55 Z255 F12.00 
G01 X34.95 Y10.5 Z255 F12.00 
G01 X35.0 Y10.45 Z255 F12.00 
G01 X35.05 Y10.35 Z255 F12.00 
G01 X35.1 Y10.15 Z255 F12.00 
G01 X35.1 Y10.1 Z255 F12.00 
G01 X35.15 Y10.05 Z255 F12.00 
G01 X35.15 Y9.95 Z255 F12.00 
G01 X35.1 Y10.0 Z255 F12.00 
G01 X35.1 Y10.05 Z255 F12.00 
G01 X35.1 Y10.05 Z255 F12.00 
G00 X35.15 Y9.85 Z0 F50.00 

G01 X35.2 Y9.7 Z255 F12.00 
G01 X35.25 Y9.6 Z255 F12.00 
G01 X35.2 Y9.55 Z255 F12.00 
G01 X35.2 Y9.5 Z255 F12.00 
G01 X35.25 Y9.45 Z255 F12.00 
G01 X35.25 Y9.4 Z255 F12.00 
G01 X35.3 Y9.25 Z255 F12.00 
G01 X35.25 Y9.2 Z255 F12.00 
G01 X35.3 Y9.15 Z255 F12.00 
G01 X35.3 Y9.05 Z255 F12.00 
G01 X35.35 Y9.05 Z255 F12.00 
G01 X35.4 Y9.1 Z255 F12.00 
G01 X35.4 Y9.2 Z255 F12.00 
G01 X35.45 Y9.25 Z255 F12.00 
G01 X35.55 Y9.4 Z255 F12.00 
G01 X35.6 Y9.5 Z255 F12.00 
G01 X35.65 Y9.65 Z255 F12.00 
G01 X35.7 Y9.7 Z255 F12.00 
G01 X35.75 Y9.8 Z255 F12.00 
G01 X35.8 Y9.85 Z255 F12.00 
G01 X35.8 Y9.9 Z255 F12.00 
G01 X35.85 Y9.95 Z255 F12.00 
G01 X35.85 Y10.0 Z255 F12.00 
G01 X35.9 Y10.05 Z255 F12.00 
G01 X35.9 Y10.1 Z255 F12.00 
G01 X35.95 Y10.15 Z255 F12.00 
G01 X35.95 Y10.15 Z255 F12.00 
G00 X35.15 Y9.65 Z0 F50.00 

G01 X35.15 Y9.65 Z255 F12.00 
G00 X35.3 Y9.0 Z0 F50.00 

G01 X35.3 Y8.95 Z255 F12.00 
G01 X35.3 Y8.95 Z255 F12.00 
G00 X34.2 Y8.8 Z0 F50.00 

G01 X34.25 Y8.75 Z255 F12.00 
G01 X34.2 Y8.7 Z255 F12.00 
G01 X34.2 Y8.65 Z255 F12.00 
G01 X34.25 Y8.6 Z255 F12.00 
G01 X34.25 Y8.55 Z255 F12.00 
G01 X34.3 Y8.2 Z255 F12.00 
G01 X34.3 Y8.15 Z255 F12.00 
G01 X34.25 Y7.5 Z255 F12.00 
G01 X34.3 Y7.45 Z255 F12.00 
G01 X34.3 Y7.4 Z255 F12.00 
G01 X34.25 Y7.3 Z255 F12.00 
G01 X34.2 Y7.3 Z255 F12.00 
G01 X34.15 Y7.25 Z255 F12.00 
G01 X34.1 Y7.3 Z255 F12.00 
G01 X33.9 Y7.55 Z255 F12.00 
G01 X33.85 Y7.6 Z255 F12.00 
G01 X33.7 Y7.7 Z255 F12.00 
G01 X33.65 Y7.75 Z255 F12.00 
G01 X33.3 Y8.0 Z255 F12.00 
G01 X33.35 Y7.95 Z255 F12.00 
G01 X33.35 Y7.9 Z255 F12.00 
G01 X33.4 Y7.85 Z255 F12.00 
G01 X33.4 Y7.85 Z255 F12.00 
G00 X33.25 Y7.8 Z0 F50.00 

G01 X33.2 Y7.85 Z255 F12.00 
G01 X33.2 Y7.95 Z255 F12.00 
G01 X33.25 Y7.95 Z255 F12.00 
G01 X33.3 Y7.9 Z255 F12.00 
G01 X33.25 Y7.85 Z255 F12.00 
G01 X33.3 Y7.8 Z255 F12.00 
G01 X33.35 Y7.7 Z255 F12.00 
G01 X33.35 Y7.7 Z255 F12.00 
G00 X33.2 Y7.75 Z0 F50.00 

G01 X33.15 Y7.7 Z255 F12.00 
G01 X33.2 Y7.65 Z255 F12.00 
G01 X33.2 Y7.6 Z255 F12.00 
G01 X33.15 Y7.5 Z255 F12.00 
G01 X33.15 Y7.4 Z255 F12.00 
G01 X33.15 Y7.45 Z255 F12.00 
G01 X33.15 Y7.45 Z255 F12.00 
G00 X33.2 Y7.3 Z0 F50.00 

G01 X33.2 Y7.25 Z255 F12.00 
G01 X33.15 Y7.2 Z255 F12.00 
G01 X33.15 Y7.15 Z255 F12.00 
G01 X33.2 Y7.1 Z255 F12.00 
G01 X33.2 Y7.05 Z255 F12.00 
G01 X33.25 Y6.9 Z255 F12.00 
G01 X33.3 Y6.8 Z255 F12.00 
G01 X33.35 Y6.75 Z255 F12.00 
G01 X33.3 Y6.7 Z255 F12.00 
G01 X33.25 Y6.75 Z255 F12.00 
G01 X33.25 Y6.75 Z255 F12.00 
G00 X33.3 Y6.6 Z0 F50.00 

G01 X33.4 Y6.6 Z255 F12.00 
G01 X33.4 Y6.65 Z255 F12.00 
G01 X33.35 Y6.7 Z255 F12.00 
G01 X33.35 Y6.7 Z255 F12.00 
G00 X33.4 Y6.5 Z0 F50.00 

G01 X33.45 Y6.5 Z255 F12.00 
G01 X33.4 Y6.45 Z255 F12.00 
G01 X33.4 Y6.4 Z255 F12.00 
G01 X33.45 Y6.35 Z255 F12.00 
G01 X33.5 Y6.4 Z255 F12.00 
G01 X33.5 Y6.35 Z255 F12.00 
G01 X33.55 Y6.2 Z255 F12.00 
G01 X33.6 Y6.2 Z255 F12.00 
G01 X33.6 Y6.2 Z255 F12.00 
G00 X33.55 Y6.05 Z0 F50.00 

G01 X33.55 Y6.0 Z255 F12.00 
G01 X33.6 Y5.95 Z255 F12.00 
G01 X33.65 Y6.0 Z255 F12.00 
G01 X33.65 Y5.95 Z255 F12.00 
G01 X33.6 Y5.9 Z255 F12.00 
G01 X33.65 Y5.85 Z255 F12.00 
G01 X33.65 Y5.8 Z255 F12.00 
G01 X33.7 Y5.75 Z255 F12.00 
G01 X33.75 Y5.65 Z255 F12.00 
G01 X33.8 Y5.55 Z255 F12.00 
G01 X33.75 Y5.5 Z255 F12.00 
G01 X33.8 Y5.45 Z255 F12.00 
G01 X33.85 Y5.35 Z255 F12.00 
G01 X33.8 Y5.25 Z255 F12.00 
G01 X33.85 Y5.2 Z255 F12.00 
G01 X33.85 Y5.1 Z255 F12.00 
G01 X33.85 Y5.05 Z255 F12.00 
G01 X33.9 Y4.9 Z255 F12.00 
G01 X33.9 Y4.85 Z255 F12.00 
G01 X33.95 Y4.75 Z255 F12.00 
G01 X33.9 Y4.7 Z255 F12.00 
G01 X33.9 Y4.65 Z255 F12.00 
G01 X33.95 Y4.55 Z255 F12.00 
G01 X33.95 Y4.5 Z255 F12.00 
G01 X33.9 Y4.45 Z255 F12.00 
G01 X33.95 Y4.4 Z255 F12.00 
G01 X33.9 Y4.35 Z255 F12.00 
G01 X33.9 Y4.3 Z255 F12.00 
G01 X33.85 Y4.05 Z255 F12.00 
G01 X33.85 Y4.0 Z255 F12.00 
G01 X33.9 Y3.95 Z255 F12.00 
G01 X33.9 Y3.85 Z255 F12.00 
G01 X33.9 Y3.8 Z255 F12.00 
G01 X33.85 Y3.45 Z255 F12.00 
G01 X33.85 Y3.4 Z255 F12.00 
G01 X33.9 Y3.3 Z255 F12.00 
G01 X33.85 Y3.25 Z255 F12.00 
G01 X33.9 Y3.2 Z255 F12.00 
G01 X33.85 Y3.2 Z255 F12.00 
G01 X33.8 Y3.15 Z255 F12.00 
G01 X33.8 Y3.1 Z255 F12.00 
G01 X33.85 Y2.9 Z255 F12.00 
G01 X33.8 Y2.85 Z255 F12.00 
G01 X33.85 Y2.85 Z255 F12.00 
G01 X33.85 Y2.85 Z255 F12.00 
G00 X33.8 Y2.7 Z0 F50.00 

G01 X33.8 Y2.6 Z255 F12.00 
G01 X33.75 Y2.55 Z255 F12.00 
G01 X33.7 Y2.45 Z255 F12.00 
G01 X33.65 Y2.4 Z255 F12.00 
G01 X33.65 Y2.3 Z255 F12.00 
G01 X33.7 Y2.3 Z255 F12.00 
G01 X33.75 Y2.3 Z255 F12.00 
G00 X33.55 Y2.25 Z0 F50.00 

G01 X33.55 Y2.2 Z255 F12.00 
G01 X33.6 Y2.15 Z255 F12.00 
G01 X33.6 Y2.05 Z255 F12.00 
G01 X33.6 Y1.95 Z255 F12.00 
G01 X33.55 Y1.9 Z255 F12.00 
G01 X33.5 Y1.95 Z255 F12.00 
G01 X33.5 Y1.95 Z255 F12.00 
G00 X33.55 Y1.8 Z0 F50.00 

G01 X33.6 Y1.75 Z255 F12.00 
G01 X33.55 Y1.7 Z255 F12.00 
G01 X33.5 Y1.6 Z255 F12.00 
G01 X33.45 Y1.5 Z255 F12.00 
G01 X33.45 Y1.4 Z255 F12.00 
G01 X33.4 Y1.35 Z255 F12.00 
G01 X33.45 Y1.3 Z255 F12.00 
G01 X33.4 Y1.25 Z255 F12.00 
G01 X33.4 Y1.2 Z255 F12.00 
G01 X33.45 Y1.15 Z255 F12.00 
G01 X33.4 Y1.1 Z255 F12.00 
G01 X33.45 Y1.05 Z255 F12.00 
G01 X33.45 Y1.0 Z255 F12.00 
G01 X33.4 Y0.95 Z255 F12.00 
G01 X33.4 Y0.9 Z255 F12.00 
G01 X33.45 Y0.85 Z255 F12.00 
G01 X33.5 Y0.85 Z255 F12.00 
G01 X33.45 Y0.8 Z255 F12.00 
G01 X33.4 Y0.7 Z255 F12.00 
G01 X33.45 Y0.65 Z255 F12.00 
G01 X33.45 Y0.6 Z255 F12.00 
G01 X33.5 Y0.35 Z255 F12.00 
G01 X33.45 Y0.35 Z255 F12.00 
G01 X33.4 Y0.3 Z255 F12.00 
G01 X33.4 Y0.25 Z255 F12.00 
G01 X33.45 Y0.2 Z255 F12.00 
G01 X33.45 Y0.15 Z255 F12.00 
G01 X33.4 Y0.05 Z255 F12.00 
G01 X33.35 Y0.0 Z255 F12.00 
G00 X33.2 Y0.05 Z0 F50.00 

G01 X33.15 Y0.0 Z255 F12.00 
G01 X33.15 Y0.0 Z255 F12.00 
G00 X33.55 Y1.2 Z0 F50.00 

G01 X33.55 Y1.2 Z255 F12.00 
G00 X33.5 Y1.4 Z0 F50.00 

G01 X33.5 Y1.4 Z255 F12.00 
G00 X33.85 Y2.7 Z0 F50.00 

G01 X33.85 Y2.7 Z255 F12.00 
G00 X33.7 Y2.75 Z0 F50.00 

G01 X33.75 Y2.85 Z255 F12.00 
G01 X33.75 Y2.85 Z255 F12.00 
G00 X33.8 Y3.55 Z0 F50.00 

G01 X33.75 Y3.6 Z255 F12.00 
G01 X33.7 Y3.55 Z255 F12.00 
G01 X33.7 Y3.55 Z255 F12.00 
G00 X34.0 Y4.05 Z0 F50.00 

G01 X34.0 Y4.05 Z255 F12.00 
G00 X34.05 Y4.4 Z0 F50.00 

G01 X34.05 Y4.4 Z255 F12.00 
G00 X33.2 Y6.6 Z0 F50.00 

G01 X33.2 Y6.6 Z255 F12.00 
G00 X33.0 Y7.45 Z0 F50.00 

G01 X33.05 Y7.5 Z255 F12.00 
G01 X33.05 Y7.5 Z255 F12.00 
G00 X33.05 Y7.75 Z0 F50.00 

G01 X33.1 Y7.85 Z255 F12.00 
G01 X33.1 Y7.85 Z255 F12.00 
G00 X32.95 Y7.75 Z0 F50.00 

G01 X32.95 Y7.75 Z255 F12.00 
G00 X33.5 Y7.8 Z0 F50.00 

G01 X33.5 Y7.85 Z255 F12.00 
G01 X33.5 Y7.85 Z255 F12.00 
G00 X33.7 Y7.6 Z0 F50.00 

G01 X33.7 Y7.6 Z255 F12.00 
G00 X34.2 Y8.9 Z0 F50.00 

G01 X34.2 Y8.95 Z255 F12.00 
G01 X34.15 Y9.0 Z255 F12.00 
G01 X34.2 Y9.05 Z255 F12.00 
G01 X34.2 Y9.1 Z255 F12.00 
G01 X34.15 Y9.25 Z255 F12.00 
G01 X34.15 Y9.3 Z255 F12.00 
G01 X34.2 Y9.35 Z255 F12.00 
G01 X34.2 Y9.4 Z255 F12.00 
G01 X34.15 Y9.45 Z255 F12.00 
G01 X34.2 Y9.5 Z255 F12.00 
G01 X34.25 Y9.5 Z255 F12.00 
G01 X34.2 Y9.55 Z255 F12.00 
G01 X34.2 Y9.6 Z255 F12.00 
G01 X34.15 Y9.75 Z255 F12.00 
G01 X34.2 Y9.8 Z255 F12.00 
G01 X34.2 Y9.85 Z255 F12.00 
G01 X34.25 Y9.95 Z255 F12.00 
G01 X34.2 Y10.0 Z255 F12.00 
G01 X34.2 Y10.05 Z255 F12.00 
G01 X34.25 Y10.2 Z255 F12.00 
G01 X34.25 Y10.25 Z255 F12.00 
G01 X34.2 Y10.4 Z255 F12.00 
G01 X34.2 Y10.45 Z255 F12.00 
G01 X34.25 Y10.55 Z255 F12.00 
G01 X34.3 Y10.65 Z255 F12.00 
G01 X34.35 Y10.8 Z255 F12.00 
G01 X34.4 Y10.8 Z255 F12.00 
G01 X34.35 Y10.85 Z255 F12.00 
G01 X34.4 Y10.9 Z255 F12.00 
G01 X34.4 Y10.95 Z255 F12.00 
G01 X34.45 Y11.05 Z255 F12.00 
G01 X34.45 Y11.1 Z255 F12.00 
G01 X34.4 Y11.15 Z255 F12.00 
G01 X34.35 Y11.2 Z255 F12.00 
G00 X34.8 Y11.05 Z0 F50.00 

G01 X34.85 Y11.0 Z255 F12.00 
G01 X34.8 Y10.95 Z255 F12.00 
G01 X34.8 Y10.95 Z255 F12.00 
G00 X0 Y0 Z0 F50.00 
