/#############################################################/ 
/###########Gcode generated with PathImg.py V0.4##############/ 
/######written by Nick Sidney Lemberger aka Holysocks#########/ 
/#############################################################/ 

/circle/ 
/laser_engraver(diode, 445nm)/ 



G00 X0 Y0 Z0 
G00 X8.8 Y8.6 Z0

G01 X9.1 Y8.4 Z255 F500.00 
G01 X9.2 Y8.3 Z255 F500.00 
G01 X10.3 Y7.3 Z255 F500.00 
G01 X10.4 Y7.2 Z255 F500.00 
G01 X11.0 Y6.7 Z255 F500.00 
G01 X11.1 Y6.6 Z255 F500.00 
G01 X11.5 Y6.3 Z255 F500.00 
G01 X11.6 Y6.2 Z255 F500.00 
G01 X11.9 Y6.0 Z255 F500.00 
G01 X12.0 Y5.9 Z255 F500.00 
G01 X12.3 Y5.7 Z255 F500.00 
G01 X12.4 Y5.6 Z255 F500.00 
G01 X12.6 Y5.5 Z255 F500.00 
G01 X12.7 Y5.4 Z255 F500.00 
G01 X13.0 Y5.2 Z255 F500.00 
G01 X13.1 Y5.1 Z255 F500.00 
G01 X13.3 Y5.0 Z255 F500.00 
G01 X13.4 Y4.9 Z255 F500.00 
G01 X13.6 Y4.8 Z255 F500.00 
G01 X13.7 Y4.7 Z255 F500.00 
G01 X13.9 Y4.6 Z255 F500.00 
G01 X14.0 Y4.5 Z255 F500.00 
G01 X14.1 Y4.5 Z255 F500.00 
G01 X14.2 Y4.4 Z255 F500.00 
G01 X14.4 Y4.3 Z255 F500.00 
G01 X14.5 Y4.2 Z255 F500.00 
G01 X14.6 Y4.2 Z255 F500.00 
G01 X14.7 Y4.1 Z255 F500.00 
G01 X14.9 Y4.0 Z255 F500.00 
G01 X15.0 Y3.9 Z255 F500.00 
G01 X15.1 Y3.9 Z255 F500.00 
G01 X15.2 Y3.8 Z255 F500.00 
G01 X15.3 Y3.8 Z255 F500.00 
G01 X15.4 Y3.7 Z255 F500.00 
G01 X15.6 Y3.6 Z255 F500.00 
G01 X15.7 Y3.5 Z255 F500.00 
G01 X15.8 Y3.5 Z255 F500.00 
G01 X15.9 Y3.4 Z255 F500.00 
G01 X16.0 Y3.4 Z255 F500.00 
G01 X16.1 Y3.3 Z255 F500.00 
G01 X16.2 Y3.3 Z255 F500.00 
G01 X16.3 Y3.2 Z255 F500.00 
G01 X16.4 Y3.2 Z255 F500.00 
G01 X16.5 Y3.1 Z255 F500.00 
G01 X16.6 Y3.1 Z255 F500.00 
G01 X16.7 Y3.0 Z255 F500.00 
G01 X16.8 Y3.0 Z255 F500.00 
G01 X16.9 Y2.9 Z255 F500.00 
G01 X17.0 Y2.9 Z255 F500.00 
G01 X17.1 Y2.8 Z255 F500.00 
G01 X17.2 Y2.8 Z255 F500.00 
G01 X17.3 Y2.7 Z255 F500.00 
G01 X17.4 Y2.7 Z255 F500.00 
G01 X17.5 Y2.6 Z255 F500.00 
G01 X17.6 Y2.6 Z255 F500.00 
G01 X17.7 Y2.5 Z255 F500.00 
G01 X17.8 Y2.5 Z255 F500.00 
G01 X18.0 Y2.4 Z255 F500.00 
G01 X18.1 Y2.4 Z255 F500.00 
G01 X18.2 Y2.3 Z255 F500.00 
G01 X18.3 Y2.3 Z255 F500.00 
G01 X18.4 Y2.2 Z255 F500.00 
G01 X18.5 Y2.2 Z255 F500.00 
G01 X18.7 Y2.1 Z255 F500.00 
G01 X18.8 Y2.1 Z255 F500.00 
G01 X18.9 Y2.0 Z255 F500.00 
G01 X19.0 Y2.0 Z255 F500.00 
G01 X19.2 Y1.9 Z255 F500.00 
G01 X19.3 Y1.9 Z255 F500.00 
G01 X19.4 Y1.8 Z255 F500.00 
G01 X19.5 Y1.8 Z255 F500.00 
G01 X19.7 Y1.7 Z255 F500.00 
G01 X19.8 Y1.7 Z255 F500.00 
G01 X20.0 Y1.6 Z255 F500.00 
G01 X20.1 Y1.6 Z255 F500.00 
G01 X20.3 Y1.5 Z255 F500.00 
G01 X20.4 Y1.5 Z255 F500.00 
G01 X20.6 Y1.4 Z255 F500.00 
G01 X20.7 Y1.4 Z255 F500.00 
G01 X20.9 Y1.3 Z255 F500.00 
G01 X21.0 Y1.3 Z255 F500.00 
G01 X21.2 Y1.2 Z255 F500.00 
G01 X21.3 Y1.2 Z255 F500.00 
G01 X21.6 Y1.1 Z255 F500.00 
G01 X21.7 Y1.1 Z255 F500.00 
G01 X21.9 Y1.0 Z255 F500.00 
G01 X22.0 Y1.0 Z255 F500.00 
G01 X22.3 Y0.9 Z255 F500.00 
G01 X22.4 Y0.9 Z255 F500.00 
G01 X22.7 Y0.8 Z255 F500.00 
G01 X22.8 Y0.8 Z255 F500.00 
G01 X23.1 Y0.7 Z255 F500.00 
G01 X23.2 Y0.7 Z255 F500.00 
G01 X23.5 Y0.6 Z255 F500.00 
G01 X23.6 Y0.6 Z255 F500.00 
G01 X24.0 Y0.5 Z255 F500.00 
G01 X24.1 Y0.5 Z255 F500.00 
G01 X24.5 Y0.4 Z255 F500.00 
G01 X24.6 Y0.4 Z255 F500.00 
G01 X25.1 Y0.3 Z255 F500.00 
G01 X25.2 Y0.3 Z255 F500.00 
G01 X25.8 Y0.2 Z255 F500.00 
G01 X25.9 Y0.2 Z255 F500.00 
G01 X26.6 Y0.1 Z255 F500.00 
G01 X26.7 Y0.1 Z255 F500.00 
G01 X27.6 Y0.0 Z255 F500.00 
G01 X27.6 Y0.0 Z255 F500.00 
G00 X32.4 Y0.1 Z0

G01 X32.5 Y0.1 Z255 F500.00 
G01 X33.4 Y0.2 Z255 F500.00 
G01 X33.5 Y0.2 Z255 F500.00 
G01 X34.2 Y0.3 Z255 F500.00 
G01 X34.3 Y0.3 Z255 F500.00 
G01 X34.9 Y0.4 Z255 F500.00 
G01 X35.0 Y0.4 Z255 F500.00 
G01 X35.5 Y0.5 Z255 F500.00 
G01 X35.6 Y0.5 Z255 F500.00 
G01 X36.0 Y0.6 Z255 F500.00 
G01 X36.1 Y0.6 Z255 F500.00 
G01 X36.5 Y0.7 Z255 F500.00 
G01 X36.6 Y0.7 Z255 F500.00 
G01 X36.9 Y0.8 Z255 F500.00 
G01 X37.0 Y0.8 Z255 F500.00 
G01 X37.3 Y0.9 Z255 F500.00 
G01 X37.4 Y0.9 Z255 F500.00 
G01 X37.7 Y1.0 Z255 F500.00 
G01 X37.8 Y1.0 Z255 F500.00 
G01 X38.1 Y1.1 Z255 F500.00 
G01 X38.2 Y1.1 Z255 F500.00 
G01 X38.4 Y1.2 Z255 F500.00 
G01 X38.5 Y1.2 Z255 F500.00 
G01 X38.8 Y1.3 Z255 F500.00 
G01 X38.9 Y1.3 Z255 F500.00 
G01 X39.1 Y1.4 Z255 F500.00 
G01 X39.2 Y1.4 Z255 F500.00 
G01 X39.4 Y1.5 Z255 F500.00 
G01 X39.5 Y1.5 Z255 F500.00 
G01 X39.7 Y1.6 Z255 F500.00 
G01 X39.8 Y1.6 Z255 F500.00 
G01 X40.0 Y1.7 Z255 F500.00 
G01 X40.1 Y1.7 Z255 F500.00 
G01 X40.3 Y1.8 Z255 F500.00 
G01 X40.4 Y1.8 Z255 F500.00 
G01 X40.6 Y1.9 Z255 F500.00 
G01 X40.7 Y1.9 Z255 F500.00 
G01 X40.8 Y2.0 Z255 F500.00 
G01 X40.9 Y2.0 Z255 F500.00 
G01 X41.1 Y2.1 Z255 F500.00 
G01 X41.2 Y2.1 Z255 F500.00 
G01 X41.3 Y2.2 Z255 F500.00 
G01 X41.4 Y2.2 Z255 F500.00 
G01 X41.6 Y2.3 Z255 F500.00 
G01 X41.7 Y2.3 Z255 F500.00 
G01 X41.8 Y2.4 Z255 F500.00 
G01 X41.9 Y2.4 Z255 F500.00 
G01 X42.0 Y2.5 Z255 F500.00 
G01 X42.1 Y2.5 Z255 F500.00 
G01 X42.3 Y2.6 Z255 F500.00 
G01 X42.4 Y2.6 Z255 F500.00 
G01 X42.5 Y2.7 Z255 F500.00 
G01 X42.6 Y2.7 Z255 F500.00 
G01 X42.7 Y2.8 Z255 F500.00 
G01 X42.8 Y2.8 Z255 F500.00 
G01 X42.9 Y2.9 Z255 F500.00 
G01 X43.0 Y2.9 Z255 F500.00 
G01 X43.1 Y3.0 Z255 F500.00 
G01 X43.2 Y3.0 Z255 F500.00 
G01 X43.3 Y3.1 Z255 F500.00 
G01 X43.4 Y3.1 Z255 F500.00 
G01 X43.5 Y3.2 Z255 F500.00 
G01 X43.6 Y3.2 Z255 F500.00 
G01 X43.7 Y3.3 Z255 F500.00 
G01 X43.8 Y3.3 Z255 F500.00 
G01 X43.9 Y3.4 Z255 F500.00 
G01 X44.0 Y3.4 Z255 F500.00 
G01 X44.1 Y3.5 Z255 F500.00 
G01 X44.2 Y3.5 Z255 F500.00 
G01 X44.3 Y3.6 Z255 F500.00 
G01 X44.4 Y3.6 Z255 F500.00 
G01 X44.5 Y3.7 Z255 F500.00 
G01 X44.7 Y3.8 Z255 F500.00 
G01 X44.8 Y3.9 Z255 F500.00 
G01 X44.9 Y3.9 Z255 F500.00 
G01 X45.0 Y4.0 Z255 F500.00 
G01 X45.1 Y4.0 Z255 F500.00 
G01 X45.2 Y4.1 Z255 F500.00 
G01 X45.4 Y4.2 Z255 F500.00 
G01 X45.5 Y4.3 Z255 F500.00 
G01 X45.6 Y4.3 Z255 F500.00 
G01 X45.7 Y4.4 Z255 F500.00 
G01 X45.9 Y4.5 Z255 F500.00 
G01 X46.0 Y4.6 Z255 F500.00 
G01 X46.1 Y4.6 Z255 F500.00 
G01 X46.2 Y4.7 Z255 F500.00 
G01 X46.4 Y4.8 Z255 F500.00 
G01 X46.5 Y4.9 Z255 F500.00 
G01 X46.7 Y5.0 Z255 F500.00 
G01 X46.8 Y5.1 Z255 F500.00 
G01 X47.0 Y5.2 Z255 F500.00 
G01 X47.1 Y5.3 Z255 F500.00 
G01 X47.4 Y5.5 Z255 F500.00 
G01 X47.5 Y5.6 Z255 F500.00 
G01 X47.7 Y5.7 Z255 F500.00 
G01 X47.8 Y5.8 Z255 F500.00 
G01 X48.1 Y6.0 Z255 F500.00 
G01 X48.2 Y6.1 Z255 F500.00 
G01 X48.5 Y6.3 Z255 F500.00 
G01 X48.6 Y6.4 Z255 F500.00 
G01 X49.0 Y6.7 Z255 F500.00 
G01 X49.1 Y6.8 Z255 F500.00 
G01 X49.7 Y7.3 Z255 F500.00 
G01 X49.8 Y7.4 Z255 F500.00 
G01 X50.9 Y8.4 Z255 F500.00 
G01 X51.0 Y8.5 Z255 F500.00 
G01 X51.5 Y9.1 Z255 F500.00 
G01 X51.6 Y9.2 Z255 F500.00 
G01 X52.6 Y10.3 Z255 F500.00 
G01 X52.7 Y10.4 Z255 F500.00 
G01 X53.2 Y11.0 Z255 F500.00 
G01 X53.3 Y11.1 Z255 F500.00 
G01 X53.6 Y11.5 Z255 F500.00 
G01 X53.7 Y11.6 Z255 F500.00 
G01 X53.9 Y11.9 Z255 F500.00 
G01 X54.0 Y12.0 Z255 F500.00 
G01 X54.2 Y12.3 Z255 F500.00 
G01 X54.3 Y12.4 Z255 F500.00 
G01 X54.4 Y12.6 Z255 F500.00 
G01 X54.5 Y12.7 Z255 F500.00 
G01 X54.7 Y13.0 Z255 F500.00 
G01 X54.8 Y13.1 Z255 F500.00 
G01 X54.9 Y13.3 Z255 F500.00 
G01 X55.0 Y13.4 Z255 F500.00 
G01 X55.1 Y13.6 Z255 F500.00 
G01 X55.2 Y13.7 Z255 F500.00 
G01 X55.3 Y13.9 Z255 F500.00 
G01 X55.4 Y14.0 Z255 F500.00 
G01 X55.4 Y14.1 Z255 F500.00 
G01 X55.5 Y14.2 Z255 F500.00 
G01 X55.6 Y14.4 Z255 F500.00 
G01 X55.7 Y14.5 Z255 F500.00 
G01 X55.7 Y14.6 Z255 F500.00 
G01 X55.8 Y14.7 Z255 F500.00 
G01 X55.9 Y14.9 Z255 F500.00 
G01 X56.0 Y15.0 Z255 F500.00 
G01 X56.0 Y15.1 Z255 F500.00 
G01 X56.1 Y15.2 Z255 F500.00 
G01 X56.1 Y15.3 Z255 F500.00 
G01 X56.2 Y15.4 Z255 F500.00 
G01 X56.3 Y15.6 Z255 F500.00 
G01 X56.4 Y15.7 Z255 F500.00 
G01 X56.4 Y15.8 Z255 F500.00 
G01 X56.5 Y15.9 Z255 F500.00 
G01 X56.5 Y16.0 Z255 F500.00 
G01 X56.6 Y16.1 Z255 F500.00 
G01 X56.6 Y16.2 Z255 F500.00 
G01 X56.7 Y16.3 Z255 F500.00 
G01 X56.7 Y16.4 Z255 F500.00 
G01 X56.8 Y16.5 Z255 F500.00 
G01 X56.8 Y16.6 Z255 F500.00 
G01 X56.9 Y16.7 Z255 F500.00 
G01 X56.9 Y16.8 Z255 F500.00 
G01 X57.0 Y16.9 Z255 F500.00 
G01 X57.0 Y17.0 Z255 F500.00 
G01 X57.1 Y17.1 Z255 F500.00 
G01 X57.1 Y17.2 Z255 F500.00 
G01 X57.2 Y17.3 Z255 F500.00 
G01 X57.2 Y17.4 Z255 F500.00 
G01 X57.3 Y17.5 Z255 F500.00 
G01 X57.3 Y17.6 Z255 F500.00 
G01 X57.4 Y17.7 Z255 F500.00 
G01 X57.4 Y17.8 Z255 F500.00 
G01 X57.5 Y18.0 Z255 F500.00 
G01 X57.5 Y18.1 Z255 F500.00 
G01 X57.6 Y18.2 Z255 F500.00 
G01 X57.6 Y18.3 Z255 F500.00 
G01 X57.7 Y18.4 Z255 F500.00 
G01 X57.7 Y18.5 Z255 F500.00 
G01 X57.8 Y18.7 Z255 F500.00 
G01 X57.8 Y18.8 Z255 F500.00 
G01 X57.9 Y18.9 Z255 F500.00 
G01 X57.9 Y19.0 Z255 F500.00 
G01 X58.0 Y19.2 Z255 F500.00 
G01 X58.0 Y19.3 Z255 F500.00 
G01 X58.1 Y19.4 Z255 F500.00 
G01 X58.1 Y19.5 Z255 F500.00 
G01 X58.2 Y19.7 Z255 F500.00 
G01 X58.2 Y19.8 Z255 F500.00 
G01 X58.3 Y20.0 Z255 F500.00 
G01 X58.3 Y20.1 Z255 F500.00 
G01 X58.4 Y20.3 Z255 F500.00 
G01 X58.4 Y20.4 Z255 F500.00 
G01 X58.5 Y20.6 Z255 F500.00 
G01 X58.5 Y20.7 Z255 F500.00 
G01 X58.6 Y20.9 Z255 F500.00 
G01 X58.6 Y21.0 Z255 F500.00 
G01 X58.7 Y21.2 Z255 F500.00 
G01 X58.7 Y21.3 Z255 F500.00 
G01 X58.8 Y21.6 Z255 F500.00 
G01 X58.8 Y21.7 Z255 F500.00 
G01 X58.9 Y21.9 Z255 F500.00 
G01 X58.9 Y22.0 Z255 F500.00 
G01 X59.0 Y22.3 Z255 F500.00 
G01 X59.0 Y22.4 Z255 F500.00 
G01 X59.1 Y22.7 Z255 F500.00 
G01 X59.1 Y22.8 Z255 F500.00 
G01 X59.2 Y23.1 Z255 F500.00 
G01 X59.2 Y23.2 Z255 F500.00 
G01 X59.3 Y23.5 Z255 F500.00 
G01 X59.3 Y23.6 Z255 F500.00 
G01 X59.4 Y24.0 Z255 F500.00 
G01 X59.4 Y24.1 Z255 F500.00 
G01 X59.5 Y24.5 Z255 F500.00 
G01 X59.5 Y24.6 Z255 F500.00 
G01 X59.6 Y25.1 Z255 F500.00 
G01 X59.6 Y25.2 Z255 F500.00 
G01 X59.7 Y25.8 Z255 F500.00 
G01 X59.7 Y25.9 Z255 F500.00 
G01 X59.8 Y26.6 Z255 F500.00 
G01 X59.8 Y26.7 Z255 F500.00 
G01 X59.9 Y27.6 Z255 F500.00 
G01 X59.9 Y27.6 Z255 F500.00 
G00 X59.8 Y32.4 Z0

G01 X59.8 Y32.5 Z255 F500.00 
G01 X59.7 Y33.4 Z255 F500.00 
G01 X59.7 Y33.5 Z255 F500.00 
G01 X59.6 Y34.2 Z255 F500.00 
G01 X59.6 Y34.3 Z255 F500.00 
G01 X59.5 Y34.9 Z255 F500.00 
G01 X59.5 Y35.0 Z255 F500.00 
G01 X59.4 Y35.5 Z255 F500.00 
G01 X59.4 Y35.6 Z255 F500.00 
G01 X59.3 Y36.0 Z255 F500.00 
G01 X59.3 Y36.1 Z255 F500.00 
G01 X59.2 Y36.5 Z255 F500.00 
G01 X59.2 Y36.6 Z255 F500.00 
G01 X59.1 Y36.9 Z255 F500.00 
G01 X59.1 Y37.0 Z255 F500.00 
G01 X59.0 Y37.3 Z255 F500.00 
G01 X59.0 Y37.4 Z255 F500.00 
G01 X58.9 Y37.7 Z255 F500.00 
G01 X58.9 Y37.8 Z255 F500.00 
G01 X58.8 Y38.1 Z255 F500.00 
G01 X58.8 Y38.2 Z255 F500.00 
G01 X58.7 Y38.4 Z255 F500.00 
G01 X58.7 Y38.5 Z255 F500.00 
G01 X58.6 Y38.8 Z255 F500.00 
G01 X58.6 Y38.9 Z255 F500.00 
G01 X58.5 Y39.1 Z255 F500.00 
G01 X58.5 Y39.2 Z255 F500.00 
G01 X58.4 Y39.4 Z255 F500.00 
G01 X58.4 Y39.5 Z255 F500.00 
G01 X58.3 Y39.7 Z255 F500.00 
G01 X58.3 Y39.8 Z255 F500.00 
G01 X58.2 Y40.0 Z255 F500.00 
G01 X58.2 Y40.1 Z255 F500.00 
G01 X58.1 Y40.3 Z255 F500.00 
G01 X58.1 Y40.4 Z255 F500.00 
G01 X58.0 Y40.6 Z255 F500.00 
G01 X58.0 Y40.7 Z255 F500.00 
G01 X57.9 Y40.8 Z255 F500.00 
G01 X57.9 Y40.9 Z255 F500.00 
G01 X57.8 Y41.1 Z255 F500.00 
G01 X57.8 Y41.2 Z255 F500.00 
G01 X57.7 Y41.3 Z255 F500.00 
G01 X57.7 Y41.4 Z255 F500.00 
G01 X57.6 Y41.6 Z255 F500.00 
G01 X57.6 Y41.7 Z255 F500.00 
G01 X57.5 Y41.8 Z255 F500.00 
G01 X57.5 Y41.9 Z255 F500.00 
G01 X57.4 Y42.0 Z255 F500.00 
G01 X57.4 Y42.1 Z255 F500.00 
G01 X57.3 Y42.3 Z255 F500.00 
G01 X57.3 Y42.4 Z255 F500.00 
G01 X57.2 Y42.5 Z255 F500.00 
G01 X57.2 Y42.6 Z255 F500.00 
G01 X57.1 Y42.7 Z255 F500.00 
G01 X57.1 Y42.8 Z255 F500.00 
G01 X57.0 Y42.9 Z255 F500.00 
G01 X57.0 Y43.0 Z255 F500.00 
G01 X56.9 Y43.1 Z255 F500.00 
G01 X56.9 Y43.2 Z255 F500.00 
G01 X56.8 Y43.3 Z255 F500.00 
G01 X56.8 Y43.4 Z255 F500.00 
G01 X56.7 Y43.5 Z255 F500.00 
G01 X56.7 Y43.6 Z255 F500.00 
G01 X56.6 Y43.7 Z255 F500.00 
G01 X56.6 Y43.8 Z255 F500.00 
G01 X56.5 Y43.9 Z255 F500.00 
G01 X56.5 Y44.0 Z255 F500.00 
G01 X56.4 Y44.1 Z255 F500.00 
G01 X56.4 Y44.2 Z255 F500.00 
G01 X56.3 Y44.3 Z255 F500.00 
G01 X56.3 Y44.4 Z255 F500.00 
G01 X56.2 Y44.5 Z255 F500.00 
G01 X56.1 Y44.7 Z255 F500.00 
G01 X56.0 Y44.8 Z255 F500.00 
G01 X56.0 Y44.9 Z255 F500.00 
G01 X55.9 Y45.0 Z255 F500.00 
G01 X55.9 Y45.1 Z255 F500.00 
G01 X55.8 Y45.2 Z255 F500.00 
G01 X55.7 Y45.4 Z255 F500.00 
G01 X55.6 Y45.5 Z255 F500.00 
G01 X55.6 Y45.6 Z255 F500.00 
G01 X55.5 Y45.7 Z255 F500.00 
G01 X55.4 Y45.9 Z255 F500.00 
G01 X55.3 Y46.0 Z255 F500.00 
G01 X55.3 Y46.1 Z255 F500.00 
G01 X55.2 Y46.2 Z255 F500.00 
G01 X55.1 Y46.4 Z255 F500.00 
G01 X55.0 Y46.5 Z255 F500.00 
G01 X54.9 Y46.7 Z255 F500.00 
G01 X54.8 Y46.8 Z255 F500.00 
G01 X54.7 Y47.0 Z255 F500.00 
G01 X54.6 Y47.1 Z255 F500.00 
G01 X54.4 Y47.4 Z255 F500.00 
G01 X54.3 Y47.5 Z255 F500.00 
G01 X54.2 Y47.7 Z255 F500.00 
G01 X54.1 Y47.8 Z255 F500.00 
G01 X53.9 Y48.1 Z255 F500.00 
G01 X53.8 Y48.2 Z255 F500.00 
G01 X53.6 Y48.5 Z255 F500.00 
G01 X53.5 Y48.6 Z255 F500.00 
G01 X53.2 Y49.0 Z255 F500.00 
G01 X53.1 Y49.1 Z255 F500.00 
G01 X52.6 Y49.7 Z255 F500.00 
G01 X52.5 Y49.8 Z255 F500.00 
G01 X51.5 Y50.9 Z255 F500.00 
G01 X51.4 Y51.0 Z255 F500.00 
G01 X50.8 Y51.5 Z255 F500.00 
G01 X50.7 Y51.6 Z255 F500.00 
G01 X49.6 Y52.6 Z255 F500.00 
G01 X49.5 Y52.7 Z255 F500.00 
G01 X48.9 Y53.2 Z255 F500.00 
G01 X48.8 Y53.3 Z255 F500.00 
G01 X48.4 Y53.6 Z255 F500.00 
G01 X48.3 Y53.7 Z255 F500.00 
G01 X48.0 Y53.9 Z255 F500.00 
G01 X47.9 Y54.0 Z255 F500.00 
G01 X47.6 Y54.2 Z255 F500.00 
G01 X47.5 Y54.3 Z255 F500.00 
G01 X47.3 Y54.4 Z255 F500.00 
G01 X47.2 Y54.5 Z255 F500.00 
G01 X46.9 Y54.7 Z255 F500.00 
G01 X46.8 Y54.8 Z255 F500.00 
G01 X46.6 Y54.9 Z255 F500.00 
G01 X46.5 Y55.0 Z255 F500.00 
G01 X46.3 Y55.1 Z255 F500.00 
G01 X46.2 Y55.2 Z255 F500.00 
G01 X46.0 Y55.3 Z255 F500.00 
G01 X45.9 Y55.4 Z255 F500.00 
G01 X45.8 Y55.4 Z255 F500.00 
G01 X45.7 Y55.5 Z255 F500.00 
G01 X45.5 Y55.6 Z255 F500.00 
G01 X45.4 Y55.7 Z255 F500.00 
G01 X45.3 Y55.7 Z255 F500.00 
G01 X45.2 Y55.8 Z255 F500.00 
G01 X45.0 Y55.9 Z255 F500.00 
G01 X44.9 Y56.0 Z255 F500.00 
G01 X44.8 Y56.0 Z255 F500.00 
G01 X44.7 Y56.1 Z255 F500.00 
G01 X44.6 Y56.1 Z255 F500.00 
G01 X44.5 Y56.2 Z255 F500.00 
G01 X44.3 Y56.3 Z255 F500.00 
G01 X44.2 Y56.4 Z255 F500.00 
G01 X44.1 Y56.4 Z255 F500.00 
G01 X44.0 Y56.5 Z255 F500.00 
G01 X43.9 Y56.5 Z255 F500.00 
G01 X43.8 Y56.6 Z255 F500.00 
G01 X43.7 Y56.6 Z255 F500.00 
G01 X43.6 Y56.7 Z255 F500.00 
G01 X43.5 Y56.7 Z255 F500.00 
G01 X43.4 Y56.8 Z255 F500.00 
G01 X43.3 Y56.8 Z255 F500.00 
G01 X43.2 Y56.9 Z255 F500.00 
G01 X43.1 Y56.9 Z255 F500.00 
G01 X43.0 Y57.0 Z255 F500.00 
G01 X42.9 Y57.0 Z255 F500.00 
G01 X42.8 Y57.1 Z255 F500.00 
G01 X42.7 Y57.1 Z255 F500.00 
G01 X42.6 Y57.2 Z255 F500.00 
G01 X42.5 Y57.2 Z255 F500.00 
G01 X42.4 Y57.3 Z255 F500.00 
G01 X42.3 Y57.3 Z255 F500.00 
G01 X42.2 Y57.4 Z255 F500.00 
G01 X42.1 Y57.4 Z255 F500.00 
G01 X41.9 Y57.5 Z255 F500.00 
G01 X41.8 Y57.5 Z255 F500.00 
G01 X41.7 Y57.6 Z255 F500.00 
G01 X41.6 Y57.6 Z255 F500.00 
G01 X41.5 Y57.7 Z255 F500.00 
G01 X41.4 Y57.7 Z255 F500.00 
G01 X41.2 Y57.8 Z255 F500.00 
G01 X41.1 Y57.8 Z255 F500.00 
G01 X41.0 Y57.9 Z255 F500.00 
G01 X40.9 Y57.9 Z255 F500.00 
G01 X40.7 Y58.0 Z255 F500.00 
G01 X40.6 Y58.0 Z255 F500.00 
G01 X40.5 Y58.1 Z255 F500.00 
G01 X40.4 Y58.1 Z255 F500.00 
G01 X40.2 Y58.2 Z255 F500.00 
G01 X40.1 Y58.2 Z255 F500.00 
G01 X39.9 Y58.3 Z255 F500.00 
G01 X39.8 Y58.3 Z255 F500.00 
G01 X39.6 Y58.4 Z255 F500.00 
G01 X39.5 Y58.4 Z255 F500.00 
G01 X39.3 Y58.5 Z255 F500.00 
G01 X39.2 Y58.5 Z255 F500.00 
G01 X39.0 Y58.6 Z255 F500.00 
G01 X38.9 Y58.6 Z255 F500.00 
G01 X38.7 Y58.7 Z255 F500.00 
G01 X38.6 Y58.7 Z255 F500.00 
G01 X38.3 Y58.8 Z255 F500.00 
G01 X38.2 Y58.8 Z255 F500.00 
G01 X38.0 Y58.9 Z255 F500.00 
G01 X37.9 Y58.9 Z255 F500.00 
G01 X37.6 Y59.0 Z255 F500.00 
G01 X37.5 Y59.0 Z255 F500.00 
G01 X37.2 Y59.1 Z255 F500.00 
G01 X37.1 Y59.1 Z255 F500.00 
G01 X36.8 Y59.2 Z255 F500.00 
G01 X36.7 Y59.2 Z255 F500.00 
G01 X36.4 Y59.3 Z255 F500.00 
G01 X36.3 Y59.3 Z255 F500.00 
G01 X35.9 Y59.4 Z255 F500.00 
G01 X35.8 Y59.4 Z255 F500.00 
G01 X35.4 Y59.5 Z255 F500.00 
G01 X35.3 Y59.5 Z255 F500.00 
G01 X34.8 Y59.6 Z255 F500.00 
G01 X34.7 Y59.6 Z255 F500.00 
G01 X34.1 Y59.7 Z255 F500.00 
G01 X34.0 Y59.7 Z255 F500.00 
G01 X33.3 Y59.8 Z255 F500.00 
G01 X33.2 Y59.8 Z255 F500.00 
G01 X32.3 Y59.9 Z255 F500.00 
G01 X32.3 Y59.9 Z255 F500.00 
G00 X27.5 Y59.8 Z0

G01 X27.4 Y59.8 Z255 F500.00 
G01 X26.5 Y59.7 Z255 F500.00 
G01 X26.4 Y59.7 Z255 F500.00 
G01 X25.7 Y59.6 Z255 F500.00 
G01 X25.6 Y59.6 Z255 F500.00 
G01 X25.0 Y59.5 Z255 F500.00 
G01 X24.9 Y59.5 Z255 F500.00 
G01 X24.4 Y59.4 Z255 F500.00 
G01 X24.3 Y59.4 Z255 F500.00 
G01 X23.9 Y59.3 Z255 F500.00 
G01 X23.8 Y59.3 Z255 F500.00 
G01 X23.4 Y59.2 Z255 F500.00 
G01 X23.3 Y59.2 Z255 F500.00 
G01 X23.0 Y59.1 Z255 F500.00 
G01 X22.9 Y59.1 Z255 F500.00 
G01 X22.6 Y59.0 Z255 F500.00 
G01 X22.5 Y59.0 Z255 F500.00 
G01 X22.2 Y58.9 Z255 F500.00 
G01 X22.1 Y58.9 Z255 F500.00 
G01 X21.8 Y58.8 Z255 F500.00 
G01 X21.7 Y58.8 Z255 F500.00 
G01 X21.5 Y58.7 Z255 F500.00 
G01 X21.4 Y58.7 Z255 F500.00 
G01 X21.1 Y58.6 Z255 F500.00 
G01 X21.0 Y58.6 Z255 F500.00 
G01 X20.8 Y58.5 Z255 F500.00 
G01 X20.7 Y58.5 Z255 F500.00 
G01 X20.5 Y58.4 Z255 F500.00 
G01 X20.4 Y58.4 Z255 F500.00 
G01 X20.2 Y58.3 Z255 F500.00 
G01 X20.1 Y58.3 Z255 F500.00 
G01 X19.9 Y58.2 Z255 F500.00 
G01 X19.8 Y58.2 Z255 F500.00 
G01 X19.6 Y58.1 Z255 F500.00 
G01 X19.5 Y58.1 Z255 F500.00 
G01 X19.3 Y58.0 Z255 F500.00 
G01 X19.2 Y58.0 Z255 F500.00 
G01 X19.1 Y57.9 Z255 F500.00 
G01 X19.0 Y57.9 Z255 F500.00 
G01 X18.8 Y57.8 Z255 F500.00 
G01 X18.7 Y57.8 Z255 F500.00 
G01 X18.6 Y57.7 Z255 F500.00 
G01 X18.5 Y57.7 Z255 F500.00 
G01 X18.3 Y57.6 Z255 F500.00 
G01 X18.2 Y57.6 Z255 F500.00 
G01 X18.1 Y57.5 Z255 F500.00 
G01 X18.0 Y57.5 Z255 F500.00 
G01 X17.9 Y57.4 Z255 F500.00 
G01 X17.8 Y57.4 Z255 F500.00 
G01 X17.6 Y57.3 Z255 F500.00 
G01 X17.5 Y57.3 Z255 F500.00 
G01 X17.4 Y57.2 Z255 F500.00 
G01 X17.3 Y57.2 Z255 F500.00 
G01 X17.2 Y57.1 Z255 F500.00 
G01 X17.1 Y57.1 Z255 F500.00 
G01 X17.0 Y57.0 Z255 F500.00 
G01 X16.9 Y57.0 Z255 F500.00 
G01 X16.8 Y56.9 Z255 F500.00 
G01 X16.7 Y56.9 Z255 F500.00 
G01 X16.6 Y56.8 Z255 F500.00 
G01 X16.5 Y56.8 Z255 F500.00 
G01 X16.4 Y56.7 Z255 F500.00 
G01 X16.3 Y56.7 Z255 F500.00 
G01 X16.2 Y56.6 Z255 F500.00 
G01 X16.1 Y56.6 Z255 F500.00 
G01 X16.0 Y56.5 Z255 F500.00 
G01 X15.9 Y56.5 Z255 F500.00 
G01 X15.8 Y56.4 Z255 F500.00 
G01 X15.7 Y56.4 Z255 F500.00 
G01 X15.6 Y56.3 Z255 F500.00 
G01 X15.5 Y56.3 Z255 F500.00 
G01 X15.4 Y56.2 Z255 F500.00 
G01 X15.2 Y56.1 Z255 F500.00 
G01 X15.1 Y56.0 Z255 F500.00 
G01 X15.0 Y56.0 Z255 F500.00 
G01 X14.9 Y55.9 Z255 F500.00 
G01 X14.8 Y55.9 Z255 F500.00 
G01 X14.7 Y55.8 Z255 F500.00 
G01 X14.5 Y55.7 Z255 F500.00 
G01 X14.4 Y55.6 Z255 F500.00 
G01 X14.3 Y55.6 Z255 F500.00 
G01 X14.2 Y55.5 Z255 F500.00 
G01 X14.0 Y55.4 Z255 F500.00 
G01 X13.9 Y55.3 Z255 F500.00 
G01 X13.8 Y55.3 Z255 F500.00 
G01 X13.7 Y55.2 Z255 F500.00 
G01 X13.5 Y55.1 Z255 F500.00 
G01 X13.4 Y55.0 Z255 F500.00 
G01 X13.2 Y54.9 Z255 F500.00 
G01 X13.1 Y54.8 Z255 F500.00 
G01 X12.9 Y54.7 Z255 F500.00 
G01 X12.8 Y54.6 Z255 F500.00 
G01 X12.5 Y54.4 Z255 F500.00 
G01 X12.4 Y54.3 Z255 F500.00 
G01 X12.2 Y54.2 Z255 F500.00 
G01 X12.1 Y54.1 Z255 F500.00 
G01 X11.8 Y53.9 Z255 F500.00 
G01 X11.7 Y53.8 Z255 F500.00 
G01 X11.4 Y53.6 Z255 F500.00 
G01 X11.3 Y53.5 Z255 F500.00 
G01 X10.9 Y53.2 Z255 F500.00 
G01 X10.8 Y53.1 Z255 F500.00 
G01 X10.2 Y52.6 Z255 F500.00 
G01 X10.1 Y52.5 Z255 F500.00 
G01 X9.0 Y51.5 Z255 F500.00 
G01 X8.9 Y51.4 Z255 F500.00 
G01 X8.4 Y50.8 Z255 F500.00 
G01 X8.3 Y50.7 Z255 F500.00 
G01 X7.3 Y49.6 Z255 F500.00 
G01 X7.2 Y49.5 Z255 F500.00 
G01 X6.7 Y48.9 Z255 F500.00 
G01 X6.6 Y48.8 Z255 F500.00 
G01 X6.3 Y48.4 Z255 F500.00 
G01 X6.2 Y48.3 Z255 F500.00 
G01 X6.0 Y48.0 Z255 F500.00 
G01 X5.9 Y47.9 Z255 F500.00 
G01 X5.7 Y47.6 Z255 F500.00 
G01 X5.6 Y47.5 Z255 F500.00 
G01 X5.5 Y47.3 Z255 F500.00 
G01 X5.4 Y47.2 Z255 F500.00 
G01 X5.2 Y46.9 Z255 F500.00 
G01 X5.1 Y46.8 Z255 F500.00 
G01 X5.0 Y46.6 Z255 F500.00 
G01 X4.9 Y46.5 Z255 F500.00 
G01 X4.8 Y46.3 Z255 F500.00 
G01 X4.7 Y46.2 Z255 F500.00 
G01 X4.6 Y46.0 Z255 F500.00 
G01 X4.5 Y45.9 Z255 F500.00 
G01 X4.5 Y45.8 Z255 F500.00 
G01 X4.4 Y45.7 Z255 F500.00 
G01 X4.3 Y45.5 Z255 F500.00 
G01 X4.2 Y45.4 Z255 F500.00 
G01 X4.2 Y45.3 Z255 F500.00 
G01 X4.1 Y45.2 Z255 F500.00 
G01 X4.0 Y45.0 Z255 F500.00 
G01 X3.9 Y44.9 Z255 F500.00 
G01 X3.9 Y44.8 Z255 F500.00 
G01 X3.8 Y44.7 Z255 F500.00 
G01 X3.8 Y44.6 Z255 F500.00 
G01 X3.7 Y44.5 Z255 F500.00 
G01 X3.6 Y44.3 Z255 F500.00 
G01 X3.5 Y44.2 Z255 F500.00 
G01 X3.5 Y44.1 Z255 F500.00 
G01 X3.4 Y44.0 Z255 F500.00 
G01 X3.4 Y43.9 Z255 F500.00 
G01 X3.3 Y43.8 Z255 F500.00 
G01 X3.3 Y43.7 Z255 F500.00 
G01 X3.2 Y43.6 Z255 F500.00 
G01 X3.2 Y43.5 Z255 F500.00 
G01 X3.1 Y43.4 Z255 F500.00 
G01 X3.1 Y43.3 Z255 F500.00 
G01 X3.0 Y43.2 Z255 F500.00 
G01 X3.0 Y43.1 Z255 F500.00 
G01 X2.9 Y43.0 Z255 F500.00 
G01 X2.9 Y42.9 Z255 F500.00 
G01 X2.8 Y42.8 Z255 F500.00 
G01 X2.8 Y42.7 Z255 F500.00 
G01 X2.7 Y42.6 Z255 F500.00 
G01 X2.7 Y42.5 Z255 F500.00 
G01 X2.6 Y42.4 Z255 F500.00 
G01 X2.6 Y42.3 Z255 F500.00 
G01 X2.5 Y42.2 Z255 F500.00 
G01 X2.5 Y42.1 Z255 F500.00 
G01 X2.4 Y41.9 Z255 F500.00 
G01 X2.4 Y41.8 Z255 F500.00 
G01 X2.3 Y41.7 Z255 F500.00 
G01 X2.3 Y41.6 Z255 F500.00 
G01 X2.2 Y41.5 Z255 F500.00 
G01 X2.2 Y41.4 Z255 F500.00 
G01 X2.1 Y41.2 Z255 F500.00 
G01 X2.1 Y41.1 Z255 F500.00 
G01 X2.0 Y41.0 Z255 F500.00 
G01 X2.0 Y40.9 Z255 F500.00 
G01 X1.9 Y40.7 Z255 F500.00 
G01 X1.9 Y40.6 Z255 F500.00 
G01 X1.8 Y40.5 Z255 F500.00 
G01 X1.8 Y40.4 Z255 F500.00 
G01 X1.7 Y40.2 Z255 F500.00 
G01 X1.7 Y40.1 Z255 F500.00 
G01 X1.6 Y39.9 Z255 F500.00 
G01 X1.6 Y39.8 Z255 F500.00 
G01 X1.5 Y39.6 Z255 F500.00 
G01 X1.5 Y39.5 Z255 F500.00 
G01 X1.4 Y39.3 Z255 F500.00 
G01 X1.4 Y39.2 Z255 F500.00 
G01 X1.3 Y39.0 Z255 F500.00 
G01 X1.3 Y38.9 Z255 F500.00 
G01 X1.2 Y38.7 Z255 F500.00 
G01 X1.2 Y38.6 Z255 F500.00 
G01 X1.1 Y38.3 Z255 F500.00 
G01 X1.1 Y38.2 Z255 F500.00 
G01 X1.0 Y38.0 Z255 F500.00 
G01 X1.0 Y37.9 Z255 F500.00 
G01 X0.9 Y37.6 Z255 F500.00 
G01 X0.9 Y37.5 Z255 F500.00 
G01 X0.8 Y37.2 Z255 F500.00 
G01 X0.8 Y37.1 Z255 F500.00 
G01 X0.7 Y36.8 Z255 F500.00 
G01 X0.7 Y36.7 Z255 F500.00 
G01 X0.6 Y36.4 Z255 F500.00 
G01 X0.6 Y36.3 Z255 F500.00 
G01 X0.5 Y35.9 Z255 F500.00 
G01 X0.5 Y35.8 Z255 F500.00 
G01 X0.4 Y35.4 Z255 F500.00 
G01 X0.4 Y35.3 Z255 F500.00 
G01 X0.3 Y34.8 Z255 F500.00 
G01 X0.3 Y34.7 Z255 F500.00 
G01 X0.2 Y34.1 Z255 F500.00 
G01 X0.2 Y34.0 Z255 F500.00 
G01 X0.1 Y33.3 Z255 F500.00 
G01 X0.1 Y33.2 Z255 F500.00 
G01 X0.0 Y32.3 Z255 F500.00 
G01 X0.0 Y32.3 Z255 F500.00 
G00 X0.1 Y27.5 Z0

G01 X0.1 Y27.4 Z255 F500.00 
G01 X0.2 Y26.5 Z255 F500.00 
G01 X0.2 Y26.4 Z255 F500.00 
G01 X0.3 Y25.7 Z255 F500.00 
G01 X0.3 Y25.6 Z255 F500.00 
G01 X0.4 Y25.0 Z255 F500.00 
G01 X0.4 Y24.9 Z255 F500.00 
G01 X0.5 Y24.4 Z255 F500.00 
G01 X0.5 Y24.3 Z255 F500.00 
G01 X0.6 Y23.9 Z255 F500.00 
G01 X0.6 Y23.8 Z255 F500.00 
G01 X0.7 Y23.4 Z255 F500.00 
G01 X0.7 Y23.3 Z255 F500.00 
G01 X0.8 Y23.0 Z255 F500.00 
G01 X0.8 Y22.9 Z255 F500.00 
G01 X0.9 Y22.6 Z255 F500.00 
G01 X0.9 Y22.5 Z255 F500.00 
G01 X1.0 Y22.2 Z255 F500.00 
G01 X1.0 Y22.1 Z255 F500.00 
G01 X1.1 Y21.8 Z255 F500.00 
G01 X1.1 Y21.7 Z255 F500.00 
G01 X1.2 Y21.5 Z255 F500.00 
G01 X1.2 Y21.4 Z255 F500.00 
G01 X1.3 Y21.1 Z255 F500.00 
G01 X1.3 Y21.0 Z255 F500.00 
G01 X1.4 Y20.8 Z255 F500.00 
G01 X1.4 Y20.7 Z255 F500.00 
G01 X1.5 Y20.5 Z255 F500.00 
G01 X1.5 Y20.4 Z255 F500.00 
G01 X1.6 Y20.2 Z255 F500.00 
G01 X1.6 Y20.1 Z255 F500.00 
G01 X1.7 Y19.9 Z255 F500.00 
G01 X1.7 Y19.8 Z255 F500.00 
G01 X1.8 Y19.6 Z255 F500.00 
G01 X1.8 Y19.5 Z255 F500.00 
G01 X1.9 Y19.3 Z255 F500.00 
G01 X1.9 Y19.2 Z255 F500.00 
G01 X2.0 Y19.1 Z255 F500.00 
G01 X2.0 Y19.0 Z255 F500.00 
G01 X2.1 Y18.8 Z255 F500.00 
G01 X2.1 Y18.7 Z255 F500.00 
G01 X2.2 Y18.6 Z255 F500.00 
G01 X2.2 Y18.5 Z255 F500.00 
G01 X2.3 Y18.3 Z255 F500.00 
G01 X2.3 Y18.2 Z255 F500.00 
G01 X2.4 Y18.1 Z255 F500.00 
G01 X2.4 Y18.0 Z255 F500.00 
G01 X2.5 Y17.9 Z255 F500.00 
G01 X2.5 Y17.8 Z255 F500.00 
G01 X2.6 Y17.6 Z255 F500.00 
G01 X2.6 Y17.5 Z255 F500.00 
G01 X2.7 Y17.4 Z255 F500.00 
G01 X2.7 Y17.3 Z255 F500.00 
G01 X2.8 Y17.2 Z255 F500.00 
G01 X2.8 Y17.1 Z255 F500.00 
G01 X2.9 Y17.0 Z255 F500.00 
G01 X2.9 Y16.9 Z255 F500.00 
G01 X3.0 Y16.8 Z255 F500.00 
G01 X3.0 Y16.7 Z255 F500.00 
G01 X3.1 Y16.6 Z255 F500.00 
G01 X3.1 Y16.5 Z255 F500.00 
G01 X3.2 Y16.4 Z255 F500.00 
G01 X3.2 Y16.3 Z255 F500.00 
G01 X3.3 Y16.2 Z255 F500.00 
G01 X3.3 Y16.1 Z255 F500.00 
G01 X3.4 Y16.0 Z255 F500.00 
G01 X3.4 Y15.9 Z255 F500.00 
G01 X3.5 Y15.8 Z255 F500.00 
G01 X3.5 Y15.7 Z255 F500.00 
G01 X3.6 Y15.6 Z255 F500.00 
G01 X3.6 Y15.5 Z255 F500.00 
G01 X3.7 Y15.4 Z255 F500.00 
G01 X3.8 Y15.2 Z255 F500.00 
G01 X3.9 Y15.1 Z255 F500.00 
G01 X3.9 Y15.0 Z255 F500.00 
G01 X4.0 Y14.9 Z255 F500.00 
G01 X4.0 Y14.8 Z255 F500.00 
G01 X4.1 Y14.7 Z255 F500.00 
G01 X4.2 Y14.5 Z255 F500.00 
G01 X4.3 Y14.4 Z255 F500.00 
G01 X4.3 Y14.3 Z255 F500.00 
G01 X4.4 Y14.2 Z255 F500.00 
G01 X4.5 Y14.0 Z255 F500.00 
G01 X4.6 Y13.9 Z255 F500.00 
G01 X4.6 Y13.8 Z255 F500.00 
G01 X4.7 Y13.7 Z255 F500.00 
G01 X4.8 Y13.5 Z255 F500.00 
G01 X4.9 Y13.4 Z255 F500.00 
G01 X5.0 Y13.2 Z255 F500.00 
G01 X5.1 Y13.1 Z255 F500.00 
G01 X5.2 Y12.9 Z255 F500.00 
G01 X5.3 Y12.8 Z255 F500.00 
G01 X5.5 Y12.5 Z255 F500.00 
G01 X5.6 Y12.4 Z255 F500.00 
G01 X5.7 Y12.2 Z255 F500.00 
G01 X5.8 Y12.1 Z255 F500.00 
G01 X6.0 Y11.8 Z255 F500.00 
G01 X6.1 Y11.7 Z255 F500.00 
G01 X6.3 Y11.4 Z255 F500.00 
G01 X6.4 Y11.3 Z255 F500.00 
G01 X6.7 Y10.9 Z255 F500.00 
G01 X6.8 Y10.8 Z255 F500.00 
G01 X7.3 Y10.2 Z255 F500.00 
G01 X7.4 Y10.1 Z255 F500.00 
G01 X8.4 Y9.0 Z255 F500.00 
G01 X8.5 Y8.9 Z255 F500.00 
G01 X8.6 Y8.8 Z255 F500.00 
G00 X0 Y0 Z0 
