#############################################################
###########Gcode generated with LazerImg.py V0.1#############
######written by Nick Sidney Lemberger aka Holysocks#########
#############################################################

kacke
laser_engraver(diode, 445nm)
X20.0 Y20.0 



F80.0 


G00 X20.0 Y20.0 Z0 F80.00
 G01 X109.6 Y20.0 Z255 F20.00 
G00 X109.6 Y20.2 Z0 F80.00 
G01 X20.0 Y20.2 Z255 F20.00 
G00 X20.0 Y20.4 Z0 F80.00 
G01 X109.6 Y20.4 Z255 F20.00 
G00 X109.6 Y20.6 Z0 F80.00 
G01 X20.0 Y20.6 Z255 F20.00 
G00 X20.0 Y20.8 Z0 F80.00 
G01 X109.6 Y20.8 Z255 F20.00 
G00 X109.6 Y21.0 Z0 F80.00 
G01 X20.0 Y21.0 Z255 F20.00 
G00 X20.0 Y21.2 Z0 F80.00 
G01 X109.6 Y21.2 Z255 F20.00 
G00 X109.6 Y21.4 Z0 F80.00 
G01 X20.0 Y21.4 Z255 F20.00 
G00 X20.0 Y21.6 Z0 F80.00 
G01 X109.6 Y21.6 Z255 F20.00 
G00 X109.6 Y21.8 Z0 F80.00 
G01 X20.0 Y21.8 Z255 F20.00 
G00 X20.0 Y22.0 Z0 F80.00 
G01 X109.6 Y22.0 Z255 F20.00 
G00 X109.6 Y22.2 Z0 F80.00 
G01 X20.0 Y22.2 Z255 F20.00 
G00 X20.0 Y22.4 Z0 F80.00 
G01 X109.6 Y22.4 Z255 F20.00 
G00 X109.6 Y22.6 Z0 F80.00 
G01 X20.0 Y22.6 Z255 F20.00 
G00 X20.0 Y22.8 Z0 F80.00 
G01 X109.6 Y22.8 Z255 F20.00 
G00 X109.6 Y23.0 Z0 F80.00 
G01 X20.0 Y23.0 Z255 F20.00 
G00 X20.0 Y23.2 Z0 F80.00 
G01 X109.6 Y23.2 Z255 F20.00 
G00 X109.6 Y23.4 Z0 F80.00 
G01 X20.0 Y23.4 Z255 F20.00 
G00 X20.0 Y23.6 Z0 F80.00 
G01 X109.6 Y23.6 Z255 F20.00 
G00 X109.6 Y23.8 Z0 F80.00 
G01 X20.0 Y23.8 Z255 F20.00 
G00 X20.0 Y24.0 Z0 F80.00 
G01 X109.6 Y24.0 Z255 F20.00 
G00 X109.6 Y24.2 Z0 F80.00 
G01 X20.0 Y24.2 Z255 F20.00 
G00 X20.0 Y24.4 Z0 F80.00 
G01 X109.6 Y24.4 Z255 F20.00 
G00 X109.6 Y24.6 Z0 F80.00 
G01 X20.0 Y24.6 Z255 F20.00 
G00 X20.0 Y24.8 Z0 F80.00 
G01 X109.6 Y24.8 Z255 F20.00 
G00 X109.6 Y25.0 Z0 F80.00 
G01 X20.0 Y25.0 Z255 F20.00 
G00 X20.0 Y25.2 Z0 F80.00 
G01 X109.6 Y25.2 Z255 F20.00 
G00 X109.6 Y25.4 Z0 F80.00 
G01 X20.0 Y25.4 Z255 F20.00 
G00 X20.0 Y25.6 Z0 F80.00 
G01 X109.6 Y25.6 Z255 F20.00 
G00 X109.6 Y25.8 Z0 F80.00 
G01 X20.0 Y25.8 Z255 F20.00 
G00 X20.0 Y26.0 Z0 F80.00 
G01 X109.6 Y26.0 Z255 F20.00 
G00 X109.6 Y26.2 Z0 F80.00 
G01 X20.0 Y26.2 Z255 F20.00 
G00 X20.0 Y26.4 Z0 F80.00 
G01 X109.6 Y26.4 Z255 F20.00 
G00 X109.6 Y26.6 Z0 F80.00 
G01 X20.0 Y26.6 Z255 F20.00 
G00 X20.0 Y26.8 Z0 F80.00 
G01 X109.6 Y26.8 Z255 F20.00 
G00 X109.6 Y27.0 Z0 F80.00 
G01 X20.0 Y27.0 Z255 F20.00 
G00 X20.0 Y27.2 Z0 F80.00 
G01 X109.6 Y27.2 Z255 F20.00 
G00 X109.6 Y27.4 Z0 F80.00 
G01 X20.0 Y27.4 Z255 F20.00 
G00 X20.0 Y27.6 Z0 F80.00 
G01 X109.6 Y27.6 Z255 F20.00 
G00 X109.6 Y27.8 Z0 F80.00 
G01 X20.0 Y27.8 Z255 F20.00 
G00 X20.0 Y28.0 Z0 F80.00 
G01 X109.6 Y28.0 Z255 F20.00 
G00 X109.6 Y28.2 Z0 F80.00 
G01 X20.0 Y28.2 Z255 F20.00 
G00 X20.0 Y28.4 Z0 F80.00 
G01 X109.6 Y28.4 Z255 F20.00 
G00 X109.6 Y28.6 Z0 F80.00 
G01 X20.0 Y28.6 Z255 F20.00 
G00 X20.0 Y28.8 Z0 F80.00 
G01 X109.6 Y28.8 Z255 F20.00 
G00 X109.6 Y29.0 Z0 F80.00 
G01 X20.0 Y29.0 Z255 F20.00 
G00 X20.0 Y29.2 Z0 F80.00 
G01 X109.6 Y29.2 Z255 F20.00 
G00 X109.6 Y29.4 Z0 F80.00 
G01 X20.0 Y29.4 Z255 F20.00 
G00 X20.0 Y29.6 Z0 F80.00 
G01 X109.6 Y29.6 Z255 F20.00 
G00 X109.6 Y29.8 Z0 F80.00 
G01 X20.0 Y29.8 Z255 F20.00 
G00 X20.0 Y30.0 Z0 F80.00 
G01 X109.6 Y30.0 Z255 F20.00 
G00 X109.6 Y30.2 Z0 F80.00 
G01 X20.0 Y30.2 Z255 F20.00 
G00 X20.0 Y30.4 Z0 F80.00 
G01 X109.6 Y30.4 Z255 F20.00 
G00 X109.6 Y30.6 Z0 F80.00 
G01 X20.0 Y30.6 Z255 F20.00 
G00 X20.0 Y30.8 Z0 F80.00 
G01 X109.6 Y30.8 Z255 F20.00 
G00 X109.6 Y31.0 Z0 F80.00 
G01 X20.0 Y31.0 Z255 F20.00 
G00 X20.0 Y31.2 Z0 F80.00 
G01 X109.6 Y31.2 Z255 F20.00 
G00 X109.6 Y31.4 Z0 F80.00 
G01 X20.0 Y31.4 Z255 F20.00 
G00 X20.0 Y31.6 Z0 F80.00 
G01 X109.6 Y31.6 Z255 F20.00 
G00 X109.6 Y31.8 Z0 F80.00 
G01 X20.0 Y31.8 Z255 F20.00 
G00 X20.0 Y32.0 Z0 F80.00 
G01 X109.6 Y32.0 Z255 F20.00 
G00 X109.6 Y32.2 Z0 F80.00 
G01 X20.0 Y32.2 Z255 F20.00 
G00 X20.0 Y32.4 Z0 F80.00 
G01 X109.6 Y32.4 Z255 F20.00 
G00 X109.6 Y32.6 Z0 F80.00 
G01 X20.0 Y32.6 Z255 F20.00 
G00 X20.0 Y32.8 Z0 F80.00 
G01 X109.6 Y32.8 Z255 F20.00 
G00 X109.6 Y33.0 Z0 F80.00 
G01 X20.0 Y33.0 Z255 F20.00 
G00 X20.0 Y33.2 Z0 F80.00 
G01 X109.6 Y33.2 Z255 F20.00 
G00 X109.6 Y33.4 Z0 F80.00 
G01 X20.0 Y33.4 Z255 F20.00 
G00 X20.0 Y33.6 Z0 F80.00 
G01 X109.6 Y33.6 Z255 F20.00 
G00 X109.6 Y33.8 Z0 F80.00 
G01 X20.0 Y33.8 Z255 F20.00 
G00 X20.0 Y34.0 Z0 F80.00 
G01 X109.6 Y34.0 Z255 F20.00 
G00 X109.6 Y34.2 Z0 F80.00 
G01 X20.0 Y34.2 Z255 F20.00 
G00 X20.0 Y34.4 Z0 F80.00 
G01 X109.6 Y34.4 Z255 F20.00 
G00 X109.6 Y34.6 Z0 F80.00 
G01 X20.0 Y34.6 Z255 F20.00 
G00 X20.0 Y34.8 Z0 F80.00 
G01 X109.6 Y34.8 Z255 F20.00 
G00 X109.6 Y35.0 Z0 F80.00 
G01 X20.0 Y35.0 Z255 F20.00 
G00 X20.0 Y35.2 Z0 F80.00 
G01 X109.6 Y35.2 Z255 F20.00 
G00 X109.6 Y35.4 Z0 F80.00 
G01 X20.0 Y35.4 Z255 F20.00 
G00 X20.0 Y35.6 Z0 F80.00 
G01 X109.6 Y35.6 Z255 F20.00 
G00 X109.6 Y35.8 Z0 F80.00 
G01 X20.0 Y35.8 Z255 F20.00 
G00 X20.0 Y36.0 Z0 F80.00 
G01 X109.6 Y36.0 Z255 F20.00 
G00 X109.6 Y36.2 Z0 F80.00 
G01 X20.0 Y36.2 Z255 F20.00 
G00 X20.0 Y36.4 Z0 F80.00 
G01 X109.6 Y36.4 Z255 F20.00 
G00 X109.6 Y36.6 Z0 F80.00 
G01 X20.0 Y36.6 Z255 F20.00 
G00 X20.0 Y36.8 Z0 F80.00 
G01 X109.6 Y36.8 Z255 F20.00 
G00 X109.6 Y37.0 Z0 F80.00 
G01 X20.0 Y37.0 Z255 F20.00 
G00 X20.0 Y37.2 Z0 F80.00 
G01 X109.6 Y37.2 Z255 F20.00 
G00 X109.6 Y37.4 Z0 F80.00 
G01 X20.0 Y37.4 Z255 F20.00 
G00 X20.0 Y37.6 Z0 F80.00 
G01 X109.6 Y37.6 Z255 F20.00 
G00 X109.6 Y37.8 Z0 F80.00 
G01 X20.0 Y37.8 Z255 F20.00 
G00 X20.0 Y38.0 Z0 F80.00 
G01 X109.6 Y38.0 Z255 F20.00 
G00 X109.6 Y38.2 Z0 F80.00 
G01 X20.0 Y38.2 Z255 F20.00 
G00 X20.0 Y38.4 Z0 F80.00 
G01 X109.6 Y38.4 Z255 F20.00 
G00 X109.6 Y38.6 Z0 F80.00 
G01 X20.0 Y38.6 Z255 F20.00 
G00 X20.0 Y38.8 Z0 F80.00 
G01 X109.6 Y38.8 Z255 F20.00 
G00 X109.6 Y39.0 Z0 F80.00 
G01 X20.0 Y39.0 Z255 F20.00 
G00 X20.0 Y39.2 Z0 F80.00 
G01 X109.6 Y39.2 Z255 F20.00 
G00 X109.6 Y39.4 Z0 F80.00 
G01 X20.0 Y39.4 Z255 F20.00 
G00 X20.0 Y39.6 Z0 F80.00 
G01 X109.6 Y39.6 Z255 F20.00 
G00 X109.6 Y39.8 Z0 F80.00 
G01 X20.0 Y39.8 Z255 F20.00 
G00 X20.0 Y40.0 Z0 F80.00 
G01 X109.6 Y40.0 Z255 F20.00 
G00 X109.6 Y40.2 Z0 F80.00 
G01 X20.0 Y40.2 Z255 F20.00 
G00 X20.0 Y40.4 Z0 F80.00 
G01 X109.6 Y40.4 Z255 F20.00 
G00 X109.6 Y40.6 Z0 F80.00 
G01 X20.0 Y40.6 Z255 F20.00 
G00 X20.0 Y40.8 Z0 F80.00 
G01 X109.6 Y40.8 Z255 F20.00 
G00 X109.6 Y41.0 Z0 F80.00 
G01 X20.0 Y41.0 Z255 F20.00 
G00 X20.0 Y41.2 Z0 F80.00 
G01 X109.6 Y41.2 Z255 F20.00 
G00 X109.6 Y41.4 Z0 F80.00 
G01 X20.0 Y41.4 Z255 F20.00 
G00 X20.0 Y41.6 Z0 F80.00 
G01 X109.6 Y41.6 Z255 F20.00 
G00 X109.6 Y41.8 Z0 F80.00 
G01 X20.0 Y41.8 Z255 F20.00 
G00 X20.0 Y42.0 Z0 F80.00 
G01 X109.6 Y42.0 Z255 F20.00 
G00 X109.6 Y42.2 Z0 F80.00 
G01 X20.0 Y42.2 Z255 F20.00 
G00 X20.0 Y42.4 Z0 F80.00 
G01 X109.6 Y42.4 Z255 F20.00 
G00 X109.6 Y42.6 Z0 F80.00 
G01 X20.0 Y42.6 Z255 F20.00 
G00 X20.0 Y42.8 Z0 F80.00 
G01 X109.6 Y42.8 Z255 F20.00 
G00 X109.6 Y43.0 Z0 F80.00 
G01 X20.0 Y43.0 Z255 F20.00 
G00 X20.0 Y43.2 Z0 F80.00 
G01 X109.6 Y43.2 Z255 F20.00 
G00 X109.6 Y43.4 Z0 F80.00 
G01 X20.0 Y43.4 Z255 F20.00 
G00 X20.0 Y43.6 Z0 F80.00 
G01 X109.6 Y43.6 Z255 F20.00 
G00 X109.6 Y43.8 Z0 F80.00 
G01 X20.0 Y43.8 Z255 F20.00 
G00 X20.0 Y44.0 Z0 F80.00 
G01 X109.6 Y44.0 Z255 F20.00 
G00 X109.6 Y44.2 Z0 F80.00 
G01 X20.0 Y44.2 Z255 F20.00 
G00 X20.0 Y44.4 Z0 F80.00 
G01 X109.6 Y44.4 Z255 F20.00 
G00 X109.6 Y44.6 Z0 F80.00 
G01 X20.0 Y44.6 Z255 F20.00 
G00 X20.0 Y44.8 Z0 F80.00 
G01 X109.6 Y44.8 Z255 F20.00 
G00 X109.6 Y45.0 Z0 F80.00 
G01 X20.0 Y45.0 Z255 F20.00 
G00 X20.0 Y45.2 Z0 F80.00 
G01 X109.6 Y45.2 Z255 F20.00 
G00 X109.6 Y45.4 Z0 F80.00 
G01 X20.0 Y45.4 Z255 F20.00 
G00 X20.0 Y45.6 Z0 F80.00 
G01 X109.6 Y45.6 Z255 F20.00 
G00 X109.6 Y45.8 Z0 F80.00 
G01 X20.0 Y45.8 Z255 F20.00 
G00 X20.0 Y46.0 Z0 F80.00 
G01 X109.6 Y46.0 Z255 F20.00 
G00 X109.6 Y46.2 Z0 F80.00 
G01 X20.0 Y46.2 Z255 F20.00 
G00 X20.0 Y46.4 Z0 F80.00 
G01 X109.6 Y46.4 Z255 F20.00 
G00 X109.6 Y46.6 Z0 F80.00 
G01 X20.0 Y46.6 Z255 F20.00 
G00 X20.0 Y46.8 Z0 F80.00 
G01 X109.6 Y46.8 Z255 F20.00 
G00 X109.6 Y47.0 Z0 F80.00 
G01 X20.0 Y47.0 Z255 F20.00 
G00 X20.0 Y47.2 Z0 F80.00 
G01 X109.6 Y47.2 Z255 F20.00 
G00 X109.6 Y47.4 Z0 F80.00 
G01 X20.0 Y47.4 Z255 F20.00 
G00 X20.0 Y47.6 Z0 F80.00 
G01 X109.6 Y47.6 Z255 F20.00 
G00 X109.6 Y47.8 Z0 F80.00 
G01 X20.0 Y47.8 Z255 F20.00 
G00 X20.0 Y48.0 Z0 F80.00 
G01 X109.6 Y48.0 Z255 F20.00 
G00 X109.6 Y48.2 Z0 F80.00 
G01 X20.0 Y48.2 Z255 F20.00 
G00 X20.0 Y48.4 Z0 F80.00 
G01 X109.6 Y48.4 Z255 F20.00 
G00 X109.6 Y48.6 Z0 F80.00 
G01 X20.0 Y48.6 Z255 F20.00 
G00 X20.0 Y48.8 Z0 F80.00 
G01 X109.6 Y48.8 Z255 F20.00 
G00 X109.6 Y49.0 Z0 F80.00 
G01 X20.0 Y49.0 Z255 F20.00 
G00 X20.0 Y49.2 Z0 F80.00 
G01 X109.6 Y49.2 Z255 F20.00 
G00 X109.6 Y49.4 Z0 F80.00 
G01 X20.0 Y49.4 Z255 F20.00 
G00 X20.0 Y49.6 Z0 F80.00 
G01 X109.6 Y49.6 Z255 F20.00 
G00 X109.6 Y49.8 Z0 F80.00 
G01 X20.0 Y49.8 Z255 F20.00 
G00 X20.0 Y50.0 Z0 F80.00 
G01 X109.6 Y50.0 Z255 F20.00 
G00 X109.6 Y50.2 Z0 F80.00 
G01 X20.0 Y50.2 Z255 F20.00 
G00 X20.0 Y50.4 Z0 F80.00 
G01 X109.6 Y50.4 Z255 F20.00 
G00 X109.6 Y50.6 Z0 F80.00 
G01 X20.0 Y50.6 Z255 F20.00 
G00 X20.0 Y50.8 Z0 F80.00 
G01 X109.6 Y50.8 Z255 F20.00 
G00 X109.6 Y51.0 Z0 F80.00 
G01 X20.0 Y51.0 Z255 F20.00 
G00 X20.0 Y51.2 Z0 F80.00 
G01 X109.6 Y51.2 Z255 F20.00 
G00 X109.6 Y51.4 Z0 F80.00 
G01 X20.0 Y51.4 Z255 F20.00 
G00 X20.0 Y51.6 Z0 F80.00 
G01 X109.6 Y51.6 Z255 F20.00 
G00 X109.6 Y51.8 Z0 F80.00 
G01 X20.0 Y51.8 Z255 F20.00 
G00 X20.0 Y52.0 Z0 F80.00 
G01 X109.6 Y52.0 Z255 F20.00 
G00 X109.6 Y52.2 Z0 F80.00 
G01 X20.0 Y52.2 Z255 F20.00 
G00 X20.0 Y52.4 Z0 F80.00 
G01 X109.6 Y52.4 Z255 F20.00 
G00 X109.6 Y52.6 Z0 F80.00 
G01 X20.0 Y52.6 Z255 F20.00 
G00 X20.0 Y52.8 Z0 F80.00 
G01 X109.6 Y52.8 Z255 F20.00 
G00 X109.6 Y53.0 Z0 F80.00 
G01 X20.0 Y53.0 Z255 F20.00 
G00 X20.0 Y53.2 Z0 F80.00 
G01 X109.6 Y53.2 Z255 F20.00 
G00 X109.6 Y53.4 Z0 F80.00 
G01 X20.0 Y53.4 Z255 F20.00 
G00 X20.0 Y53.6 Z0 F80.00 
G01 X109.6 Y53.6 Z255 F20.00 
G00 X109.6 Y53.8 Z0 F80.00 
G01 X20.0 Y53.8 Z255 F20.00 
G00 X20.0 Y54.0 Z0 F80.00 
G01 X109.6 Y54.0 Z255 F20.00 
G00 X109.6 Y54.2 Z0 F80.00 
G01 X20.0 Y54.2 Z255 F20.00 
G00 X20.0 Y54.4 Z0 F80.00 
G01 X109.6 Y54.4 Z255 F20.00 
G00 X109.6 Y54.6 Z0 F80.00 
G01 X20.0 Y54.6 Z255 F20.00 
G00 X20.0 Y54.8 Z0 F80.00 
G01 X109.6 Y54.8 Z255 F20.00 
G00 X109.6 Y55.0 Z0 F80.00 
G01 X20.0 Y55.0 Z255 F20.00 
G00 X20.0 Y55.2 Z0 F80.00 
G01 X109.6 Y55.2 Z255 F20.00 
G00 X109.6 Y55.4 Z0 F80.00 
G01 X20.0 Y55.4 Z255 F20.00 
G00 X20.0 Y55.6 Z0 F80.00 
G01 X109.6 Y55.6 Z255 F20.00 
G00 X109.6 Y55.8 Z0 F80.00 
G01 X20.0 Y55.8 Z255 F20.00 
G00 X20.0 Y56.0 Z0 F80.00 
G01 X109.6 Y56.0 Z255 F20.00 
G00 X109.6 Y56.2 Z0 F80.00 
G01 X20.0 Y56.2 Z255 F20.00 
G00 X20.0 Y56.4 Z0 F80.00 
G01 X109.6 Y56.4 Z255 F20.00 
G00 X109.6 Y56.6 Z0 F80.00 
G01 X20.0 Y56.6 Z255 F20.00 
G00 X20.0 Y56.8 Z0 F80.00 
G01 X109.6 Y56.8 Z255 F20.00 
G00 X109.6 Y57.0 Z0 F80.00 
G01 X20.0 Y57.0 Z255 F20.00 
G00 X20.0 Y57.2 Z0 F80.00 
G01 X109.6 Y57.2 Z255 F20.00 
G00 X109.6 Y57.4 Z0 F80.00 
G01 X20.0 Y57.4 Z255 F20.00 
G00 X20.0 Y57.6 Z0 F80.00 
G01 X109.6 Y57.6 Z255 F20.00 
G00 X109.6 Y57.8 Z0 F80.00 
G01 X20.0 Y57.8 Z255 F20.00 
G00 X20.0 Y58.0 Z0 F80.00 
G01 X109.6 Y58.0 Z255 F20.00 
G00 X109.6 Y58.2 Z0 F80.00 
G01 X20.0 Y58.2 Z255 F20.00 
G00 X20.0 Y58.4 Z0 F80.00 
G01 X109.6 Y58.4 Z255 F20.00 
G00 X109.6 Y58.6 Z0 F80.00 
G01 X20.0 Y58.6 Z255 F20.00 
G00 X20.0 Y58.8 Z0 F80.00 
G01 X109.6 Y58.8 Z255 F20.00 
G00 X109.6 Y59.0 Z0 F80.00 
G01 X20.0 Y59.0 Z255 F20.00 
G00 X20.0 Y59.2 Z0 F80.00 
G01 X109.6 Y59.2 Z255 F20.00 
G00 X109.6 Y59.4 Z0 F80.00 
G01 X20.0 Y59.4 Z255 F20.00 
G00 X20.0 Y59.6 Z0 F80.00 
G01 X109.6 Y59.6 Z255 F20.00 
G00 X109.6 Y59.8 Z0 F80.00 
G01 X20.0 Y59.8 Z255 F20.00 
G00 X20.0 Y60.0 Z0 F80.00 
G01 X109.6 Y60.0 Z255 F20.00 
G00 X109.6 Y60.2 Z0 F80.00 
G01 X20.0 Y60.2 Z255 F20.00 
G00 X20.0 Y60.4 Z0 F80.00 
G01 X109.6 Y60.4 Z255 F20.00 
G00 X109.6 Y60.6 Z0 F80.00 
G01 X20.0 Y60.6 Z255 F20.00 
G00 X20.0 Y60.8 Z0 F80.00 
G01 X109.6 Y60.8 Z255 F20.00 
G00 X109.6 Y61.0 Z0 F80.00 
G01 X20.0 Y61.0 Z255 F20.00 
G00 X20.0 Y61.2 Z0 F80.00 
G01 X109.6 Y61.2 Z255 F20.00 
G00 X109.6 Y61.4 Z0 F80.00 
G01 X20.0 Y61.4 Z255 F20.00 
G00 X20.0 Y61.6 Z0 F80.00 
G01 X109.6 Y61.6 Z255 F20.00 
G00 X109.6 Y61.8 Z0 F80.00 
G01 X20.0 Y61.8 Z255 F20.00 
G00 X20.0 Y62.0 Z0 F80.00 
G01 X109.6 Y62.0 Z255 F20.00 
G00 X109.6 Y62.2 Z0 F80.00 
G01 X20.0 Y62.2 Z255 F20.00 
G00 X20.0 Y62.4 Z0 F80.00 
G01 X109.6 Y62.4 Z255 F20.00 
G00 X109.6 Y62.6 Z0 F80.00 
G01 X20.0 Y62.6 Z255 F20.00 
G00 X20.0 Y62.8 Z0 F80.00 
G01 X109.6 Y62.8 Z255 F20.00 
G00 X109.6 Y63.0 Z0 F80.00 
G01 X20.0 Y63.0 Z255 F20.00 
G00 X20.0 Y63.2 Z0 F80.00 
G01 X109.6 Y63.2 Z255 F20.00 
G00 X109.6 Y63.4 Z0 F80.00 
G01 X20.0 Y63.4 Z255 F20.00 
G00 X20.0 Y63.6 Z0 F80.00 
G01 X109.6 Y63.6 Z255 F20.00 
G00 X109.6 Y63.8 Z0 F80.00 
G01 X20.0 Y63.8 Z255 F20.00 
G00 X20.0 Y64.0 Z0 F80.00 
G01 X109.6 Y64.0 Z255 F20.00 
G00 X109.6 Y64.2 Z0 F80.00 
G01 X20.0 Y64.2 Z255 F20.00 
G00 X20.0 Y64.4 Z0 F80.00 
G01 X109.6 Y64.4 Z255 F20.00 
G00 X109.6 Y64.6 Z0 F80.00 
G01 X20.0 Y64.6 Z255 F20.00 
G00 X20.0 Y64.8 Z0 F80.00 
G01 X109.6 Y64.8 Z255 F20.00 
G00 X109.6 Y65.0 Z0 F80.00 
G01 X20.0 Y65.0 Z255 F20.00 
G00 X20.0 Y65.2 Z0 F80.00 
G01 X109.6 Y65.2 Z255 F20.00 
G00 X109.6 Y65.4 Z0 F80.00 
G01 X20.0 Y65.4 Z255 F20.00 
G00 X20.0 Y65.6 Z0 F80.00 
G01 X109.6 Y65.6 Z255 F20.00 
G00 X109.6 Y65.8 Z0 F80.00 
G01 X20.0 Y65.8 Z255 F20.00 
G00 X20.0 Y66.0 Z0 F80.00 
G01 X109.6 Y66.0 Z255 F20.00 
G00 X109.6 Y66.2 Z0 F80.00 
G01 X20.0 Y66.2 Z255 F20.00 
G00 X20.0 Y66.4 Z0 F80.00 
G01 X109.6 Y66.4 Z255 F20.00 
G00 X109.6 Y66.6 Z0 F80.00 
G01 X20.0 Y66.6 Z255 F20.00 
G00 X20.0 Y66.8 Z0 F80.00 
G01 X109.6 Y66.8 Z255 F20.00 
G00 X109.6 Y67.0 Z0 F80.00 
G01 X20.0 Y67.0 Z255 F20.00 
G00 X20.0 Y67.2 Z0 F80.00 
G01 X109.6 Y67.2 Z255 F20.00 
G00 X109.6 Y67.4 Z0 F80.00 
G01 X20.0 Y67.4 Z255 F20.00 
G00 X20.0 Y67.6 Z0 F80.00 
G01 X109.6 Y67.6 Z255 F20.00 
G00 X109.6 Y67.8 Z0 F80.00 
G01 X20.0 Y67.8 Z255 F20.00 
G00 X20.0 Y68.0 Z0 F80.00 
G01 X109.6 Y68.0 Z255 F20.00 
G00 X109.6 Y68.2 Z0 F80.00 
G01 X20.0 Y68.2 Z255 F20.00 
G00 X20.0 Y68.4 Z0 F80.00 
G01 X109.6 Y68.4 Z255 F20.00 
G00 X109.6 Y68.6 Z0 F80.00 
G01 X20.0 Y68.6 Z255 F20.00 
G00 X20.0 Y68.8 Z0 F80.00 
G01 X109.6 Y68.8 Z255 F20.00 
G00 X109.6 Y69.0 Z0 F80.00 
G01 X20.0 Y69.0 Z255 F20.00 
G00 X20.0 Y69.2 Z0 F80.00 
G01 X109.6 Y69.2 Z255 F20.00 
G00 X109.6 Y69.4 Z0 F80.00 
G01 X20.0 Y69.4 Z255 F20.00 
G00 X20.0 Y69.6 Z0 F80.00 
G01 X109.6 Y69.6 Z255 F20.00 
G00 X109.6 Y69.8 Z0 F80.00 
G01 X20.0 Y69.8 Z255 F20.00 
G00 X20.0 Y70.0 Z0 F80.00 
G01 X109.6 Y70.0 Z255 F20.00 
G00 X109.6 Y70.2 Z0 F80.00 
G01 X20.0 Y70.2 Z255 F20.00 
G00 X20.0 Y70.4 Z0 F80.00 
G01 X109.6 Y70.4 Z255 F20.00 
G00 X109.6 Y70.6 Z0 F80.00 
G01 X20.0 Y70.6 Z255 F20.00 
G00 X20.0 Y70.8 Z0 F80.00 
G01 X109.6 Y70.8 Z255 F20.00 
G00 X109.6 Y71.0 Z0 F80.00 
G01 X20.0 Y71.0 Z255 F20.00 
G00 X20.0 Y71.2 Z0 F80.00 
G01 X109.6 Y71.2 Z255 F20.00 
G00 X109.6 Y71.4 Z0 F80.00 
G01 X20.0 Y71.4 Z255 F20.00 
G00 X20.0 Y71.6 Z0 F80.00 
G01 X109.6 Y71.6 Z255 F20.00 
G00 X109.6 Y71.8 Z0 F80.00 
G01 X20.0 Y71.8 Z255 F20.00 
G00 X20.0 Y72.0 Z0 F80.00 
G01 X109.6 Y72.0 Z255 F20.00 
G00 X109.6 Y72.2 Z0 F80.00 
G01 X20.0 Y72.2 Z255 F20.00 
G00 X20.0 Y72.4 Z0 F80.00 
G01 X109.6 Y72.4 Z255 F20.00 
G00 X109.6 Y72.6 Z0 F80.00 
G01 X20.0 Y72.6 Z255 F20.00 
G00 X20.0 Y72.8 Z0 F80.00 
G01 X109.6 Y72.8 Z255 F20.00 
G00 X109.6 Y73.0 Z0 F80.00 
G01 X20.0 Y73.0 Z255 F20.00 
G00 X20.0 Y73.2 Z0 F80.00 
G01 X109.6 Y73.2 Z255 F20.00 
G00 X109.6 Y73.4 Z0 F80.00 
G01 X20.0 Y73.4 Z255 F20.00 
G00 X20.0 Y73.6 Z0 F80.00 
G01 X109.6 Y73.6 Z255 F20.00 
G00 X109.6 Y73.8 Z0 F80.00 
G01 X20.0 Y73.8 Z255 F20.00 
G00 X20.0 Y74.0 Z0 F80.00 
G01 X109.6 Y74.0 Z255 F20.00 
G00 X109.6 Y74.2 Z0 F80.00 
G01 X20.0 Y74.2 Z255 F20.00 
G00 X20.0 Y74.4 Z0 F80.00 
G01 X109.6 Y74.4 Z255 F20.00 
G00 X109.6 Y74.6 Z0 F80.00 
G01 X20.0 Y74.6 Z255 F20.00 
G00 X20.0 Y74.8 Z0 F80.00 
G01 X109.6 Y74.8 Z255 F20.00 
G00 X109.6 Y75.0 Z0 F80.00 
G01 X20.0 Y75.0 Z255 F20.00 
G00 X20.0 Y75.2 Z0 F80.00 
G01 X109.6 Y75.2 Z255 F20.00 
G00 X109.6 Y75.4 Z0 F80.00 
G01 X20.0 Y75.4 Z255 F20.00 
G00 X20.0 Y75.6 Z0 F80.00 
G01 X109.6 Y75.6 Z255 F20.00 
G00 X109.6 Y75.8 Z0 F80.00 
G01 X20.0 Y75.8 Z255 F20.00 
G00 X20.0 Y76.0 Z0 F80.00 
G01 X109.6 Y76.0 Z255 F20.00 
G00 X109.6 Y76.2 Z0 F80.00 
G01 X20.0 Y76.2 Z255 F20.00 
G00 X20.0 Y76.4 Z0 F80.00 
G01 X109.6 Y76.4 Z255 F20.00 
G00 X109.6 Y76.6 Z0 F80.00 
G01 X20.0 Y76.6 Z255 F20.00 
G00 X20.0 Y76.8 Z0 F80.00 
G01 X109.6 Y76.8 Z255 F20.00 
G00 X109.6 Y77.0 Z0 F80.00 
G01 X20.0 Y77.0 Z255 F20.00 
G00 X20.0 Y77.2 Z0 F80.00 
G01 X109.6 Y77.2 Z255 F20.00 
G00 X109.6 Y77.4 Z0 F80.00 
G01 X20.0 Y77.4 Z255 F20.00 
G00 X20.0 Y77.6 Z0 F80.00 
G01 X109.6 Y77.6 Z255 F20.00 
G00 X109.6 Y77.8 Z0 F80.00 
G01 X20.0 Y77.8 Z255 F20.00 
G00 X20.0 Y78.0 Z0 F80.00 
G01 X109.6 Y78.0 Z255 F20.00 
G00 X109.6 Y78.2 Z0 F80.00 
G01 X20.0 Y78.2 Z255 F20.00 
G00 X20.0 Y78.4 Z0 F80.00 
G01 X109.6 Y78.4 Z255 F20.00 
G00 X109.6 Y78.6 Z0 F80.00 
G01 X20.0 Y78.6 Z255 F20.00 
G00 X20.0 Y78.8 Z0 F80.00 
G01 X109.6 Y78.8 Z255 F20.00 
G00 X109.6 Y79.0 Z0 F80.00 
G01 X20.0 Y79.0 Z255 F20.00 
G00 X20.0 Y79.2 Z0 F80.00 
G01 X109.6 Y79.2 Z255 F20.00 
G00 X109.6 Y79.4 Z0 F80.00 
G01 X20.0 Y79.4 Z255 F20.00 
G00 X20.0 Y79.6 Z0 F80.00 
G01 X109.6 Y79.6 Z255 F20.00 
G00 X109.6 Y79.8 Z0 F80.00 
G01 X20.0 Y79.8 Z255 F20.00 
G00 X20.0 Y80.0 Z0 F80.00 
G01 X109.6 Y80.0 Z255 F20.00 
G00 X109.6 Y80.2 Z0 F80.00 
G01 X20.0 Y80.2 Z255 F20.00 
G00 X20.0 Y80.4 Z0 F80.00 
G01 X109.6 Y80.4 Z255 F20.00 
G00 X109.6 Y80.6 Z0 F80.00 
G01 X20.0 Y80.6 Z255 F20.00 
G00 X20.0 Y80.8 Z0 F80.00 
G01 X109.6 Y80.8 Z255 F20.00 
G00 X109.6 Y81.0 Z0 F80.00 
G01 X20.0 Y81.0 Z255 F20.00 
G00 X20.0 Y81.2 Z0 F80.00 
G01 X109.6 Y81.2 Z255 F20.00 
G00 X109.6 Y81.4 Z0 F80.00 
G01 X20.0 Y81.4 Z255 F20.00 
G00 X20.0 Y81.6 Z0 F80.00 
G01 X109.6 Y81.6 Z255 F20.00 
G00 X109.6 Y81.8 Z0 F80.00 
G01 X20.0 Y81.8 Z255 F20.00 
G00 X20.0 Y82.0 Z0 F80.00 
G01 X109.6 Y82.0 Z255 F20.00 
G00 X109.6 Y82.2 Z0 F80.00 
G01 X20.0 Y82.2 Z255 F20.00 
G00 X20.0 Y82.4 Z0 F80.00 
G01 X109.6 Y82.4 Z255 F20.00 
G00 X109.6 Y82.6 Z0 F80.00 
G01 X20.0 Y82.6 Z255 F20.00 
G00 X20.0 Y82.8 Z0 F80.00 
G01 X109.6 Y82.8 Z255 F20.00 
G00 X109.6 Y83.0 Z0 F80.00 
G01 X20.0 Y83.0 Z255 F20.00 
G00 X20.0 Y83.2 Z0 F80.00 
G01 X109.6 Y83.2 Z255 F20.00 
G00 X109.6 Y83.4 Z0 F80.00 
G01 X20.0 Y83.4 Z255 F20.00 
G00 X20.0 Y83.6 Z0 F80.00 
G01 X109.6 Y83.6 Z255 F20.00 
G00 X109.6 Y83.8 Z0 F80.00 
G01 X20.0 Y83.8 Z255 F20.00 
G00 X20.0 Y84.0 Z0 F80.00 
G01 X109.6 Y84.0 Z255 F20.00 
G00 X109.6 Y84.2 Z0 F80.00 
G01 X20.0 Y84.2 Z255 F20.00 
G00 X20.0 Y84.4 Z0 F80.00 
G01 X109.6 Y84.4 Z255 F20.00 
G00 X109.6 Y84.6 Z0 F80.00 
G01 X20.0 Y84.6 Z255 F20.00 
G00 X20.0 Y84.8 Z0 F80.00 
G01 X109.6 Y84.8 Z255 F20.00 
G00 X109.6 Y85.0 Z0 F80.00 
G01 X20.0 Y85.0 Z255 F20.00 
G00 X20.0 Y85.2 Z0 F80.00 
G01 X109.6 Y85.2 Z255 F20.00 
G00 X109.6 Y85.4 Z0 F80.00 
G01 X20.0 Y85.4 Z255 F20.00 
G00 X20.0 Y85.6 Z0 F80.00 
G01 X109.6 Y85.6 Z255 F20.00 
G00 X109.6 Y85.8 Z0 F80.00 
G01 X20.0 Y85.8 Z255 F20.00 
G00 X20.0 Y86.0 Z0 F80.00 
G01 X109.6 Y86.0 Z255 F20.00 
G00 X109.6 Y86.2 Z0 F80.00 
G01 X20.0 Y86.2 Z255 F20.00 
G00 X20.0 Y86.4 Z0 F80.00 
G01 X109.6 Y86.4 Z255 F20.00 
G00 X109.6 Y86.6 Z0 F80.00 
G01 X20.0 Y86.6 Z255 F20.00 
G00 X20.0 Y86.8 Z0 F80.00 
G01 X109.6 Y86.8 Z255 F20.00 
G00 X109.6 Y87.0 Z0 F80.00 
G01 X20.0 Y87.0 Z255 F20.00 
G00 X20.0 Y87.2 Z0 F80.00 
G01 X109.6 Y87.2 Z255 F20.00 
G00 X109.6 Y87.4 Z0 F80.00 
G01 X20.0 Y87.4 Z255 F20.00 
G00 X20.0 Y87.6 Z0 F80.00 
G01 X109.6 Y87.6 Z255 F20.00 
G00 X109.6 Y87.8 Z0 F80.00 
G01 X20.0 Y87.8 Z255 F20.00 
G00 X20.0 Y88.0 Z0 F80.00 
G01 X109.6 Y88.0 Z255 F20.00 
G00 X109.6 Y88.2 Z0 F80.00 
G01 X20.0 Y88.2 Z255 F20.00 
G00 X20.0 Y88.4 Z0 F80.00 
G01 X109.6 Y88.4 Z255 F20.00 
G00 X109.6 Y88.6 Z0 F80.00 
G01 X20.0 Y88.6 Z255 F20.00 
G00 X20.0 Y88.8 Z0 F80.00 
G01 X109.6 Y88.8 Z255 F20.00 
G00 X109.6 Y89.0 Z0 F80.00 
G01 X20.0 Y89.0 Z255 F20.00 
G00 X20.0 Y89.2 Z0 F80.00 
G01 X109.6 Y89.2 Z255 F20.00 
G00 X109.6 Y89.4 Z0 F80.00 
G01 X20.0 Y89.4 Z255 F20.00 
G00 X20.0 Y89.6 Z0 F80.00 
G01 X109.6 Y89.6 Z255 F20.00 
G00 X109.6 Y89.8 Z0 F80.00 
G01 X20.0 Y89.8 Z255 F20.00 
G00 X20.0 Y90.0 Z0 F80.00 
G01 X109.6 Y90.0 Z255 F20.00 
G00 X109.6 Y90.2 Z0 F80.00 
G01 X20.0 Y90.2 Z255 F20.00 
G00 X20.0 Y90.4 Z0 F80.00 
G01 X109.6 Y90.4 Z255 F20.00 
G00 X109.6 Y90.6 Z0 F80.00 
G01 X20.0 Y90.6 Z255 F20.00 
G00 X20.0 Y90.8 Z0 F80.00 
G01 X109.6 Y90.8 Z255 F20.00 
G00 X109.6 Y91.0 Z0 F80.00 
G01 X20.0 Y91.0 Z255 F20.00 
G00 X20.0 Y91.2 Z0 F80.00 
G01 X109.6 Y91.2 Z255 F20.00 
G00 X109.6 Y91.4 Z0 F80.00 
G01 X20.0 Y91.4 Z255 F20.00 
G00 X20.0 Y91.6 Z0 F80.00 
G01 X109.6 Y91.6 Z255 F20.00 
G00 X109.6 Y91.8 Z0 F80.00 
G01 X20.0 Y91.8 Z255 F20.00 
G00 X20.0 Y92.0 Z0 F80.00 
G01 X109.6 Y92.0 Z255 F20.00 
G00 X109.6 Y92.2 Z0 F80.00 
G01 X20.0 Y92.2 Z255 F20.00 
G00 X20.0 Y92.4 Z0 F80.00 
G01 X109.6 Y92.4 Z255 F20.00 
G00 X109.6 Y92.6 Z0 F80.00 
G01 X20.0 Y92.6 Z255 F20.00 
G00 X20.0 Y92.8 Z0 F80.00 
G01 X109.6 Y92.8 Z255 F20.00 
G00 X109.6 Y93.0 Z0 F80.00 
G01 X20.0 Y93.0 Z255 F20.00 
G00 X20.0 Y93.2 Z0 F80.00 
G01 X109.6 Y93.2 Z255 F20.00 
G00 X109.6 Y93.4 Z0 F80.00 
G01 X20.0 Y93.4 Z255 F20.00 
G00 X20.0 Y93.6 Z0 F80.00 
G01 X109.6 Y93.6 Z255 F20.00 
G00 X109.6 Y93.8 Z0 F80.00 
G01 X20.0 Y93.8 Z255 F20.00 
G00 X20.0 Y94.0 Z0 F80.00 
G01 X109.6 Y94.0 Z255 F20.00 
G00 X109.6 Y94.2 Z0 F80.00 
G01 X20.0 Y94.2 Z255 F20.00 
G00 X20.0 Y94.4 Z0 F80.00 
G01 X109.6 Y94.4 Z255 F20.00 
G00 X109.6 Y94.6 Z0 F80.00 
G01 X20.0 Y94.6 Z255 F20.00 
G00 X20.0 Y94.8 Z0 F80.00 
G01 X109.6 Y94.8 Z255 F20.00 
G00 X109.6 Y95.0 Z0 F80.00 
G01 X20.0 Y95.0 Z255 F20.00 
G00 X20.0 Y95.2 Z0 F80.00 
G01 X109.6 Y95.2 Z255 F20.00 
G00 X109.6 Y95.4 Z0 F80.00 
G01 X20.0 Y95.4 Z255 F20.00 
G00 X20.0 Y95.6 Z0 F80.00 
G01 X109.6 Y95.6 Z255 F20.00 
G00 X109.6 Y95.8 Z0 F80.00 
G01 X20.0 Y95.8 Z255 F20.00 
G00 X20.0 Y96.0 Z0 F80.00 
G01 X109.6 Y96.0 Z255 F20.00 
G00 X109.6 Y96.2 Z0 F80.00 
G01 X20.0 Y96.2 Z255 F20.00 
G00 X20.0 Y96.4 Z0 F80.00 
G01 X109.6 Y96.4 Z255 F20.00 
G00 X109.6 Y96.6 Z0 F80.00 
G01 X20.0 Y96.6 Z255 F20.00 
G00 X20.0 Y96.8 Z0 F80.00 
G01 X109.6 Y96.8 Z255 F20.00 
G00 X109.6 Y97.0 Z0 F80.00 
G01 X20.0 Y97.0 Z255 F20.00 
G00 X20.0 Y97.2 Z0 F80.00 
G01 X109.6 Y97.2 Z255 F20.00 
G00 X109.6 Y97.4 Z0 F80.00 
G01 X20.0 Y97.4 Z255 F20.00 
G00 X20.0 Y97.6 Z0 F80.00 
G01 X109.6 Y97.6 Z255 F20.00 
G00 X109.6 Y97.8 Z0 F80.00 
G01 X20.0 Y97.8 Z255 F20.00 
G00 X20.0 Y98.0 Z0 F80.00 
G01 X109.6 Y98.0 Z255 F20.00 
G00 X109.6 Y98.2 Z0 F80.00 
G01 X20.0 Y98.2 Z255 F20.00 
G00 X20.0 Y98.4 Z0 F80.00 
G01 X109.6 Y98.4 Z255 F20.00 
G00 X109.6 Y98.6 Z0 F80.00 
G01 X20.0 Y98.6 Z255 F20.00 
G00 X20.0 Y98.8 Z0 F80.00 
G01 X109.6 Y98.8 Z255 F20.00 
G00 X109.6 Y99.0 Z0 F80.00 
G01 X20.0 Y99.0 Z255 F20.00 
G00 X20.0 Y99.2 Z0 F80.00 
G01 X109.6 Y99.2 Z255 F20.00 
G00 X109.6 Y99.4 Z0 F80.00 
G01 X20.0 Y99.4 Z255 F20.00 
G00 X20.0 Y99.6 Z0 F80.00 
G01 X109.6 Y99.6 Z255 F20.00 
G00 X109.6 Y99.8 Z0 F80.00 
G01 X20.0 Y99.8 Z255 F20.00 
G00 X20.0 Y100.0 Z0 F80.00 
G01 X109.6 Y100.0 Z255 F20.00 
G00 X109.6 Y100.2 Z0 F80.00 
G01 X20.0 Y100.2 Z255 F20.00 
G00 X20.0 Y100.4 Z0 F80.00 
G01 X109.6 Y100.4 Z255 F20.00 
G00 X109.6 Y100.6 Z0 F80.00 
G01 X20.0 Y100.6 Z255 F20.00 
G00 X20.0 Y100.8 Z0 F80.00 
G01 X109.6 Y100.8 Z255 F20.00 
G00 X109.6 Y101.0 Z0 F80.00 
G01 X20.0 Y101.0 Z255 F20.00 
G00 X20.0 Y101.2 Z0 F80.00 
G01 X109.6 Y101.2 Z255 F20.00 
G00 X109.6 Y101.4 Z0 F80.00 
G01 X20.0 Y101.4 Z255 F20.00 
G00 X20.0 Y101.6 Z0 F80.00 
G01 X109.6 Y101.6 Z255 F20.00 
G00 X109.6 Y101.8 Z0 F80.00 
G01 X20.0 Y101.8 Z255 F20.00 
G00 X20.0 Y102.0 Z0 F80.00 
G01 X109.6 Y102.0 Z255 F20.00 
G00 X109.6 Y102.2 Z0 F80.00 
G01 X20.0 Y102.2 Z255 F20.00 
G00 X20.0 Y102.4 Z0 F80.00 
G01 X109.6 Y102.4 Z255 F20.00 
G00 X109.6 Y102.6 Z0 F80.00 
G01 X20.0 Y102.6 Z255 F20.00 
G00 X20.0 Y102.8 Z0 F80.00 
G01 X109.6 Y102.8 Z255 F20.00 
G00 X109.6 Y103.0 Z0 F80.00 
G01 X20.0 Y103.0 Z255 F20.00 
G00 X20.0 Y103.2 Z0 F80.00 
G01 X109.6 Y103.2 Z255 F20.00 
G00 X109.6 Y103.4 Z0 F80.00 
G01 X20.0 Y103.4 Z255 F20.00 
G00 X20.0 Y103.6 Z0 F80.00 
G01 X109.6 Y103.6 Z255 F20.00 
G00 X109.6 Y103.8 Z0 F80.00 
G01 X20.0 Y103.8 Z255 F20.00 
G00 X20.0 Y104.0 Z0 F80.00 
G01 X109.6 Y104.0 Z255 F20.00 
G00 X109.6 Y104.2 Z0 F80.00 
G01 X20.0 Y104.2 Z255 F20.00 
G00 X20.0 Y104.4 Z0 F80.00 
G01 X109.6 Y104.4 Z255 F20.00 
G00 X109.6 Y104.6 Z0 F80.00 
G01 X20.0 Y104.6 Z255 F20.00 
G00 X20.0 Y104.8 Z0 F80.00 
G01 X109.6 Y104.8 Z255 F20.00 
G00 X109.6 Y105.0 Z0 F80.00 
G01 X20.0 Y105.0 Z255 F20.00 
G00 X20.0 Y105.2 Z0 F80.00 
G01 X109.6 Y105.2 Z255 F20.00 
G00 X109.6 Y105.4 Z0 F80.00 
G01 X20.0 Y105.4 Z255 F20.00 
G00 X20.0 Y105.6 Z0 F80.00 
G01 X109.6 Y105.6 Z255 F20.00 
G00 X109.6 Y105.8 Z0 F80.00 
G01 X20.0 Y105.8 Z255 F20.00 
G00 X20.0 Y106.0 Z0 F80.00 
G01 X109.6 Y106.0 Z255 F20.00 
G00 X109.6 Y106.2 Z0 F80.00 
G01 X20.0 Y106.2 Z255 F20.00 
G00 X20.0 Y106.4 Z0 F80.00 
G01 X109.6 Y106.4 Z255 F20.00 
G00 X109.6 Y106.6 Z0 F80.00 
G01 X20.0 Y106.6 Z255 F20.00 
G00 X20.0 Y106.8 Z0 F80.00 
G01 X109.6 Y106.8 Z255 F20.00 
G00 X109.6 Y107.0 Z0 F80.00 
G01 X20.0 Y107.0 Z255 F20.00 
G00 X20.0 Y107.2 Z0 F80.00 
G01 X109.6 Y107.2 Z255 F20.00 
G00 X109.6 Y107.4 Z0 F80.00 
G01 X20.0 Y107.4 Z255 F20.00 
G00 X20.0 Y107.6 Z0 F80.00 
G01 X109.6 Y107.6 Z255 F20.00 
G00 X109.6 Y107.8 Z0 F80.00 
G01 X20.0 Y107.8 Z255 F20.00 
G00 X20.0 Y108.0 Z0 F80.00 
G01 X109.6 Y108.0 Z255 F20.00 
G00 X109.6 Y108.2 Z0 F80.00 
G01 X20.0 Y108.2 Z255 F20.00 
G00 X20.0 Y108.4 Z0 F80.00 


G00 X0 Y0 Z0 
M0 