/#############################################################/ 
/###########Gcode generated with PathImg.py V0.4##############/ 
/######written by Nick Sidney Lemberger aka Holysocks#########/ 
/#############################################################/ 

/Logo/ 
/laser_engraver(diode, 445nm)/ 



F50 


G00 X0 Y0 Z0 F50.00
G00 X7.8 Y32.11 Z0 F50.00 

G01 X7.67 Y32.11 Z255 F3.00 
G01 X7.41 Y32.24 Z255 F3.00 
G01 X7.02 Y32.76 Z255 F3.00 
G01 X6.89 Y32.89 Z255 F3.00 
G01 X6.63 Y33.28 Z255 F3.00 
G01 X6.5 Y33.41 Z255 F3.00 
G01 X6.37 Y33.67 Z255 F3.00 
G01 X6.24 Y33.8 Z255 F3.00 
G01 X6.11 Y34.06 Z255 F3.00 
G01 X5.98 Y34.19 Z255 F3.00 
G01 X5.98 Y34.32 Z255 F3.00 
G01 X5.85 Y34.45 Z255 F3.00 
G01 X5.85 Y34.58 Z255 F3.00 
G01 X5.72 Y34.71 Z255 F3.00 
G01 X5.72 Y34.84 Z255 F3.00 
G01 X5.59 Y35.1 Z255 F3.00 
G01 X5.59 Y35.23 Z255 F3.00 
G01 X5.46 Y35.36 Z255 F3.00 
G01 X5.46 Y35.49 Z255 F3.00 
G01 X5.33 Y35.75 Z255 F3.00 
G01 X5.33 Y35.88 Z255 F3.00 
G01 X5.2 Y36.01 Z255 F3.00 
G01 X5.2 Y36.14 Z255 F3.00 
G01 X5.07 Y36.53 Z255 F3.00 
G01 X5.07 Y36.66 Z255 F3.00 
G01 X4.94 Y36.79 Z255 F3.00 
G01 X4.94 Y36.92 Z255 F3.00 
G01 X4.81 Y37.31 Z255 F3.00 
G01 X4.81 Y37.44 Z255 F3.00 
G01 X4.68 Y37.7 Z255 F3.00 
G01 X4.68 Y37.83 Z255 F3.00 
G01 X4.55 Y38.22 Z255 F3.00 
G01 X4.55 Y38.35 Z255 F3.00 
G01 X4.42 Y38.87 Z255 F3.00 
G01 X4.42 Y39.0 Z255 F3.00 
G01 X4.29 Y39.39 Z255 F3.00 
G01 X4.29 Y39.52 Z255 F3.00 
G01 X4.16 Y39.78 Z255 F3.00 
G01 X4.16 Y39.91 Z255 F3.00 
G01 X4.03 Y40.69 Z255 F3.00 
G01 X4.03 Y40.82 Z255 F3.00 
G01 X3.9 Y40.95 Z255 F3.00 
G01 X3.9 Y41.08 Z255 F3.00 
G01 X3.77 Y41.73 Z255 F3.00 
G01 X3.77 Y41.86 Z255 F3.00 
G01 X3.64 Y42.77 Z255 F3.00 
G01 X3.64 Y42.9 Z255 F3.00 
G01 X3.77 Y44.33 Z255 F3.00 
G01 X3.77 Y44.46 Z255 F3.00 
G01 X3.9 Y44.72 Z255 F3.00 
G01 X3.9 Y44.85 Z255 F3.00 
G01 X4.03 Y44.98 Z255 F3.00 
G01 X4.42 Y45.24 Z255 F3.00 
G01 X4.55 Y45.37 Z255 F3.00 
G01 X4.68 Y45.37 Z255 F3.00 
G01 X4.94 Y45.24 Z255 F3.00 
G01 X5.07 Y45.24 Z255 F3.00 
G01 X5.2 Y45.11 Z255 F3.00 
G01 X5.33 Y45.11 Z255 F3.00 
G01 X5.46 Y44.98 Z255 F3.00 
G01 X6.5 Y43.81 Z255 F3.00 
G01 X6.63 Y43.68 Z255 F3.00 
G01 X6.63 Y43.55 Z255 F3.00 
G01 X6.76 Y43.42 Z255 F3.00 
G01 X6.76 Y43.29 Z255 F3.00 
G01 X6.89 Y43.16 Z255 F3.00 
G01 X6.89 Y43.03 Z255 F3.00 
G01 X7.02 Y42.9 Z255 F3.00 
G01 X7.15 Y42.64 Z255 F3.00 
G01 X7.28 Y42.51 Z255 F3.00 
G01 X7.41 Y42.25 Z255 F3.00 
G01 X7.54 Y41.99 Z255 F3.00 
G01 X7.67 Y41.73 Z255 F3.00 
G01 X7.8 Y41.6 Z255 F3.00 
G01 X7.8 Y41.47 Z255 F3.00 
G01 X7.93 Y41.21 Z255 F3.00 
G01 X7.93 Y41.08 Z255 F3.00 
G01 X8.06 Y40.82 Z255 F3.00 
G01 X8.06 Y40.69 Z255 F3.00 
G01 X8.19 Y40.56 Z255 F3.00 
G01 X8.32 Y40.3 Z255 F3.00 
G01 X8.45 Y40.04 Z255 F3.00 
G01 X8.45 Y39.91 Z255 F3.00 
G01 X8.58 Y39.65 Z255 F3.00 
G01 X8.71 Y39.39 Z255 F3.00 
G01 X8.84 Y39.26 Z255 F3.00 
G01 X8.84 Y39.13 Z255 F3.00 
G01 X8.97 Y39.0 Z255 F3.00 
G01 X8.97 Y38.87 Z255 F3.00 
G01 X9.1 Y38.48 Z255 F3.00 
G01 X9.1 Y38.35 Z255 F3.00 
G01 X9.23 Y38.09 Z255 F3.00 
G01 X9.23 Y37.96 Z255 F3.00 
G01 X9.36 Y37.83 Z255 F3.00 
G01 X9.36 Y37.7 Z255 F3.00 
G01 X9.49 Y37.44 Z255 F3.00 
G01 X9.62 Y37.57 Z255 F3.00 
G01 X9.62 Y37.7 Z255 F3.00 
G01 X9.49 Y38.48 Z255 F3.00 
G01 X9.49 Y38.61 Z255 F3.00 
G01 X9.62 Y39.26 Z255 F3.00 
G01 X9.49 Y39.39 Z255 F3.00 
G01 X9.49 Y39.52 Z255 F3.00 
G01 X9.62 Y39.78 Z255 F3.00 
G01 X9.62 Y39.91 Z255 F3.00 
G01 X9.75 Y40.17 Z255 F3.00 
G01 X9.75 Y40.3 Z255 F3.00 
G01 X9.88 Y40.56 Z255 F3.00 
G01 X10.14 Y40.69 Z255 F3.00 
G01 X10.27 Y40.82 Z255 F3.00 
G01 X10.53 Y40.95 Z255 F3.00 
G01 X10.79 Y40.82 Z255 F3.00 
G01 X10.92 Y40.95 Z255 F3.00 
G01 X11.05 Y40.82 Z255 F3.00 
G01 X11.18 Y40.82 Z255 F3.00 
G01 X11.31 Y40.69 Z255 F3.00 
G01 X11.44 Y40.69 Z255 F3.00 
G01 X11.57 Y40.56 Z255 F3.00 
G01 X11.7 Y40.56 Z255 F3.00 
G01 X11.83 Y40.43 Z255 F3.00 
G01 X12.48 Y39.65 Z255 F3.00 
G01 X12.61 Y39.39 Z255 F3.00 
G01 X12.87 Y39.0 Z255 F3.00 
G01 X13.0 Y38.87 Z255 F3.00 
G01 X13.0 Y38.74 Z255 F3.00 
G01 X13.13 Y38.61 Z255 F3.00 
G01 X13.26 Y38.35 Z255 F3.00 
G01 X13.39 Y38.22 Z255 F3.00 
G01 X13.39 Y38.09 Z255 F3.00 
G01 X13.52 Y37.96 Z255 F3.00 
G01 X13.65 Y37.7 Z255 F3.00 
G01 X13.78 Y37.57 Z255 F3.00 
G01 X13.91 Y37.7 Z255 F3.00 
G01 X14.04 Y37.96 Z255 F3.00 
G01 X14.17 Y38.09 Z255 F3.00 
G01 X14.17 Y38.22 Z255 F3.00 
G01 X14.3 Y38.35 Z255 F3.00 
G01 X14.43 Y38.35 Z255 F3.00 
G01 X14.95 Y38.22 Z255 F3.00 
G01 X15.08 Y38.22 Z255 F3.00 
G01 X15.21 Y38.09 Z255 F3.00 
G01 X15.34 Y38.09 Z255 F3.00 
G01 X15.47 Y37.96 Z255 F3.00 
G01 X15.6 Y37.96 Z255 F3.00 
G01 X15.73 Y37.83 Z255 F3.00 
G01 X16.25 Y37.18 Z255 F3.00 
G01 X16.38 Y37.05 Z255 F3.00 
G01 X16.64 Y36.66 Z255 F3.00 
G01 X16.77 Y36.53 Z255 F3.00 
G01 X16.9 Y36.27 Z255 F3.00 
G01 X17.03 Y36.14 Z255 F3.00 
G01 X17.42 Y35.62 Z255 F3.00 
G01 X17.55 Y35.36 Z255 F3.00 
G01 X17.81 Y34.97 Z255 F3.00 
G01 X17.94 Y34.84 Z255 F3.00 
G01 X18.07 Y34.84 Z255 F3.00 
G01 X18.07 Y34.84 Z255 F3.00 
G00 X18.2 Y34.45 Z0 F50.00 

G01 X18.2 Y34.32 Z255 F3.00 
G01 X18.33 Y34.19 Z255 F3.00 
G01 X18.46 Y33.93 Z255 F3.00 
G01 X18.59 Y33.67 Z255 F3.00 
G01 X18.72 Y33.8 Z255 F3.00 
G01 X18.72 Y33.93 Z255 F3.00 
G01 X18.59 Y34.71 Z255 F3.00 
G01 X18.72 Y34.84 Z255 F3.00 
G01 X18.59 Y34.97 Z255 F3.00 
G01 X18.59 Y35.1 Z255 F3.00 
G01 X18.72 Y35.49 Z255 F3.00 
G01 X18.72 Y35.62 Z255 F3.00 
G01 X18.85 Y36.01 Z255 F3.00 
G01 X18.85 Y36.14 Z255 F3.00 
G01 X18.98 Y36.27 Z255 F3.00 
G01 X19.11 Y36.53 Z255 F3.00 
G01 X19.24 Y36.66 Z255 F3.00 
G01 X19.37 Y36.66 Z255 F3.00 
G01 X19.5 Y36.79 Z255 F3.00 
G01 X19.63 Y36.66 Z255 F3.00 
G01 X19.76 Y36.79 Z255 F3.00 
G01 X19.89 Y36.79 Z255 F3.00 
G01 X20.02 Y36.92 Z255 F3.00 
G01 X20.15 Y36.92 Z255 F3.00 
G01 X21.06 Y36.79 Z255 F3.00 
G01 X21.19 Y36.79 Z255 F3.00 
G01 X21.58 Y36.66 Z255 F3.00 
G01 X21.71 Y36.66 Z255 F3.00 
G01 X21.84 Y36.53 Z255 F3.00 
G01 X21.84 Y36.27 Z255 F3.00 
G01 X21.97 Y36.14 Z255 F3.00 
G01 X22.1 Y36.14 Z255 F3.00 
G01 X22.23 Y36.27 Z255 F3.00 
G01 X22.36 Y36.14 Z255 F3.00 
G01 X22.23 Y36.14 Z255 F3.00 
G01 X22.23 Y36.14 Z255 F3.00 
G00 X21.58 Y36.27 Z0 F50.00 

G01 X21.45 Y36.4 Z255 F3.00 
G01 X21.32 Y36.4 Z255 F3.00 
G01 X20.67 Y36.27 Z255 F3.00 
G01 X20.54 Y36.27 Z255 F3.00 
G01 X20.41 Y36.14 Z255 F3.00 
G01 X20.28 Y36.14 Z255 F3.00 
G01 X20.15 Y36.01 Z255 F3.00 
G01 X20.02 Y36.01 Z255 F3.00 
G01 X19.89 Y35.88 Z255 F3.00 
G01 X19.89 Y35.75 Z255 F3.00 
G01 X19.76 Y35.62 Z255 F3.00 
G01 X19.63 Y35.36 Z255 F3.00 
G01 X19.5 Y34.84 Z255 F3.00 
G01 X19.5 Y34.71 Z255 F3.00 
G01 X19.63 Y33.93 Z255 F3.00 
G01 X19.63 Y33.8 Z255 F3.00 
G01 X19.76 Y33.15 Z255 F3.00 
G01 X19.63 Y33.02 Z255 F3.00 
G01 X19.76 Y32.89 Z255 F3.00 
G01 X19.76 Y32.76 Z255 F3.00 
G01 X19.89 Y32.5 Z255 F3.00 
G01 X19.89 Y32.37 Z255 F3.00 
G01 X20.02 Y31.98 Z255 F3.00 
G01 X20.02 Y31.85 Z255 F3.00 
G01 X19.89 Y31.46 Z255 F3.00 
G01 X19.89 Y31.33 Z255 F3.00 
G01 X19.76 Y31.2 Z255 F3.00 
G01 X19.63 Y31.33 Z255 F3.00 
G01 X19.37 Y31.72 Z255 F3.00 
G01 X19.24 Y31.85 Z255 F3.00 
G01 X19.11 Y32.11 Z255 F3.00 
G01 X18.98 Y32.24 Z255 F3.00 
G01 X18.85 Y32.5 Z255 F3.00 
G01 X18.72 Y32.63 Z255 F3.00 
G01 X18.72 Y32.76 Z255 F3.00 
G01 X18.59 Y33.02 Z255 F3.00 
G01 X18.46 Y33.28 Z255 F3.00 
G01 X18.33 Y33.41 Z255 F3.00 
G01 X18.33 Y33.54 Z255 F3.00 
G01 X18.2 Y33.67 Z255 F3.00 
G01 X18.07 Y33.93 Z255 F3.00 
G01 X17.94 Y34.19 Z255 F3.00 
G01 X17.81 Y34.45 Z255 F3.00 
G01 X17.68 Y34.58 Z255 F3.00 
G01 X17.68 Y34.71 Z255 F3.00 
G01 X17.55 Y34.84 Z255 F3.00 
G01 X17.55 Y34.97 Z255 F3.00 
G01 X17.42 Y35.1 Z255 F3.00 
G01 X17.03 Y35.62 Z255 F3.00 
G01 X16.9 Y35.75 Z255 F3.00 
G01 X16.51 Y36.27 Z255 F3.00 
G01 X16.38 Y36.4 Z255 F3.00 
G01 X15.73 Y37.18 Z255 F3.00 
G01 X15.6 Y37.31 Z255 F3.00 
G01 X15.47 Y37.31 Z255 F3.00 
G01 X15.34 Y37.44 Z255 F3.00 
G01 X15.21 Y37.44 Z255 F3.00 
G01 X14.82 Y37.31 Z255 F3.00 
G01 X14.82 Y37.18 Z255 F3.00 
G01 X14.95 Y35.88 Z255 F3.00 
G01 X14.95 Y35.75 Z255 F3.00 
G01 X15.08 Y35.36 Z255 F3.00 
G01 X15.08 Y35.23 Z255 F3.00 
G01 X15.21 Y34.71 Z255 F3.00 
G01 X15.21 Y34.58 Z255 F3.00 
G01 X15.34 Y34.45 Z255 F3.00 
G01 X15.34 Y34.32 Z255 F3.00 
G01 X15.47 Y33.8 Z255 F3.00 
G01 X15.47 Y33.67 Z255 F3.00 
G01 X15.34 Y33.28 Z255 F3.00 
G01 X15.21 Y33.28 Z255 F3.00 
G01 X14.95 Y33.41 Z255 F3.00 
G01 X14.82 Y33.67 Z255 F3.00 
G01 X14.69 Y33.8 Z255 F3.00 
G01 X14.69 Y33.93 Z255 F3.00 
G01 X14.56 Y34.06 Z255 F3.00 
G01 X14.56 Y34.19 Z255 F3.00 
G01 X14.43 Y34.45 Z255 F3.00 
G01 X14.43 Y34.58 Z255 F3.00 
G01 X14.3 Y34.84 Z255 F3.00 
G01 X14.3 Y34.97 Z255 F3.00 
G01 X14.17 Y35.23 Z255 F3.00 
G01 X14.17 Y35.36 Z255 F3.00 
G01 X14.04 Y35.62 Z255 F3.00 
G01 X14.04 Y35.75 Z255 F3.00 
G01 X13.91 Y36.01 Z255 F3.00 
G01 X13.91 Y36.14 Z255 F3.00 
G01 X13.78 Y36.53 Z255 F3.00 
G01 X13.78 Y36.66 Z255 F3.00 
G01 X13.65 Y36.79 Z255 F3.00 
G01 X13.65 Y36.92 Z255 F3.00 
G01 X13.52 Y37.05 Z255 F3.00 
G01 X13.52 Y37.18 Z255 F3.00 
G01 X13.39 Y37.44 Z255 F3.00 
G01 X13.39 Y37.57 Z255 F3.00 
G01 X13.26 Y37.7 Z255 F3.00 
G01 X13.13 Y37.96 Z255 F3.00 
G01 X13.0 Y38.09 Z255 F3.00 
G01 X13.0 Y38.22 Z255 F3.00 
G01 X12.87 Y38.35 Z255 F3.00 
G01 X12.74 Y38.61 Z255 F3.00 
G01 X12.61 Y38.74 Z255 F3.00 
G01 X12.35 Y39.13 Z255 F3.00 
G01 X12.22 Y39.26 Z255 F3.00 
G01 X11.96 Y39.65 Z255 F3.00 
G01 X11.83 Y39.78 Z255 F3.00 
G01 X11.57 Y39.91 Z255 F3.00 
G01 X11.44 Y40.04 Z255 F3.00 
G01 X11.18 Y40.17 Z255 F3.00 
G01 X10.79 Y40.04 Z255 F3.00 
G01 X10.66 Y39.78 Z255 F3.00 
G01 X10.53 Y39.65 Z255 F3.00 
G01 X10.53 Y39.52 Z255 F3.00 
G01 X10.4 Y39.0 Z255 F3.00 
G01 X10.4 Y38.87 Z255 F3.00 
G01 X10.53 Y38.74 Z255 F3.00 
G01 X10.53 Y38.61 Z255 F3.00 
G01 X10.4 Y38.35 Z255 F3.00 
G01 X10.4 Y38.22 Z255 F3.00 
G01 X10.53 Y37.96 Z255 F3.00 
G01 X10.53 Y37.83 Z255 F3.00 
G01 X10.66 Y36.79 Z255 F3.00 
G01 X10.66 Y36.66 Z255 F3.00 
G01 X10.79 Y36.01 Z255 F3.00 
G01 X10.79 Y35.88 Z255 F3.00 
G01 X10.92 Y35.36 Z255 F3.00 
G01 X10.92 Y35.23 Z255 F3.00 
G01 X11.05 Y34.58 Z255 F3.00 
G01 X11.05 Y34.45 Z255 F3.00 
G01 X11.18 Y34.32 Z255 F3.00 
G01 X11.18 Y34.19 Z255 F3.00 
G01 X11.31 Y33.93 Z255 F3.00 
G01 X11.31 Y33.8 Z255 F3.00 
G01 X11.44 Y33.67 Z255 F3.00 
G01 X11.44 Y33.54 Z255 F3.00 
G01 X11.57 Y32.89 Z255 F3.00 
G01 X11.57 Y32.76 Z255 F3.00 
G01 X11.44 Y32.11 Z255 F3.00 
G01 X11.31 Y32.11 Z255 F3.00 
G01 X11.18 Y32.24 Z255 F3.00 
G01 X10.92 Y32.63 Z255 F3.00 
G01 X10.79 Y32.76 Z255 F3.00 
G01 X10.79 Y32.89 Z255 F3.00 
G01 X10.66 Y33.02 Z255 F3.00 
G01 X10.66 Y33.15 Z255 F3.00 
G01 X10.53 Y33.28 Z255 F3.00 
G01 X10.53 Y33.41 Z255 F3.00 
G01 X10.4 Y33.67 Z255 F3.00 
G01 X10.4 Y33.8 Z255 F3.00 
G01 X10.27 Y34.06 Z255 F3.00 
G01 X10.27 Y34.19 Z255 F3.00 
G01 X10.14 Y34.32 Z255 F3.00 
G01 X10.14 Y34.45 Z255 F3.00 
G01 X10.01 Y34.84 Z255 F3.00 
G01 X9.88 Y35.1 Z255 F3.00 
G01 X9.75 Y35.36 Z255 F3.00 
G01 X9.75 Y35.49 Z255 F3.00 
G01 X9.62 Y35.75 Z255 F3.00 
G01 X9.62 Y35.88 Z255 F3.00 
G01 X9.49 Y36.14 Z255 F3.00 
G01 X9.49 Y36.27 Z255 F3.00 
G01 X9.36 Y36.53 Z255 F3.00 
G01 X9.36 Y36.66 Z255 F3.00 
G01 X9.23 Y36.92 Z255 F3.00 
G01 X9.23 Y37.05 Z255 F3.00 
G01 X9.1 Y37.18 Z255 F3.00 
G01 X9.1 Y37.31 Z255 F3.00 
G01 X8.97 Y37.44 Z255 F3.00 
G01 X8.97 Y37.57 Z255 F3.00 
G01 X8.84 Y37.83 Z255 F3.00 
G01 X8.84 Y37.96 Z255 F3.00 
G01 X8.71 Y38.22 Z255 F3.00 
G01 X8.71 Y38.35 Z255 F3.00 
G01 X8.58 Y38.48 Z255 F3.00 
G01 X8.45 Y38.35 Z255 F3.00 
G01 X8.45 Y38.22 Z255 F3.00 
G01 X8.58 Y37.7 Z255 F3.00 
G01 X8.58 Y37.57 Z255 F3.00 
G01 X8.71 Y36.66 Z255 F3.00 
G01 X8.71 Y36.53 Z255 F3.00 
G01 X8.84 Y35.36 Z255 F3.00 
G01 X8.84 Y35.23 Z255 F3.00 
G01 X8.71 Y33.41 Z255 F3.00 
G01 X8.71 Y33.28 Z255 F3.00 
G01 X8.58 Y32.24 Z255 F3.00 
G01 X8.19 Y31.98 Z255 F3.00 
G01 X8.06 Y31.98 Z255 F3.00 
G00 X7.8 Y33.15 Z0 F50.00 

G01 X7.8 Y33.28 Z255 F3.00 
G01 X7.93 Y33.54 Z255 F3.00 
G01 X7.93 Y33.67 Z255 F3.00 
G01 X8.06 Y34.32 Z255 F3.00 
G01 X8.06 Y34.45 Z255 F3.00 
G01 X7.93 Y34.84 Z255 F3.00 
G01 X8.06 Y34.97 Z255 F3.00 
G01 X8.06 Y35.1 Z255 F3.00 
G01 X7.93 Y35.23 Z255 F3.00 
G01 X7.93 Y35.36 Z255 F3.00 
G01 X7.8 Y37.31 Z255 F3.00 
G01 X7.93 Y37.44 Z255 F3.00 
G01 X7.8 Y37.57 Z255 F3.00 
G01 X7.8 Y37.7 Z255 F3.00 
G01 X7.67 Y38.22 Z255 F3.00 
G01 X7.67 Y38.35 Z255 F3.00 
G01 X7.8 Y39.39 Z255 F3.00 
G01 X7.93 Y39.39 Z255 F3.00 
G01 X8.32 Y39.52 Z255 F3.00 
G01 X8.32 Y39.65 Z255 F3.00 
G01 X8.19 Y39.78 Z255 F3.00 
G01 X8.06 Y40.04 Z255 F3.00 
G01 X7.93 Y40.17 Z255 F3.00 
G01 X7.93 Y40.3 Z255 F3.00 
G01 X7.8 Y40.43 Z255 F3.00 
G01 X7.8 Y40.56 Z255 F3.00 
G01 X7.67 Y40.69 Z255 F3.00 
G01 X7.67 Y40.82 Z255 F3.00 
G01 X7.54 Y40.95 Z255 F3.00 
G01 X7.54 Y41.08 Z255 F3.00 
G01 X7.41 Y41.21 Z255 F3.00 
G01 X7.41 Y41.34 Z255 F3.00 
G01 X7.28 Y41.6 Z255 F3.00 
G01 X7.28 Y41.73 Z255 F3.00 
G01 X7.15 Y41.86 Z255 F3.00 
G01 X7.02 Y42.12 Z255 F3.00 
G01 X6.89 Y42.25 Z255 F3.00 
G01 X6.89 Y42.38 Z255 F3.00 
G01 X6.76 Y42.51 Z255 F3.00 
G01 X6.63 Y42.77 Z255 F3.00 
G01 X6.5 Y42.9 Z255 F3.00 
G01 X6.5 Y43.03 Z255 F3.00 
G01 X6.37 Y43.16 Z255 F3.00 
G01 X6.24 Y43.42 Z255 F3.00 
G01 X6.11 Y43.55 Z255 F3.00 
G01 X5.98 Y43.81 Z255 F3.00 
G01 X5.85 Y43.94 Z255 F3.00 
G01 X5.33 Y44.33 Z255 F3.00 
G01 X4.81 Y44.2 Z255 F3.00 
G01 X4.68 Y43.94 Z255 F3.00 
G01 X4.55 Y43.81 Z255 F3.00 
G01 X4.55 Y43.68 Z255 F3.00 
G01 X4.42 Y43.42 Z255 F3.00 
G01 X4.42 Y43.29 Z255 F3.00 
G01 X4.55 Y42.77 Z255 F3.00 
G01 X4.55 Y42.64 Z255 F3.00 
G01 X4.68 Y41.47 Z255 F3.00 
G01 X4.68 Y41.34 Z255 F3.00 
G01 X4.81 Y40.82 Z255 F3.00 
G01 X4.81 Y40.69 Z255 F3.00 
G01 X4.94 Y40.43 Z255 F3.00 
G01 X4.94 Y40.3 Z255 F3.00 
G01 X5.07 Y39.65 Z255 F3.00 
G01 X5.07 Y39.52 Z255 F3.00 
G01 X5.2 Y39.13 Z255 F3.00 
G01 X5.2 Y39.0 Z255 F3.00 
G01 X5.33 Y38.61 Z255 F3.00 
G01 X5.33 Y38.48 Z255 F3.00 
G01 X5.46 Y38.09 Z255 F3.00 
G01 X5.46 Y37.96 Z255 F3.00 
G01 X5.59 Y37.57 Z255 F3.00 
G01 X5.59 Y37.44 Z255 F3.00 
G01 X5.72 Y37.18 Z255 F3.00 
G01 X5.72 Y37.05 Z255 F3.00 
G01 X5.85 Y36.79 Z255 F3.00 
G01 X5.85 Y36.66 Z255 F3.00 
G01 X5.98 Y36.27 Z255 F3.00 
G01 X5.98 Y36.14 Z255 F3.00 
G01 X6.11 Y36.01 Z255 F3.00 
G01 X6.11 Y35.88 Z255 F3.00 
G01 X6.24 Y35.49 Z255 F3.00 
G01 X6.24 Y35.36 Z255 F3.00 
G01 X6.37 Y35.1 Z255 F3.00 
G01 X6.37 Y34.97 Z255 F3.00 
G01 X6.5 Y34.84 Z255 F3.00 
G01 X6.5 Y34.71 Z255 F3.00 
G01 X6.63 Y34.45 Z255 F3.00 
G01 X6.63 Y34.32 Z255 F3.00 
G01 X6.76 Y34.19 Z255 F3.00 
G01 X6.76 Y34.06 Z255 F3.00 
G01 X6.89 Y33.93 Z255 F3.00 
G01 X6.89 Y33.8 Z255 F3.00 
G01 X7.02 Y33.67 Z255 F3.00 
G01 X7.02 Y33.54 Z255 F3.00 
G01 X7.15 Y33.41 Z255 F3.00 
G01 X7.28 Y33.15 Z255 F3.00 
G01 X7.41 Y33.02 Z255 F3.00 
G01 X7.54 Y33.02 Z255 F3.00 
G01 X7.54 Y33.02 Z255 F3.00 
G00 X23.79 Y44.59 Z0 F50.00 

G01 X23.79 Y44.72 Z255 F3.00 
G01 X23.66 Y45.24 Z255 F3.00 
G01 X23.66 Y45.37 Z255 F3.00 
G01 X23.79 Y45.63 Z255 F3.00 
G01 X23.79 Y45.76 Z255 F3.00 
G01 X23.66 Y46.02 Z255 F3.00 
G01 X23.66 Y46.15 Z255 F3.00 
G01 X23.79 Y46.28 Z255 F3.00 
G01 X23.79 Y46.41 Z255 F3.00 
G01 X23.66 Y46.93 Z255 F3.00 
G01 X23.79 Y47.06 Z255 F3.00 
G01 X23.79 Y47.19 Z255 F3.00 
G01 X23.92 Y47.58 Z255 F3.00 
G01 X23.92 Y47.71 Z255 F3.00 
G01 X24.05 Y48.62 Z255 F3.00 
G01 X24.05 Y48.75 Z255 F3.00 
G01 X24.18 Y48.88 Z255 F3.00 
G01 X24.18 Y49.01 Z255 F3.00 
G01 X24.31 Y49.53 Z255 F3.00 
G01 X24.31 Y49.66 Z255 F3.00 
G01 X24.44 Y49.92 Z255 F3.00 
G01 X24.57 Y50.18 Z255 F3.00 
G01 X24.7 Y50.31 Z255 F3.00 
G01 X24.83 Y50.57 Z255 F3.00 
G01 X24.96 Y50.7 Z255 F3.00 
G01 X25.22 Y50.83 Z255 F3.00 
G01 X25.61 Y50.7 Z255 F3.00 
G01 X25.74 Y50.7 Z255 F3.00 
G01 X25.87 Y50.57 Z255 F3.00 
G01 X26.0 Y50.57 Z255 F3.00 
G01 X26.0 Y50.57 Z255 F3.00 
G00 X26.0 Y50.18 Z0 F50.00 

G01 X25.87 Y49.79 Z255 F3.00 
G01 X25.74 Y49.92 Z255 F3.00 
G01 X25.74 Y50.05 Z255 F3.00 
G01 X25.61 Y50.18 Z255 F3.00 
G01 X25.48 Y50.18 Z255 F3.00 
G01 X25.35 Y50.05 Z255 F3.00 
G01 X25.22 Y49.79 Z255 F3.00 
G01 X25.09 Y49.66 Z255 F3.00 
G01 X24.96 Y49.4 Z255 F3.00 
G01 X24.83 Y49.14 Z255 F3.00 
G01 X24.83 Y49.01 Z255 F3.00 
G01 X24.7 Y48.75 Z255 F3.00 
G01 X24.7 Y48.62 Z255 F3.00 
G01 X24.57 Y48.36 Z255 F3.00 
G01 X24.57 Y48.23 Z255 F3.00 
G01 X24.44 Y47.58 Z255 F3.00 
G01 X24.44 Y47.45 Z255 F3.00 
G01 X24.31 Y46.67 Z255 F3.00 
G01 X24.44 Y46.54 Z255 F3.00 
G01 X24.44 Y46.41 Z255 F3.00 
G01 X24.31 Y45.63 Z255 F3.00 
G01 X24.31 Y45.5 Z255 F3.00 
G01 X24.44 Y44.59 Z255 F3.00 
G01 X24.44 Y44.46 Z255 F3.00 
G01 X24.31 Y43.68 Z255 F3.00 
G01 X24.44 Y43.55 Z255 F3.00 
G01 X24.44 Y43.42 Z255 F3.00 
G01 X24.57 Y41.99 Z255 F3.00 
G01 X24.44 Y41.86 Z255 F3.00 
G01 X24.57 Y41.73 Z255 F3.00 
G01 X24.57 Y41.6 Z255 F3.00 
G01 X24.44 Y41.47 Z255 F3.00 
G01 X24.57 Y41.34 Z255 F3.00 
G01 X24.57 Y41.21 Z255 F3.00 
G01 X24.7 Y40.3 Z255 F3.00 
G01 X24.7 Y40.17 Z255 F3.00 
G01 X24.83 Y38.61 Z255 F3.00 
G01 X24.83 Y38.48 Z255 F3.00 
G01 X24.96 Y37.57 Z255 F3.00 
G01 X24.96 Y37.44 Z255 F3.00 
G01 X25.09 Y36.53 Z255 F3.00 
G01 X25.09 Y36.4 Z255 F3.00 
G01 X25.22 Y35.62 Z255 F3.00 
G01 X25.22 Y35.49 Z255 F3.00 
G01 X25.35 Y35.1 Z255 F3.00 
G01 X25.35 Y34.97 Z255 F3.00 
G01 X25.48 Y34.32 Z255 F3.00 
G01 X25.48 Y34.19 Z255 F3.00 
G01 X25.61 Y33.54 Z255 F3.00 
G01 X25.61 Y33.41 Z255 F3.00 
G01 X25.74 Y33.02 Z255 F3.00 
G01 X25.74 Y32.89 Z255 F3.00 
G01 X25.87 Y32.24 Z255 F3.00 
G01 X25.87 Y32.11 Z255 F3.00 
G01 X26.0 Y31.59 Z255 F3.00 
G01 X26.0 Y31.46 Z255 F3.00 
G01 X26.13 Y31.2 Z255 F3.00 
G01 X26.13 Y31.07 Z255 F3.00 
G01 X26.26 Y30.94 Z255 F3.00 
G01 X26.39 Y30.94 Z255 F3.00 
G01 X26.52 Y30.81 Z255 F3.00 
G01 X26.65 Y30.81 Z255 F3.00 
G01 X26.78 Y30.68 Z255 F3.00 
G01 X27.04 Y30.55 Z255 F3.00 
G01 X27.17 Y30.42 Z255 F3.00 
G01 X27.3 Y30.42 Z255 F3.00 
G01 X27.43 Y30.29 Z255 F3.00 
G01 X27.56 Y29.9 Z255 F3.00 
G01 X27.69 Y29.77 Z255 F3.00 
G01 X27.82 Y29.77 Z255 F3.00 
G01 X27.95 Y29.64 Z255 F3.00 
G01 X28.08 Y29.64 Z255 F3.00 
G01 X27.95 Y29.77 Z255 F3.00 
G01 X27.95 Y29.77 Z255 F3.00 
G00 X27.3 Y29.9 Z0 F50.00 

G01 X27.17 Y30.03 Z255 F3.00 
G01 X27.04 Y30.03 Z255 F3.00 
G01 X26.91 Y30.16 Z255 F3.00 
G01 X26.78 Y30.16 Z255 F3.00 
G01 X26.65 Y30.29 Z255 F3.00 
G01 X26.52 Y30.29 Z255 F3.00 
G01 X26.39 Y30.16 Z255 F3.00 
G01 X26.39 Y29.9 Z255 F3.00 
G01 X26.39 Y29.77 Z255 F3.00 
G01 X26.52 Y29.38 Z255 F3.00 
G01 X26.52 Y29.25 Z255 F3.00 
G01 X26.65 Y28.86 Z255 F3.00 
G01 X26.65 Y28.73 Z255 F3.00 
G01 X26.78 Y28.6 Z255 F3.00 
G01 X26.78 Y28.47 Z255 F3.00 
G01 X26.91 Y27.95 Z255 F3.00 
G01 X26.91 Y27.82 Z255 F3.00 
G01 X27.04 Y27.43 Z255 F3.00 
G01 X27.04 Y27.3 Z255 F3.00 
G01 X27.17 Y27.04 Z255 F3.00 
G01 X27.17 Y26.91 Z255 F3.00 
G01 X27.3 Y26.52 Z255 F3.00 
G01 X27.3 Y26.39 Z255 F3.00 
G01 X27.43 Y26.26 Z255 F3.00 
G01 X27.43 Y26.13 Z255 F3.00 
G01 X27.56 Y25.74 Z255 F3.00 
G01 X27.56 Y25.61 Z255 F3.00 
G01 X27.69 Y25.35 Z255 F3.00 
G01 X27.69 Y25.22 Z255 F3.00 
G01 X27.82 Y24.96 Z255 F3.00 
G01 X27.82 Y24.83 Z255 F3.00 
G01 X27.95 Y24.57 Z255 F3.00 
G01 X27.95 Y24.44 Z255 F3.00 
G01 X28.08 Y24.18 Z255 F3.00 
G01 X28.08 Y24.05 Z255 F3.00 
G01 X28.21 Y23.79 Z255 F3.00 
G01 X28.21 Y23.66 Z255 F3.00 
G01 X28.34 Y23.53 Z255 F3.00 
G01 X28.34 Y23.4 Z255 F3.00 
G01 X28.47 Y22.88 Z255 F3.00 
G01 X28.6 Y22.62 Z255 F3.00 
G01 X28.73 Y22.36 Z255 F3.00 
G01 X28.73 Y22.23 Z255 F3.00 
G01 X28.86 Y21.97 Z255 F3.00 
G01 X28.86 Y21.84 Z255 F3.00 
G01 X28.99 Y21.71 Z255 F3.00 
G01 X28.99 Y21.58 Z255 F3.00 
G01 X29.12 Y21.19 Z255 F3.00 
G01 X29.12 Y21.06 Z255 F3.00 
G01 X29.25 Y20.93 Z255 F3.00 
G01 X29.25 Y20.8 Z255 F3.00 
G01 X29.38 Y20.67 Z255 F3.00 
G01 X29.38 Y20.54 Z255 F3.00 
G01 X29.51 Y20.41 Z255 F3.00 
G01 X29.51 Y20.28 Z255 F3.00 
G01 X29.64 Y20.15 Z255 F3.00 
G01 X29.64 Y20.02 Z255 F3.00 
G01 X29.77 Y19.76 Z255 F3.00 
G01 X29.77 Y19.63 Z255 F3.00 
G01 X29.9 Y19.37 Z255 F3.00 
G01 X30.03 Y19.11 Z255 F3.00 
G01 X30.16 Y18.85 Z255 F3.00 
G01 X30.16 Y18.72 Z255 F3.00 
G01 X30.29 Y18.59 Z255 F3.00 
G01 X30.29 Y18.46 Z255 F3.00 
G01 X30.42 Y18.33 Z255 F3.00 
G01 X30.42 Y18.2 Z255 F3.00 
G01 X30.55 Y18.07 Z255 F3.00 
G01 X30.55 Y17.94 Z255 F3.00 
G01 X30.68 Y17.81 Z255 F3.00 
G01 X30.68 Y17.68 Z255 F3.00 
G01 X30.81 Y17.42 Z255 F3.00 
G01 X30.94 Y17.42 Z255 F3.00 
G01 X30.94 Y17.42 Z255 F3.00 
G00 X31.07 Y17.03 Z0 F50.00 

G01 X31.2 Y16.77 Z255 F3.00 
G01 X31.33 Y16.51 Z255 F3.00 
G01 X31.46 Y16.25 Z255 F3.00 
G01 X31.59 Y16.12 Z255 F3.00 
G01 X31.59 Y15.99 Z255 F3.00 
G01 X31.72 Y15.86 Z255 F3.00 
G01 X31.85 Y15.6 Z255 F3.00 
G01 X31.98 Y15.47 Z255 F3.00 
G01 X31.98 Y15.34 Z255 F3.00 
G01 X32.11 Y15.21 Z255 F3.00 
G01 X32.37 Y14.82 Z255 F3.00 
G01 X32.5 Y14.69 Z255 F3.00 
G01 X33.02 Y14.43 Z255 F3.00 
G01 X33.28 Y14.82 Z255 F3.00 
G01 X33.15 Y16.25 Z255 F3.00 
G01 X33.15 Y16.38 Z255 F3.00 
G01 X33.28 Y17.42 Z255 F3.00 
G01 X33.41 Y17.68 Z255 F3.00 
G01 X33.54 Y18.33 Z255 F3.00 
G01 X33.54 Y18.59 Z255 F3.00 
G01 X33.54 Y18.85 Z255 F3.00 
G01 X33.41 Y18.98 Z255 F3.00 
G01 X33.41 Y19.11 Z255 F3.00 
G01 X33.28 Y18.98 Z255 F3.00 
G01 X33.41 Y18.85 Z255 F3.00 
G01 X33.41 Y18.59 Z255 F3.00 
G01 X33.54 Y18.46 Z255 F3.00 
G01 X33.93 Y17.94 Z255 F3.00 
G01 X34.06 Y17.55 Z255 F3.00 
G01 X34.06 Y17.42 Z255 F3.00 
G01 X33.93 Y17.29 Z255 F3.00 
G01 X34.06 Y17.16 Z255 F3.00 
G01 X34.06 Y17.03 Z255 F3.00 
G01 X34.19 Y15.34 Z255 F3.00 
G01 X34.19 Y15.21 Z255 F3.00 
G01 X34.06 Y14.3 Z255 F3.00 
G01 X34.06 Y14.17 Z255 F3.00 
G01 X33.93 Y13.78 Z255 F3.00 
G01 X33.54 Y13.52 Z255 F3.00 
G01 X33.02 Y13.65 Z255 F3.00 
G01 X32.89 Y13.65 Z255 F3.00 
G01 X32.76 Y13.78 Z255 F3.00 
G01 X32.63 Y13.78 Z255 F3.00 
G01 X32.5 Y13.91 Z255 F3.00 
G01 X31.59 Y14.95 Z255 F3.00 
G01 X31.46 Y15.08 Z255 F3.00 
G01 X31.2 Y15.47 Z255 F3.00 
G01 X31.07 Y15.6 Z255 F3.00 
G01 X30.94 Y15.86 Z255 F3.00 
G01 X30.81 Y15.99 Z255 F3.00 
G01 X30.68 Y16.25 Z255 F3.00 
G01 X30.55 Y16.38 Z255 F3.00 
G01 X30.55 Y16.51 Z255 F3.00 
G01 X30.42 Y16.64 Z255 F3.00 
G01 X30.42 Y16.77 Z255 F3.00 
G01 X30.29 Y16.9 Z255 F3.00 
G01 X30.16 Y17.16 Z255 F3.00 
G01 X30.03 Y17.29 Z255 F3.00 
G01 X30.03 Y17.42 Z255 F3.00 
G01 X29.9 Y17.68 Z255 F3.00 
G01 X29.77 Y17.94 Z255 F3.00 
G01 X29.64 Y18.07 Z255 F3.00 
G01 X29.64 Y18.2 Z255 F3.00 
G01 X29.51 Y18.33 Z255 F3.00 
G01 X29.51 Y18.46 Z255 F3.00 
G01 X29.38 Y18.72 Z255 F3.00 
G01 X29.38 Y18.85 Z255 F3.00 
G01 X29.25 Y18.98 Z255 F3.00 
G01 X29.25 Y19.11 Z255 F3.00 
G01 X29.12 Y19.24 Z255 F3.00 
G01 X29.12 Y19.37 Z255 F3.00 
G01 X28.99 Y19.63 Z255 F3.00 
G01 X28.99 Y19.76 Z255 F3.00 
G01 X28.86 Y19.89 Z255 F3.00 
G01 X28.86 Y20.02 Z255 F3.00 
G01 X28.73 Y20.15 Z255 F3.00 
G01 X28.73 Y20.28 Z255 F3.00 
G01 X28.6 Y20.41 Z255 F3.00 
G01 X28.6 Y20.54 Z255 F3.00 
G01 X28.47 Y20.67 Z255 F3.00 
G01 X28.47 Y20.8 Z255 F3.00 
G01 X28.34 Y21.06 Z255 F3.00 
G01 X28.34 Y21.19 Z255 F3.00 
G01 X28.21 Y21.32 Z255 F3.00 
G01 X28.21 Y21.45 Z255 F3.00 
G01 X28.08 Y21.71 Z255 F3.00 
G01 X28.08 Y21.84 Z255 F3.00 
G01 X27.95 Y22.1 Z255 F3.00 
G01 X27.95 Y22.23 Z255 F3.00 
G01 X27.82 Y22.49 Z255 F3.00 
G01 X27.82 Y22.62 Z255 F3.00 
G01 X27.69 Y22.75 Z255 F3.00 
G01 X27.69 Y22.88 Z255 F3.00 
G01 X27.56 Y23.27 Z255 F3.00 
G01 X27.56 Y23.4 Z255 F3.00 
G01 X27.43 Y23.66 Z255 F3.00 
G01 X27.43 Y23.79 Z255 F3.00 
G01 X27.3 Y23.92 Z255 F3.00 
G01 X27.3 Y24.05 Z255 F3.00 
G01 X27.17 Y24.31 Z255 F3.00 
G01 X27.17 Y24.44 Z255 F3.00 
G01 X27.04 Y24.7 Z255 F3.00 
G01 X27.04 Y24.83 Z255 F3.00 
G01 X26.91 Y25.09 Z255 F3.00 
G01 X26.91 Y25.22 Z255 F3.00 
G01 X26.78 Y25.48 Z255 F3.00 
G01 X26.78 Y25.61 Z255 F3.00 
G01 X26.65 Y26.0 Z255 F3.00 
G01 X26.65 Y26.13 Z255 F3.00 
G01 X26.52 Y26.52 Z255 F3.00 
G01 X26.52 Y26.65 Z255 F3.00 
G01 X26.39 Y26.91 Z255 F3.00 
G01 X26.39 Y27.04 Z255 F3.00 
G01 X26.26 Y27.3 Z255 F3.00 
G01 X26.26 Y27.43 Z255 F3.00 
G01 X26.13 Y27.69 Z255 F3.00 
G01 X26.13 Y27.82 Z255 F3.00 
G01 X26.0 Y28.47 Z255 F3.00 
G01 X26.0 Y28.6 Z255 F3.00 
G01 X25.87 Y28.73 Z255 F3.00 
G01 X25.87 Y28.86 Z255 F3.00 
G01 X25.74 Y29.38 Z255 F3.00 
G01 X25.74 Y29.51 Z255 F3.00 
G01 X25.61 Y29.77 Z255 F3.00 
G01 X25.61 Y29.9 Z255 F3.00 
G01 X25.48 Y30.42 Z255 F3.00 
G01 X25.48 Y30.55 Z255 F3.00 
G01 X25.35 Y30.94 Z255 F3.00 
G01 X25.22 Y30.94 Z255 F3.00 
G01 X25.09 Y31.07 Z255 F3.00 
G01 X24.96 Y31.07 Z255 F3.00 
G01 X24.83 Y31.2 Z255 F3.00 
G01 X24.7 Y31.2 Z255 F3.00 
G01 X24.57 Y31.33 Z255 F3.00 
G01 X24.44 Y31.33 Z255 F3.00 
G01 X24.31 Y31.46 Z255 F3.00 
G01 X24.18 Y31.46 Z255 F3.00 
G01 X24.05 Y31.59 Z255 F3.00 
G01 X23.92 Y31.59 Z255 F3.00 
G01 X23.79 Y31.72 Z255 F3.00 
G01 X23.66 Y31.72 Z255 F3.00 
G01 X23.53 Y31.85 Z255 F3.00 
G01 X23.4 Y31.85 Z255 F3.00 
G01 X23.27 Y31.98 Z255 F3.00 
G01 X23.01 Y32.11 Z255 F3.00 
G01 X22.75 Y32.24 Z255 F3.00 
G01 X22.1 Y33.02 Z255 F3.00 
G01 X22.23 Y33.15 Z255 F3.00 
G01 X22.36 Y33.15 Z255 F3.00 
G01 X22.49 Y33.02 Z255 F3.00 
G01 X22.62 Y33.02 Z255 F3.00 
G01 X22.88 Y32.89 Z255 F3.00 
G01 X23.01 Y32.89 Z255 F3.00 
G01 X23.14 Y32.76 Z255 F3.00 
G01 X23.4 Y32.63 Z255 F3.00 
G01 X23.53 Y32.5 Z255 F3.00 
G01 X23.66 Y32.5 Z255 F3.00 
G01 X23.79 Y32.37 Z255 F3.00 
G01 X23.92 Y32.37 Z255 F3.00 
G01 X24.05 Y32.24 Z255 F3.00 
G01 X24.31 Y32.11 Z255 F3.00 
G01 X24.44 Y31.98 Z255 F3.00 
G01 X24.57 Y31.98 Z255 F3.00 
G01 X24.7 Y31.85 Z255 F3.00 
G01 X24.83 Y31.85 Z255 F3.00 
G01 X24.96 Y31.72 Z255 F3.00 
G01 X25.09 Y31.72 Z255 F3.00 
G01 X25.22 Y31.85 Z255 F3.00 
G01 X25.22 Y31.98 Z255 F3.00 
G01 X25.09 Y32.11 Z255 F3.00 
G01 X25.09 Y32.24 Z255 F3.00 
G01 X24.96 Y32.76 Z255 F3.00 
G01 X24.96 Y32.89 Z255 F3.00 
G01 X24.83 Y33.15 Z255 F3.00 
G01 X24.96 Y33.28 Z255 F3.00 
G01 X24.83 Y33.41 Z255 F3.00 
G01 X24.83 Y33.54 Z255 F3.00 
G01 X24.7 Y34.58 Z255 F3.00 
G01 X24.7 Y34.71 Z255 F3.00 
G01 X24.57 Y35.1 Z255 F3.00 
G01 X24.57 Y35.23 Z255 F3.00 
G01 X24.44 Y35.75 Z255 F3.00 
G01 X24.57 Y35.88 Z255 F3.00 
G01 X24.44 Y36.01 Z255 F3.00 
G01 X24.44 Y36.14 Z255 F3.00 
G01 X24.31 Y36.4 Z255 F3.00 
G01 X24.31 Y36.53 Z255 F3.00 
G01 X24.18 Y37.7 Z255 F3.00 
G01 X24.31 Y37.83 Z255 F3.00 
G01 X24.18 Y37.96 Z255 F3.00 
G01 X24.18 Y38.09 Z255 F3.00 
G01 X24.05 Y39.0 Z255 F3.00 
G01 X24.05 Y39.13 Z255 F3.00 
G01 X23.92 Y39.78 Z255 F3.00 
G01 X23.92 Y39.91 Z255 F3.00 
G01 X23.79 Y41.34 Z255 F3.00 
G01 X23.79 Y41.47 Z255 F3.00 
G01 X23.66 Y43.68 Z255 F3.00 
G01 X23.66 Y43.81 Z255 F3.00 
G01 X23.79 Y44.07 Z255 F3.00 
G01 X23.66 Y44.2 Z255 F3.00 
G01 X23.66 Y44.33 Z255 F3.00 
G01 X23.66 Y44.33 Z255 F3.00 
G00 X26.13 Y49.27 Z0 F50.00 

G01 X26.0 Y49.4 Z255 F3.00 
G01 X26.13 Y49.53 Z255 F3.00 
G01 X26.0 Y49.53 Z255 F3.00 
G01 X26.13 Y49.66 Z255 F3.00 
G01 X26.0 Y49.79 Z255 F3.00 
G01 X25.87 Y49.66 Z255 F3.00 
G01 X25.87 Y49.66 Z255 F3.00 
G00 X26.0 Y49.27 Z0 F50.00 

G01 X26.13 Y49.14 Z255 F3.00 
G01 X26.13 Y49.14 Z255 F3.00 
G00 X30.16 Y49.79 Z0 F50.00 

G01 X30.16 Y49.66 Z255 F3.00 
G01 X30.29 Y49.4 Z255 F3.00 
G01 X30.42 Y49.14 Z255 F3.00 
G01 X30.55 Y49.01 Z255 F3.00 
G01 X30.55 Y48.88 Z255 F3.00 
G01 X30.68 Y48.75 Z255 F3.00 
G01 X30.68 Y48.62 Z255 F3.00 
G01 X30.81 Y48.49 Z255 F3.00 
G01 X31.2 Y47.97 Z255 F3.00 
G01 X31.33 Y47.84 Z255 F3.00 
G01 X31.59 Y47.45 Z255 F3.00 
G01 X31.72 Y47.32 Z255 F3.00 
G01 X32.11 Y46.8 Z255 F3.00 
G01 X32.24 Y46.67 Z255 F3.00 
G01 X32.76 Y46.02 Z255 F3.00 
G01 X32.63 Y45.89 Z255 F3.00 
G01 X32.5 Y45.89 Z255 F3.00 
G01 X32.37 Y45.76 Z255 F3.00 
G01 X32.11 Y45.63 Z255 F3.00 
G01 X31.98 Y45.5 Z255 F3.00 
G01 X31.85 Y45.5 Z255 F3.00 
G01 X31.72 Y45.37 Z255 F3.00 
G01 X31.46 Y44.98 Z255 F3.00 
G01 X31.33 Y44.85 Z255 F3.00 
G01 X31.07 Y44.46 Z255 F3.00 
G01 X30.94 Y44.33 Z255 F3.00 
G01 X30.81 Y44.07 Z255 F3.00 
G01 X30.68 Y43.81 Z255 F3.00 
G01 X30.68 Y43.68 Z255 F3.00 
G01 X30.55 Y43.55 Z255 F3.00 
G01 X30.55 Y43.42 Z255 F3.00 
G01 X30.42 Y43.29 Z255 F3.00 
G01 X30.42 Y43.16 Z255 F3.00 
G01 X30.29 Y42.9 Z255 F3.00 
G01 X30.29 Y42.77 Z255 F3.00 
G01 X30.16 Y42.25 Z255 F3.00 
G01 X30.16 Y42.12 Z255 F3.00 
G01 X30.29 Y40.95 Z255 F3.00 
G01 X30.29 Y40.82 Z255 F3.00 
G01 X30.42 Y40.17 Z255 F3.00 
G01 X30.42 Y40.04 Z255 F3.00 
G01 X30.55 Y39.65 Z255 F3.00 
G01 X30.55 Y39.52 Z255 F3.00 
G01 X30.68 Y39.26 Z255 F3.00 
G01 X30.68 Y39.13 Z255 F3.00 
G01 X30.81 Y39.0 Z255 F3.00 
G01 X30.81 Y38.87 Z255 F3.00 
G01 X30.94 Y38.61 Z255 F3.00 
G01 X30.94 Y38.48 Z255 F3.00 
G01 X31.07 Y38.35 Z255 F3.00 
G01 X31.07 Y38.22 Z255 F3.00 
G01 X31.2 Y38.09 Z255 F3.00 
G01 X31.2 Y37.96 Z255 F3.00 
G01 X31.33 Y37.83 Z255 F3.00 
G01 X31.46 Y37.57 Z255 F3.00 
G01 X31.59 Y37.44 Z255 F3.00 
G01 X31.85 Y37.05 Z255 F3.00 
G01 X31.98 Y36.92 Z255 F3.00 
G01 X32.11 Y36.66 Z255 F3.00 
G01 X32.24 Y36.53 Z255 F3.00 
G01 X32.5 Y36.14 Z255 F3.00 
G01 X32.63 Y36.01 Z255 F3.00 
G01 X33.41 Y35.1 Z255 F3.00 
G01 X33.54 Y34.97 Z255 F3.00 
G01 X34.19 Y34.45 Z255 F3.00 
G01 X34.32 Y34.32 Z255 F3.00 
G01 X35.62 Y33.15 Z255 F3.00 
G01 X35.75 Y33.02 Z255 F3.00 
G01 X36.01 Y32.89 Z255 F3.00 
G01 X36.14 Y32.76 Z255 F3.00 
G01 X36.53 Y32.5 Z255 F3.00 
G01 X36.66 Y32.37 Z255 F3.00 
G01 X36.92 Y32.24 Z255 F3.00 
G01 X37.05 Y32.11 Z255 F3.00 
G01 X37.18 Y32.11 Z255 F3.00 
G01 X37.31 Y31.98 Z255 F3.00 
G01 X37.44 Y31.98 Z255 F3.00 
G01 X37.57 Y31.85 Z255 F3.00 
G01 X37.96 Y31.59 Z255 F3.00 
G01 X38.22 Y31.46 Z255 F3.00 
G01 X38.35 Y31.46 Z255 F3.00 
G01 X38.48 Y31.33 Z255 F3.00 
G01 X38.61 Y31.33 Z255 F3.00 
G01 X38.74 Y31.2 Z255 F3.00 
G01 X39.0 Y31.07 Z255 F3.00 
G01 X39.13 Y30.94 Z255 F3.00 
G01 X39.26 Y30.94 Z255 F3.00 
G01 X39.52 Y30.81 Z255 F3.00 
G01 X39.65 Y30.81 Z255 F3.00 
G01 X39.78 Y30.68 Z255 F3.00 
G01 X39.91 Y30.68 Z255 F3.00 
G01 X40.04 Y30.55 Z255 F3.00 
G01 X40.17 Y30.29 Z255 F3.00 
G01 X40.04 Y29.77 Z255 F3.00 
G01 X40.04 Y29.64 Z255 F3.00 
G01 X39.91 Y28.99 Z255 F3.00 
G01 X39.91 Y28.86 Z255 F3.00 
G01 X40.04 Y27.95 Z255 F3.00 
G01 X40.04 Y27.82 Z255 F3.00 
G01 X39.91 Y26.65 Z255 F3.00 
G01 X39.91 Y26.52 Z255 F3.00 
G01 X40.04 Y26.0 Z255 F3.00 
G01 X39.91 Y25.87 Z255 F3.00 
G01 X39.78 Y25.87 Z255 F3.00 
G01 X39.65 Y26.0 Z255 F3.00 
G01 X39.52 Y26.0 Z255 F3.00 
G01 X39.39 Y26.13 Z255 F3.00 
G01 X38.74 Y26.65 Z255 F3.00 
G01 X38.61 Y26.78 Z255 F3.00 
G01 X38.22 Y27.04 Z255 F3.00 
G01 X37.7 Y26.91 Z255 F3.00 
G01 X37.83 Y26.78 Z255 F3.00 
G01 X38.09 Y26.39 Z255 F3.00 
G01 X38.22 Y26.26 Z255 F3.00 
G01 X38.35 Y26.26 Z255 F3.00 
G01 X38.48 Y26.13 Z255 F3.00 
G01 X38.74 Y26.0 Z255 F3.00 
G01 X38.87 Y25.87 Z255 F3.00 
G01 X39.13 Y25.74 Z255 F3.00 
G01 X39.26 Y25.61 Z255 F3.00 
G01 X39.52 Y25.48 Z255 F3.00 
G01 X39.65 Y25.35 Z255 F3.00 
G01 X40.04 Y25.09 Z255 F3.00 
G01 X40.17 Y24.96 Z255 F3.00 
G01 X40.17 Y24.83 Z255 F3.00 
G01 X40.3 Y24.31 Z255 F3.00 
G01 X40.3 Y24.18 Z255 F3.00 
G01 X40.43 Y23.66 Z255 F3.00 
G01 X40.43 Y23.53 Z255 F3.00 
G01 X40.56 Y22.88 Z255 F3.00 
G01 X40.56 Y22.75 Z255 F3.00 
G01 X40.69 Y22.23 Z255 F3.00 
G01 X40.69 Y22.1 Z255 F3.00 
G01 X40.82 Y21.32 Z255 F3.00 
G01 X40.82 Y21.19 Z255 F3.00 
G01 X40.95 Y20.93 Z255 F3.00 
G01 X41.08 Y20.67 Z255 F3.00 
G01 X41.21 Y20.15 Z255 F3.00 
G01 X41.21 Y20.02 Z255 F3.00 
G01 X41.34 Y19.63 Z255 F3.00 
G01 X41.34 Y19.5 Z255 F3.00 
G01 X41.47 Y19.24 Z255 F3.00 
G01 X41.47 Y19.11 Z255 F3.00 
G01 X41.6 Y18.85 Z255 F3.00 
G01 X41.6 Y18.72 Z255 F3.00 
G01 X41.73 Y18.59 Z255 F3.00 
G01 X41.73 Y18.46 Z255 F3.00 
G01 X41.86 Y18.2 Z255 F3.00 
G01 X41.86 Y18.07 Z255 F3.00 
G01 X41.99 Y17.81 Z255 F3.00 
G01 X41.99 Y17.68 Z255 F3.00 
G01 X42.12 Y17.55 Z255 F3.00 
G01 X42.12 Y17.42 Z255 F3.00 
G01 X42.25 Y17.16 Z255 F3.00 
G01 X42.38 Y16.9 Z255 F3.00 
G01 X42.51 Y16.77 Z255 F3.00 
G01 X42.51 Y16.64 Z255 F3.00 
G01 X42.64 Y16.51 Z255 F3.00 
G01 X42.64 Y16.38 Z255 F3.00 
G01 X42.77 Y16.25 Z255 F3.00 
G01 X42.77 Y16.12 Z255 F3.00 
G01 X42.9 Y15.99 Z255 F3.00 
G01 X42.9 Y15.86 Z255 F3.00 
G01 X43.03 Y15.73 Z255 F3.00 
G01 X43.16 Y15.47 Z255 F3.00 
G01 X43.29 Y15.34 Z255 F3.00 
G01 X44.07 Y14.69 Z255 F3.00 
G01 X44.2 Y14.56 Z255 F3.00 
G01 X44.33 Y14.69 Z255 F3.00 
G01 X44.46 Y14.95 Z255 F3.00 
G01 X44.33 Y15.34 Z255 F3.00 
G01 X44.33 Y15.47 Z255 F3.00 
G01 X44.2 Y15.73 Z255 F3.00 
G01 X43.55 Y16.51 Z255 F3.00 
G01 X43.42 Y16.64 Z255 F3.00 
G01 X43.42 Y16.77 Z255 F3.00 
G01 X43.29 Y16.9 Z255 F3.00 
G01 X43.29 Y17.03 Z255 F3.00 
G01 X43.16 Y17.16 Z255 F3.00 
G01 X43.16 Y17.29 Z255 F3.00 
G01 X43.03 Y17.42 Z255 F3.00 
G01 X43.03 Y17.55 Z255 F3.00 
G01 X42.9 Y17.81 Z255 F3.00 
G01 X42.77 Y18.07 Z255 F3.00 
G01 X42.64 Y18.33 Z255 F3.00 
G01 X42.64 Y18.46 Z255 F3.00 
G01 X42.51 Y18.59 Z255 F3.00 
G01 X42.51 Y18.72 Z255 F3.00 
G01 X42.38 Y18.98 Z255 F3.00 
G01 X42.38 Y19.11 Z255 F3.00 
G01 X42.25 Y19.24 Z255 F3.00 
G01 X42.25 Y19.37 Z255 F3.00 
G01 X42.12 Y19.76 Z255 F3.00 
G01 X42.12 Y19.89 Z255 F3.00 
G01 X41.99 Y20.15 Z255 F3.00 
G01 X41.99 Y20.28 Z255 F3.00 
G01 X41.86 Y20.54 Z255 F3.00 
G01 X41.86 Y20.67 Z255 F3.00 
G01 X41.73 Y21.06 Z255 F3.00 
G01 X41.73 Y21.19 Z255 F3.00 
G01 X41.6 Y21.45 Z255 F3.00 
G01 X41.6 Y21.58 Z255 F3.00 
G01 X41.47 Y22.1 Z255 F3.00 
G01 X41.47 Y22.23 Z255 F3.00 
G01 X41.34 Y22.62 Z255 F3.00 
G01 X41.34 Y22.75 Z255 F3.00 
G01 X41.21 Y23.14 Z255 F3.00 
G01 X41.21 Y23.27 Z255 F3.00 
G01 X41.34 Y24.05 Z255 F3.00 
G01 X41.47 Y23.92 Z255 F3.00 
G01 X41.99 Y23.53 Z255 F3.00 
G01 X42.12 Y23.4 Z255 F3.00 
G01 X42.38 Y23.27 Z255 F3.00 
G01 X42.51 Y23.14 Z255 F3.00 
G01 X42.9 Y22.88 Z255 F3.00 
G01 X43.03 Y22.75 Z255 F3.00 
G01 X43.16 Y22.75 Z255 F3.00 
G01 X43.29 Y22.62 Z255 F3.00 
G01 X43.68 Y22.36 Z255 F3.00 
G01 X43.81 Y22.23 Z255 F3.00 
G01 X44.2 Y21.97 Z255 F3.00 
G01 X44.33 Y21.84 Z255 F3.00 
G01 X44.46 Y21.84 Z255 F3.00 
G01 X44.72 Y21.97 Z255 F3.00 
G01 X44.72 Y22.1 Z255 F3.00 
G01 X44.59 Y22.62 Z255 F3.00 
G01 X44.46 Y22.88 Z255 F3.00 
G01 X44.33 Y23.01 Z255 F3.00 
G01 X44.33 Y23.14 Z255 F3.00 
G01 X44.2 Y23.27 Z255 F3.00 
G01 X44.2 Y23.4 Z255 F3.00 
G01 X44.07 Y23.53 Z255 F3.00 
G01 X44.07 Y23.66 Z255 F3.00 
G01 X43.94 Y23.92 Z255 F3.00 
G01 X43.94 Y24.05 Z255 F3.00 
G01 X43.81 Y24.18 Z255 F3.00 
G01 X43.81 Y24.31 Z255 F3.00 
G01 X43.94 Y24.7 Z255 F3.00 
G01 X44.07 Y24.7 Z255 F3.00 
G01 X44.2 Y24.57 Z255 F3.00 
G01 X44.33 Y24.57 Z255 F3.00 
G01 X44.59 Y24.44 Z255 F3.00 
G01 X44.85 Y24.31 Z255 F3.00 
G01 X44.98 Y24.18 Z255 F3.00 
G01 X45.76 Y23.53 Z255 F3.00 
G01 X45.89 Y23.4 Z255 F3.00 
G01 X46.67 Y22.75 Z255 F3.00 
G01 X46.8 Y22.62 Z255 F3.00 
G01 X46.8 Y22.49 Z255 F3.00 
G01 X46.93 Y22.36 Z255 F3.00 
G01 X47.06 Y22.36 Z255 F3.00 
G01 X47.19 Y22.23 Z255 F3.00 
G01 X47.19 Y22.1 Z255 F3.00 
G01 X47.32 Y21.97 Z255 F3.00 
G01 X47.45 Y21.97 Z255 F3.00 
G01 X47.58 Y21.84 Z255 F3.00 
G01 X48.62 Y21.06 Z255 F3.00 
G01 X48.62 Y21.19 Z255 F3.00 
G01 X48.49 Y22.1 Z255 F3.00 
G01 X48.49 Y22.23 Z255 F3.00 
G01 X48.62 Y22.75 Z255 F3.00 
G01 X48.75 Y22.75 Z255 F3.00 
G01 X48.88 Y22.62 Z255 F3.00 
G01 X49.01 Y22.62 Z255 F3.00 
G01 X49.14 Y22.49 Z255 F3.00 
G01 X49.53 Y22.23 Z255 F3.00 
G01 X49.66 Y22.1 Z255 F3.00 
G01 X50.31 Y21.58 Z255 F3.00 
G01 X50.44 Y21.45 Z255 F3.00 
G01 X51.74 Y20.28 Z255 F3.00 
G01 X51.87 Y20.15 Z255 F3.00 
G01 X52.13 Y20.02 Z255 F3.00 
G01 X52.26 Y20.15 Z255 F3.00 
G01 X52.26 Y20.28 Z255 F3.00 
G01 X52.39 Y20.41 Z255 F3.00 
G01 X52.39 Y20.54 Z255 F3.00 
G01 X52.52 Y21.06 Z255 F3.00 
G01 X52.52 Y21.19 Z255 F3.00 
G01 X52.65 Y21.32 Z255 F3.00 
G01 X53.17 Y21.71 Z255 F3.00 
G01 X53.56 Y21.84 Z255 F3.00 
G01 X53.69 Y21.71 Z255 F3.00 
G01 X53.56 Y21.71 Z255 F3.00 
G01 X53.56 Y21.71 Z255 F3.00 
G00 X53.43 Y22.1 Z0 F50.00 

G01 X53.56 Y22.1 Z255 F3.00 
G01 X53.56 Y22.1 Z255 F3.00 
G00 X53.17 Y22.1 Z0 F50.00 

G01 X53.04 Y22.23 Z255 F3.00 
G01 X52.91 Y22.23 Z255 F3.00 
G01 X52.65 Y22.36 Z255 F3.00 
G01 X52.52 Y22.36 Z255 F3.00 
G01 X52.13 Y22.23 Z255 F3.00 
G01 X52.0 Y22.23 Z255 F3.00 
G01 X51.87 Y22.1 Z255 F3.00 
G01 X51.48 Y21.58 Z255 F3.00 
G01 X51.35 Y21.45 Z255 F3.00 
G01 X51.09 Y21.45 Z255 F3.00 
G01 X50.31 Y22.1 Z255 F3.00 
G01 X50.18 Y22.23 Z255 F3.00 
G01 X49.53 Y22.75 Z255 F3.00 
G01 X49.4 Y22.88 Z255 F3.00 
G01 X48.88 Y23.27 Z255 F3.00 
G01 X48.75 Y23.4 Z255 F3.00 
G01 X48.62 Y23.4 Z255 F3.00 
G01 X48.49 Y23.53 Z255 F3.00 
G01 X48.36 Y23.53 Z255 F3.00 
G01 X47.58 Y23.4 Z255 F3.00 
G01 X47.45 Y23.14 Z255 F3.00 
G01 X47.32 Y22.49 Z255 F3.00 
G01 X47.19 Y22.62 Z255 F3.00 
G01 X45.89 Y23.79 Z255 F3.00 
G01 X45.76 Y23.92 Z255 F3.00 
G01 X45.76 Y24.05 Z255 F3.00 
G01 X45.63 Y24.18 Z255 F3.00 
G01 X45.5 Y24.18 Z255 F3.00 
G01 X45.37 Y24.31 Z255 F3.00 
G01 X44.85 Y24.7 Z255 F3.00 
G01 X44.72 Y24.83 Z255 F3.00 
G01 X44.33 Y25.09 Z255 F3.00 
G01 X44.2 Y25.22 Z255 F3.00 
G01 X43.94 Y25.35 Z255 F3.00 
G01 X43.81 Y25.48 Z255 F3.00 
G01 X43.68 Y25.48 Z255 F3.00 
G01 X43.42 Y25.61 Z255 F3.00 
G01 X43.29 Y25.61 Z255 F3.00 
G01 X43.03 Y25.48 Z255 F3.00 
G01 X42.9 Y25.22 Z255 F3.00 
G01 X42.77 Y25.09 Z255 F3.00 
G01 X42.77 Y24.96 Z255 F3.00 
G01 X42.9 Y24.57 Z255 F3.00 
G01 X42.9 Y24.44 Z255 F3.00 
G01 X43.03 Y24.18 Z255 F3.00 
G01 X43.03 Y24.05 Z255 F3.00 
G01 X43.16 Y23.92 Z255 F3.00 
G01 X43.16 Y23.79 Z255 F3.00 
G01 X43.29 Y23.66 Z255 F3.00 
G01 X43.29 Y23.53 Z255 F3.00 
G01 X43.42 Y23.4 Z255 F3.00 
G01 X43.42 Y23.27 Z255 F3.00 
G01 X43.55 Y23.14 Z255 F3.00 
G01 X43.42 Y23.01 Z255 F3.00 
G01 X43.29 Y23.14 Z255 F3.00 
G01 X43.03 Y23.27 Z255 F3.00 
G01 X42.9 Y23.4 Z255 F3.00 
G01 X42.51 Y23.66 Z255 F3.00 
G01 X42.38 Y23.79 Z255 F3.00 
G01 X41.86 Y24.18 Z255 F3.00 
G01 X41.73 Y24.31 Z255 F3.00 
G01 X41.47 Y24.44 Z255 F3.00 
G01 X41.34 Y24.57 Z255 F3.00 
G01 X40.95 Y25.09 Z255 F3.00 
G01 X40.82 Y25.22 Z255 F3.00 
G01 X40.82 Y25.35 Z255 F3.00 
G01 X40.69 Y26.39 Z255 F3.00 
G01 X40.69 Y26.52 Z255 F3.00 
G01 X40.56 Y28.08 Z255 F3.00 
G01 X40.56 Y28.21 Z255 F3.00 
G01 X40.69 Y28.34 Z255 F3.00 
G01 X40.69 Y28.47 Z255 F3.00 
G01 X40.56 Y28.73 Z255 F3.00 
G01 X40.56 Y28.86 Z255 F3.00 
G01 X40.69 Y29.25 Z255 F3.00 
G01 X40.69 Y29.38 Z255 F3.00 
G01 X40.82 Y30.16 Z255 F3.00 
G01 X41.08 Y30.29 Z255 F3.00 
G01 X41.34 Y30.16 Z255 F3.00 
G01 X41.47 Y30.16 Z255 F3.00 
G01 X42.25 Y30.03 Z255 F3.00 
G01 X42.38 Y30.03 Z255 F3.00 
G01 X42.51 Y30.16 Z255 F3.00 
G01 X42.64 Y30.16 Z255 F3.00 
G01 X43.29 Y30.29 Z255 F3.00 
G01 X43.42 Y30.29 Z255 F3.00 
G01 X43.68 Y30.42 Z255 F3.00 
G01 X43.94 Y30.55 Z255 F3.00 
G01 X44.07 Y30.68 Z255 F3.00 
G01 X44.07 Y30.81 Z255 F3.00 
G01 X44.2 Y30.94 Z255 F3.00 
G01 X44.46 Y31.33 Z255 F3.00 
G01 X44.59 Y31.59 Z255 F3.00 
G01 X44.59 Y31.72 Z255 F3.00 
G01 X44.46 Y32.63 Z255 F3.00 
G01 X44.46 Y32.76 Z255 F3.00 
G01 X44.33 Y33.28 Z255 F3.00 
G01 X44.33 Y33.41 Z255 F3.00 
G01 X44.2 Y33.54 Z255 F3.00 
G01 X44.2 Y33.67 Z255 F3.00 
G01 X44.07 Y33.93 Z255 F3.00 
G01 X44.07 Y34.06 Z255 F3.00 
G01 X43.94 Y34.19 Z255 F3.00 
G01 X43.94 Y34.32 Z255 F3.00 
G01 X43.81 Y34.45 Z255 F3.00 
G01 X43.81 Y34.58 Z255 F3.00 
G01 X43.68 Y34.71 Z255 F3.00 
G01 X43.55 Y34.97 Z255 F3.00 
G01 X43.42 Y35.23 Z255 F3.00 
G01 X43.29 Y35.49 Z255 F3.00 
G01 X43.16 Y35.62 Z255 F3.00 
G01 X43.03 Y35.88 Z255 F3.00 
G01 X42.9 Y36.14 Z255 F3.00 
G01 X42.25 Y36.92 Z255 F3.00 
G01 X42.12 Y37.05 Z255 F3.00 
G01 X42.12 Y37.18 Z255 F3.00 
G01 X41.99 Y37.31 Z255 F3.00 
G01 X41.08 Y38.35 Z255 F3.00 
G01 X40.95 Y38.48 Z255 F3.00 
G01 X40.82 Y38.48 Z255 F3.00 
G01 X40.69 Y38.61 Z255 F3.00 
G01 X40.69 Y38.74 Z255 F3.00 
G01 X40.56 Y38.87 Z255 F3.00 
G01 X40.17 Y39.39 Z255 F3.00 
G01 X40.04 Y39.52 Z255 F3.00 
G01 X39.91 Y39.52 Z255 F3.00 
G01 X39.78 Y39.65 Z255 F3.00 
G01 X39.78 Y39.78 Z255 F3.00 
G01 X39.65 Y39.91 Z255 F3.00 
G01 X37.96 Y41.73 Z255 F3.00 
G01 X37.83 Y41.86 Z255 F3.00 
G01 X37.83 Y41.99 Z255 F3.00 
G01 X37.96 Y42.25 Z255 F3.00 
G01 X38.22 Y42.64 Z255 F3.00 
G01 X38.35 Y42.77 Z255 F3.00 
G01 X38.35 Y42.9 Z255 F3.00 
G01 X38.48 Y43.29 Z255 F3.00 
G01 X38.48 Y43.42 Z255 F3.00 
G01 X38.35 Y44.07 Z255 F3.00 
G01 X38.35 Y44.2 Z255 F3.00 
G01 X38.22 Y44.46 Z255 F3.00 
G01 X38.22 Y44.59 Z255 F3.00 
G01 X38.09 Y44.72 Z255 F3.00 
G01 X38.09 Y44.85 Z255 F3.00 
G01 X37.96 Y45.11 Z255 F3.00 
G01 X37.96 Y45.24 Z255 F3.00 
G01 X37.83 Y45.5 Z255 F3.00 
G01 X37.57 Y45.89 Z255 F3.00 
G01 X37.44 Y46.02 Z255 F3.00 
G01 X37.05 Y46.54 Z255 F3.00 
G01 X37.18 Y46.67 Z255 F3.00 
G01 X37.31 Y46.67 Z255 F3.00 
G01 X37.7 Y46.8 Z255 F3.00 
G01 X37.83 Y46.8 Z255 F3.00 
G01 X38.22 Y46.93 Z255 F3.00 
G01 X38.35 Y46.8 Z255 F3.00 
G01 X38.48 Y46.93 Z255 F3.00 
G01 X38.61 Y46.93 Z255 F3.00 
G01 X39.65 Y47.06 Z255 F3.00 
G01 X39.78 Y47.06 Z255 F3.00 
G01 X41.6 Y47.19 Z255 F3.00 
G01 X41.73 Y47.19 Z255 F3.00 
G01 X41.86 Y47.06 Z255 F3.00 
G01 X41.99 Y47.06 Z255 F3.00 
G01 X42.77 Y47.19 Z255 F3.00 
G01 X43.03 Y47.32 Z255 F3.00 
G01 X43.16 Y47.19 Z255 F3.00 
G01 X43.42 Y47.19 Z255 F3.00 
G01 X43.55 Y47.06 Z255 F3.00 
G01 X43.68 Y47.19 Z255 F3.00 
G01 X43.81 Y47.19 Z255 F3.00 
G01 X43.94 Y47.32 Z255 F3.00 
G01 X43.81 Y47.45 Z255 F3.00 
G01 X43.68 Y47.45 Z255 F3.00 
G01 X43.16 Y47.58 Z255 F3.00 
G01 X43.16 Y47.71 Z255 F3.00 
G01 X43.16 Y47.71 Z255 F3.00 
G00 X42.77 Y47.71 Z0 F50.00 

G01 X41.21 Y47.84 Z255 F3.00 
G01 X41.08 Y47.84 Z255 F3.00 
G01 X40.95 Y47.71 Z255 F3.00 
G01 X40.82 Y47.71 Z255 F3.00 
G01 X39.78 Y47.84 Z255 F3.00 
G01 X39.65 Y47.71 Z255 F3.00 
G01 X39.52 Y47.71 Z255 F3.00 
G01 X38.35 Y47.58 Z255 F3.00 
G01 X38.22 Y47.58 Z255 F3.00 
G01 X36.66 Y47.45 Z255 F3.00 
G01 X36.53 Y47.45 Z255 F3.00 
G01 X35.75 Y47.58 Z255 F3.00 
G01 X35.36 Y47.84 Z255 F3.00 
G01 X35.23 Y47.97 Z255 F3.00 
G01 X34.84 Y48.23 Z255 F3.00 
G01 X34.71 Y48.36 Z255 F3.00 
G01 X34.45 Y48.49 Z255 F3.00 
G01 X34.32 Y48.62 Z255 F3.00 
G01 X34.19 Y48.62 Z255 F3.00 
G01 X34.06 Y48.75 Z255 F3.00 
G01 X33.8 Y48.88 Z255 F3.00 
G01 X33.67 Y49.01 Z255 F3.00 
G01 X33.41 Y49.14 Z255 F3.00 
G01 X33.28 Y49.27 Z255 F3.00 
G01 X33.15 Y49.27 Z255 F3.00 
G01 X33.02 Y49.4 Z255 F3.00 
G01 X32.89 Y49.4 Z255 F3.00 
G01 X32.76 Y49.53 Z255 F3.00 
G01 X32.63 Y49.53 Z255 F3.00 
G01 X32.5 Y49.66 Z255 F3.00 
G01 X32.37 Y49.66 Z255 F3.00 
G01 X32.24 Y49.79 Z255 F3.00 
G01 X32.11 Y49.79 Z255 F3.00 
G01 X31.98 Y49.92 Z255 F3.00 
G01 X31.85 Y49.92 Z255 F3.00 
G01 X31.72 Y50.05 Z255 F3.00 
G01 X31.59 Y50.05 Z255 F3.00 
G01 X31.33 Y50.18 Z255 F3.00 
G01 X31.2 Y50.18 Z255 F3.00 
G01 X30.94 Y50.31 Z255 F3.00 
G01 X30.81 Y50.31 Z255 F3.00 
G01 X30.42 Y50.44 Z255 F3.00 
G01 X30.29 Y50.44 Z255 F3.00 
G01 X30.03 Y50.31 Z255 F3.00 
G01 X30.03 Y50.44 Z255 F3.00 
G01 X30.03 Y50.44 Z255 F3.00 
G00 X30.03 Y50.05 Z0 F50.00 

G01 X30.03 Y50.05 Z255 F3.00 
G00 X31.2 Y49.4 Z0 F50.00 

G01 X31.33 Y49.4 Z255 F3.00 
G01 X31.72 Y49.27 Z255 F3.00 
G01 X31.85 Y49.27 Z255 F3.00 
G01 X31.98 Y49.14 Z255 F3.00 
G01 X32.11 Y49.14 Z255 F3.00 
G01 X32.24 Y49.01 Z255 F3.00 
G01 X32.37 Y49.01 Z255 F3.00 
G01 X32.5 Y48.88 Z255 F3.00 
G01 X32.63 Y48.88 Z255 F3.00 
G01 X32.89 Y48.75 Z255 F3.00 
G01 X33.15 Y48.62 Z255 F3.00 
G01 X33.28 Y48.49 Z255 F3.00 
G01 X33.41 Y48.49 Z255 F3.00 
G01 X33.54 Y48.36 Z255 F3.00 
G01 X33.8 Y48.23 Z255 F3.00 
G01 X34.06 Y48.1 Z255 F3.00 
G01 X34.32 Y47.97 Z255 F3.00 
G01 X34.45 Y47.84 Z255 F3.00 
G01 X34.71 Y47.71 Z255 F3.00 
G01 X34.84 Y47.58 Z255 F3.00 
G01 X34.97 Y47.58 Z255 F3.00 
G01 X35.1 Y47.45 Z255 F3.00 
G01 X35.1 Y47.19 Z255 F3.00 
G01 X34.84 Y47.06 Z255 F3.00 
G01 X34.71 Y46.93 Z255 F3.00 
G01 X34.58 Y46.93 Z255 F3.00 
G01 X34.06 Y46.8 Z255 F3.00 
G01 X33.8 Y46.67 Z255 F3.00 
G01 X33.67 Y46.54 Z255 F3.00 
G01 X33.54 Y46.54 Z255 F3.00 
G01 X33.41 Y46.41 Z255 F3.00 
G01 X33.28 Y46.41 Z255 F3.00 
G01 X33.15 Y46.54 Z255 F3.00 
G01 X32.11 Y47.71 Z255 F3.00 
G01 X31.98 Y47.84 Z255 F3.00 
G01 X31.72 Y48.23 Z255 F3.00 
G01 X31.59 Y48.36 Z255 F3.00 
G01 X31.46 Y48.62 Z255 F3.00 
G01 X31.33 Y48.75 Z255 F3.00 
G01 X31.2 Y49.01 Z255 F3.00 
G01 X31.2 Y49.14 Z255 F3.00 
G00 X33.28 Y44.98 Z0 F50.00 

G01 X32.37 Y43.94 Z255 F3.00 
G01 X32.24 Y43.81 Z255 F3.00 
G01 X31.98 Y43.42 Z255 F3.00 
G01 X31.85 Y43.29 Z255 F3.00 
G01 X31.85 Y43.16 Z255 F3.00 
G01 X31.72 Y43.03 Z255 F3.00 
G01 X31.72 Y42.9 Z255 F3.00 
G01 X31.59 Y42.77 Z255 F3.00 
G01 X31.59 Y42.64 Z255 F3.00 
G01 X31.46 Y42.38 Z255 F3.00 
G01 X31.46 Y42.25 Z255 F3.00 
G01 X31.33 Y42.12 Z255 F3.00 
G01 X31.33 Y41.99 Z255 F3.00 
G01 X31.46 Y39.91 Z255 F3.00 
G01 X31.46 Y39.78 Z255 F3.00 
G01 X31.59 Y39.26 Z255 F3.00 
G01 X31.59 Y39.13 Z255 F3.00 
G01 X31.72 Y38.74 Z255 F3.00 
G01 X31.72 Y38.61 Z255 F3.00 
G01 X31.85 Y38.35 Z255 F3.00 
G01 X31.98 Y38.09 Z255 F3.00 
G01 X32.11 Y37.83 Z255 F3.00 
G01 X32.24 Y37.57 Z255 F3.00 
G01 X32.37 Y37.44 Z255 F3.00 
G01 X32.37 Y37.31 Z255 F3.00 
G01 X32.5 Y37.18 Z255 F3.00 
G01 X32.63 Y36.92 Z255 F3.00 
G01 X32.76 Y36.79 Z255 F3.00 
G01 X33.02 Y36.4 Z255 F3.00 
G01 X33.15 Y36.27 Z255 F3.00 
G01 X33.28 Y36.01 Z255 F3.00 
G01 X33.41 Y35.88 Z255 F3.00 
G01 X34.84 Y34.32 Z255 F3.00 
G01 X34.97 Y34.19 Z255 F3.00 
G01 X35.1 Y34.19 Z255 F3.00 
G01 X35.23 Y34.06 Z255 F3.00 
G01 X35.62 Y33.8 Z255 F3.00 
G01 X35.75 Y33.67 Z255 F3.00 
G01 X36.14 Y33.41 Z255 F3.00 
G01 X36.27 Y33.28 Z255 F3.00 
G01 X36.66 Y33.02 Z255 F3.00 
G01 X36.79 Y32.89 Z255 F3.00 
G01 X36.92 Y32.89 Z255 F3.00 
G01 X37.05 Y32.76 Z255 F3.00 
G01 X37.44 Y32.5 Z255 F3.00 
G01 X37.57 Y32.37 Z255 F3.00 
G01 X37.7 Y32.37 Z255 F3.00 
G01 X37.83 Y32.24 Z255 F3.00 
G01 X37.96 Y32.24 Z255 F3.00 
G01 X38.09 Y32.11 Z255 F3.00 
G01 X38.22 Y32.11 Z255 F3.00 
G01 X38.35 Y31.98 Z255 F3.00 
G01 X38.48 Y31.98 Z255 F3.00 
G01 X38.61 Y31.85 Z255 F3.00 
G01 X38.74 Y31.85 Z255 F3.00 
G01 X38.87 Y31.72 Z255 F3.00 
G01 X39.0 Y31.72 Z255 F3.00 
G01 X39.13 Y31.59 Z255 F3.00 
G01 X39.39 Y31.46 Z255 F3.00 
G01 X39.65 Y31.33 Z255 F3.00 
G01 X39.78 Y31.33 Z255 F3.00 
G01 X40.04 Y31.2 Z255 F3.00 
G01 X40.17 Y31.2 Z255 F3.00 
G01 X40.43 Y31.33 Z255 F3.00 
G01 X40.69 Y31.72 Z255 F3.00 
G01 X40.82 Y31.85 Z255 F3.00 
G01 X40.95 Y31.85 Z255 F3.00 
G01 X41.08 Y31.72 Z255 F3.00 
G01 X40.95 Y31.59 Z255 F3.00 
G01 X40.95 Y31.46 Z255 F3.00 
G01 X41.08 Y30.94 Z255 F3.00 
G01 X41.21 Y30.94 Z255 F3.00 
G01 X42.64 Y31.07 Z255 F3.00 
G01 X42.77 Y31.07 Z255 F3.00 
G01 X42.9 Y31.2 Z255 F3.00 
G01 X43.42 Y31.85 Z255 F3.00 
G01 X43.55 Y31.98 Z255 F3.00 
G01 X43.55 Y32.11 Z255 F3.00 
G01 X43.68 Y32.37 Z255 F3.00 
G01 X43.68 Y32.5 Z255 F3.00 
G01 X43.55 Y33.15 Z255 F3.00 
G01 X43.55 Y33.28 Z255 F3.00 
G01 X43.42 Y33.8 Z255 F3.00 
G01 X43.42 Y33.93 Z255 F3.00 
G01 X43.29 Y34.06 Z255 F3.00 
G01 X43.29 Y34.19 Z255 F3.00 
G01 X43.16 Y34.45 Z255 F3.00 
G01 X43.16 Y34.58 Z255 F3.00 
G01 X43.03 Y34.71 Z255 F3.00 
G01 X43.03 Y34.84 Z255 F3.00 
G01 X42.9 Y34.97 Z255 F3.00 
G01 X42.9 Y35.1 Z255 F3.00 
G01 X42.77 Y35.23 Z255 F3.00 
G01 X42.77 Y35.36 Z255 F3.00 
G01 X42.64 Y35.49 Z255 F3.00 
G01 X42.64 Y35.62 Z255 F3.00 
G01 X42.51 Y35.75 Z255 F3.00 
G01 X42.25 Y36.14 Z255 F3.00 
G01 X42.12 Y36.27 Z255 F3.00 
G01 X41.99 Y36.53 Z255 F3.00 
G01 X41.86 Y36.66 Z255 F3.00 
G01 X41.21 Y37.44 Z255 F3.00 
G01 X41.08 Y37.57 Z255 F3.00 
G01 X40.69 Y38.09 Z255 F3.00 
G01 X40.56 Y38.22 Z255 F3.00 
G01 X39.26 Y39.65 Z255 F3.00 
G01 X39.13 Y39.78 Z255 F3.00 
G01 X37.31 Y41.47 Z255 F3.00 
G01 X37.18 Y41.34 Z255 F3.00 
G01 X36.66 Y40.95 Z255 F3.00 
G01 X36.53 Y40.82 Z255 F3.00 
G01 X36.4 Y40.82 Z255 F3.00 
G01 X36.27 Y40.69 Z255 F3.00 
G01 X36.01 Y40.56 Z255 F3.00 
G01 X35.88 Y40.43 Z255 F3.00 
G01 X35.75 Y40.43 Z255 F3.00 
G01 X35.36 Y40.3 Z255 F3.00 
G01 X35.23 Y40.3 Z255 F3.00 
G01 X34.84 Y40.17 Z255 F3.00 
G01 X34.71 Y40.17 Z255 F3.00 
G01 X33.54 Y40.3 Z255 F3.00 
G01 X33.41 Y40.3 Z255 F3.00 
G01 X33.28 Y40.43 Z255 F3.00 
G01 X33.15 Y40.43 Z255 F3.00 
G01 X33.02 Y40.56 Z255 F3.00 
G01 X32.89 Y40.82 Z255 F3.00 
G01 X32.76 Y40.95 Z255 F3.00 
G01 X32.63 Y41.21 Z255 F3.00 
G01 X32.76 Y41.47 Z255 F3.00 
G01 X32.89 Y41.34 Z255 F3.00 
G01 X33.02 Y41.34 Z255 F3.00 
G01 X33.28 Y41.21 Z255 F3.00 
G01 X33.41 Y41.21 Z255 F3.00 
G01 X34.06 Y41.34 Z255 F3.00 
G01 X34.19 Y41.34 Z255 F3.00 
G01 X34.71 Y41.47 Z255 F3.00 
G01 X34.84 Y41.47 Z255 F3.00 
G01 X35.1 Y41.6 Z255 F3.00 
G01 X35.23 Y41.6 Z255 F3.00 
G01 X35.36 Y41.73 Z255 F3.00 
G01 X35.49 Y41.73 Z255 F3.00 
G01 X35.75 Y41.86 Z255 F3.00 
G01 X35.88 Y41.86 Z255 F3.00 
G01 X36.01 Y41.99 Z255 F3.00 
G01 X36.4 Y42.51 Z255 F3.00 
G01 X36.27 Y42.64 Z255 F3.00 
G01 X33.67 Y45.11 Z255 F3.00 
G01 X33.54 Y45.11 Z255 F3.00 
G00 X34.32 Y45.24 Z0 F50.00 

G01 X36.27 Y43.42 Z255 F3.00 
G01 X36.4 Y43.29 Z255 F3.00 
G01 X36.4 Y43.16 Z255 F3.00 
G01 X36.53 Y43.03 Z255 F3.00 
G01 X36.79 Y42.9 Z255 F3.00 
G01 X37.05 Y43.03 Z255 F3.00 
G01 X37.31 Y43.42 Z255 F3.00 
G01 X37.44 Y43.68 Z255 F3.00 
G01 X37.44 Y43.81 Z255 F3.00 
G01 X37.31 Y44.98 Z255 F3.00 
G01 X37.18 Y45.24 Z255 F3.00 
G01 X37.05 Y45.63 Z255 F3.00 
G01 X36.66 Y46.15 Z255 F3.00 
G01 X36.53 Y46.28 Z255 F3.00 
G01 X36.4 Y46.28 Z255 F3.00 
G01 X36.27 Y46.41 Z255 F3.00 
G01 X36.14 Y46.41 Z255 F3.00 
G01 X36.01 Y46.28 Z255 F3.00 
G01 X35.88 Y46.28 Z255 F3.00 
G01 X35.49 Y46.15 Z255 F3.00 
G01 X35.36 Y46.15 Z255 F3.00 
G01 X34.97 Y46.02 Z255 F3.00 
G01 X34.71 Y45.89 Z255 F3.00 
G01 X34.58 Y45.76 Z255 F3.00 
G01 X34.45 Y45.76 Z255 F3.00 
G01 X34.32 Y45.63 Z255 F3.00 
G01 X34.19 Y45.5 Z255 F3.00 
G00 X46.28 Y35.75 Z0 F50.00 

G01 X46.28 Y35.62 Z255 F3.00 
G01 X46.41 Y35.23 Z255 F3.00 
G01 X46.41 Y35.1 Z255 F3.00 
G01 X46.54 Y34.97 Z255 F3.00 
G01 X46.54 Y34.84 Z255 F3.00 
G01 X46.67 Y34.45 Z255 F3.00 
G01 X46.67 Y34.32 Z255 F3.00 
G01 X46.8 Y33.93 Z255 F3.00 
G01 X46.8 Y33.8 Z255 F3.00 
G01 X46.93 Y33.67 Z255 F3.00 
G01 X46.93 Y33.54 Z255 F3.00 
G01 X47.06 Y33.28 Z255 F3.00 
G01 X47.06 Y33.15 Z255 F3.00 
G01 X47.19 Y32.89 Z255 F3.00 
G01 X47.19 Y32.76 Z255 F3.00 
G01 X47.32 Y32.5 Z255 F3.00 
G01 X47.32 Y32.37 Z255 F3.00 
G01 X47.45 Y32.24 Z255 F3.00 
G01 X47.45 Y32.11 Z255 F3.00 
G01 X47.58 Y31.85 Z255 F3.00 
G01 X47.58 Y31.72 Z255 F3.00 
G01 X47.71 Y31.59 Z255 F3.00 
G01 X47.71 Y31.46 Z255 F3.00 
G01 X47.84 Y31.33 Z255 F3.00 
G01 X47.84 Y31.2 Z255 F3.00 
G01 X47.97 Y30.94 Z255 F3.00 
G01 X47.97 Y30.81 Z255 F3.00 
G01 X48.1 Y30.68 Z255 F3.00 
G01 X48.1 Y30.55 Z255 F3.00 
G01 X48.23 Y30.42 Z255 F3.00 
G01 X48.36 Y30.16 Z255 F3.00 
G01 X48.49 Y30.03 Z255 F3.00 
G01 X48.49 Y29.9 Z255 F3.00 
G01 X48.62 Y29.64 Z255 F3.00 
G01 X48.75 Y29.38 Z255 F3.00 
G01 X48.88 Y29.25 Z255 F3.00 
G01 X48.88 Y29.12 Z255 F3.00 
G01 X49.01 Y28.99 Z255 F3.00 
G01 X49.01 Y28.86 Z255 F3.00 
G01 X49.14 Y28.73 Z255 F3.00 
G01 X49.53 Y28.21 Z255 F3.00 
G01 X49.66 Y28.08 Z255 F3.00 
G01 X50.57 Y27.3 Z255 F3.00 
G01 X51.09 Y27.43 Z255 F3.00 
G01 X51.09 Y27.56 Z255 F3.00 
G01 X50.96 Y28.47 Z255 F3.00 
G01 X50.96 Y28.6 Z255 F3.00 
G01 X50.83 Y28.86 Z255 F3.00 
G01 X50.05 Y29.38 Z255 F3.00 
G01 X50.05 Y29.51 Z255 F3.00 
G01 X50.05 Y29.51 Z255 F3.00 
G00 X50.05 Y29.12 Z0 F50.00 

G01 X50.18 Y28.86 Z255 F3.00 
G01 X50.05 Y28.73 Z255 F3.00 
G01 X49.92 Y28.86 Z255 F3.00 
G01 X49.79 Y29.12 Z255 F3.00 
G01 X49.66 Y29.25 Z255 F3.00 
G01 X49.66 Y29.38 Z255 F3.00 
G01 X49.53 Y29.64 Z255 F3.00 
G01 X49.27 Y30.03 Z255 F3.00 
G01 X49.14 Y30.29 Z255 F3.00 
G01 X49.14 Y30.42 Z255 F3.00 
G01 X49.01 Y30.55 Z255 F3.00 
G01 X49.01 Y30.68 Z255 F3.00 
G01 X48.88 Y30.81 Z255 F3.00 
G01 X48.88 Y30.94 Z255 F3.00 
G01 X48.75 Y31.07 Z255 F3.00 
G01 X48.62 Y31.33 Z255 F3.00 
G01 X48.49 Y31.72 Z255 F3.00 
G01 X48.49 Y31.85 Z255 F3.00 
G01 X48.36 Y31.98 Z255 F3.00 
G01 X48.36 Y32.11 Z255 F3.00 
G01 X48.23 Y32.24 Z255 F3.00 
G01 X48.23 Y32.37 Z255 F3.00 
G01 X48.1 Y32.63 Z255 F3.00 
G01 X48.1 Y32.76 Z255 F3.00 
G01 X47.97 Y33.02 Z255 F3.00 
G01 X47.97 Y33.15 Z255 F3.00 
G01 X47.84 Y33.28 Z255 F3.00 
G01 X47.84 Y33.41 Z255 F3.00 
G01 X47.71 Y33.67 Z255 F3.00 
G01 X47.71 Y33.8 Z255 F3.00 
G01 X47.58 Y34.06 Z255 F3.00 
G01 X47.58 Y34.19 Z255 F3.00 
G01 X47.45 Y34.32 Z255 F3.00 
G01 X47.45 Y34.45 Z255 F3.00 
G01 X47.32 Y34.97 Z255 F3.00 
G01 X47.32 Y35.1 Z255 F3.00 
G01 X47.19 Y35.23 Z255 F3.00 
G01 X47.19 Y35.36 Z255 F3.00 
G01 X47.06 Y35.75 Z255 F3.00 
G01 X47.06 Y35.88 Z255 F3.00 
G01 X46.93 Y36.27 Z255 F3.00 
G01 X46.93 Y36.4 Z255 F3.00 
G01 X46.8 Y36.92 Z255 F3.00 
G01 X46.8 Y37.05 Z255 F3.00 
G01 X46.67 Y38.09 Z255 F3.00 
G01 X46.67 Y38.22 Z255 F3.00 
G01 X46.8 Y38.87 Z255 F3.00 
G01 X46.67 Y39.0 Z255 F3.00 
G01 X46.67 Y39.13 Z255 F3.00 
G01 X46.8 Y39.52 Z255 F3.00 
G01 X46.8 Y39.65 Z255 F3.00 
G01 X46.93 Y40.56 Z255 F3.00 
G01 X46.93 Y40.69 Z255 F3.00 
G01 X47.06 Y40.82 Z255 F3.00 
G01 X47.06 Y40.95 Z255 F3.00 
G01 X47.19 Y41.34 Z255 F3.00 
G01 X47.32 Y41.6 Z255 F3.00 
G01 X47.45 Y41.73 Z255 F3.00 
G01 X47.45 Y41.86 Z255 F3.00 
G01 X47.58 Y41.99 Z255 F3.00 
G01 X47.84 Y42.38 Z255 F3.00 
G01 X47.97 Y42.51 Z255 F3.00 
G01 X48.23 Y42.64 Z255 F3.00 
G01 X48.36 Y42.77 Z255 F3.00 
G01 X48.62 Y42.9 Z255 F3.00 
G01 X48.75 Y43.03 Z255 F3.00 
G01 X49.01 Y43.16 Z255 F3.00 
G01 X49.27 Y43.29 Z255 F3.00 
G01 X49.4 Y43.29 Z255 F3.00 
G01 X49.53 Y43.42 Z255 F3.00 
G01 X49.66 Y43.42 Z255 F3.00 
G01 X50.18 Y43.55 Z255 F3.00 
G01 X50.31 Y43.55 Z255 F3.00 
G01 X50.44 Y43.42 Z255 F3.00 
G01 X50.57 Y43.55 Z255 F3.00 
G01 X50.7 Y43.55 Z255 F3.00 
G01 X50.96 Y43.42 Z255 F3.00 
G01 X51.09 Y43.55 Z255 F3.00 
G01 X51.22 Y43.55 Z255 F3.00 
G01 X51.35 Y43.68 Z255 F3.00 
G01 X51.22 Y43.81 Z255 F3.00 
G01 X51.09 Y43.81 Z255 F3.00 
G01 X50.83 Y43.94 Z255 F3.00 
G01 X50.7 Y43.94 Z255 F3.00 
G01 X49.92 Y44.07 Z255 F3.00 
G01 X49.79 Y44.07 Z255 F3.00 
G01 X49.4 Y44.2 Z255 F3.00 
G01 X49.27 Y44.07 Z255 F3.00 
G01 X49.14 Y44.07 Z255 F3.00 
G01 X48.49 Y43.94 Z255 F3.00 
G01 X48.36 Y43.94 Z255 F3.00 
G01 X48.1 Y43.81 Z255 F3.00 
G01 X47.71 Y43.55 Z255 F3.00 
G01 X47.58 Y43.42 Z255 F3.00 
G01 X47.32 Y43.29 Z255 F3.00 
G01 X47.19 Y43.16 Z255 F3.00 
G01 X47.19 Y43.03 Z255 F3.00 
G01 X47.06 Y42.9 Z255 F3.00 
G01 X46.8 Y42.51 Z255 F3.00 
G01 X46.67 Y42.38 Z255 F3.00 
G01 X46.67 Y42.25 Z255 F3.00 
G01 X46.54 Y42.12 Z255 F3.00 
G01 X46.41 Y41.86 Z255 F3.00 
G01 X46.28 Y41.6 Z255 F3.00 
G01 X46.28 Y41.47 Z255 F3.00 
G01 X46.15 Y41.34 Z255 F3.00 
G01 X46.02 Y41.08 Z255 F3.00 
G01 X45.89 Y40.43 Z255 F3.00 
G01 X45.89 Y40.3 Z255 F3.00 
G01 X45.76 Y39.26 Z255 F3.00 
G01 X45.76 Y39.13 Z255 F3.00 
G01 X45.89 Y37.83 Z255 F3.00 
G01 X45.89 Y37.7 Z255 F3.00 
G01 X46.02 Y36.79 Z255 F3.00 
G01 X46.02 Y36.66 Z255 F3.00 
G01 X46.15 Y36.14 Z255 F3.00 
G01 X46.15 Y36.01 Z255 F3.00 
G01 X46.15 Y36.01 Z255 F3.00 
G00 X51.22 Y37.31 Z0 F50.00 

G01 X51.35 Y37.05 Z255 F3.00 
G01 X51.48 Y36.79 Z255 F3.00 
G01 X51.48 Y36.66 Z255 F3.00 
G01 X51.61 Y36.53 Z255 F3.00 
G01 X51.61 Y36.4 Z255 F3.00 
G01 X51.74 Y36.27 Z255 F3.00 
G01 X51.74 Y36.14 Z255 F3.00 
G01 X51.87 Y36.01 Z255 F3.00 
G01 X51.87 Y35.88 Z255 F3.00 
G01 X52.0 Y35.62 Z255 F3.00 
G01 X52.13 Y35.36 Z255 F3.00 
G01 X52.26 Y35.23 Z255 F3.00 
G01 X52.52 Y34.84 Z255 F3.00 
G01 X52.65 Y34.71 Z255 F3.00 
G01 X53.17 Y34.06 Z255 F3.00 
G01 X53.3 Y33.93 Z255 F3.00 
G01 X53.95 Y33.41 Z255 F3.00 
G01 X54.08 Y33.28 Z255 F3.00 
G01 X54.34 Y33.15 Z255 F3.00 
G01 X54.47 Y33.02 Z255 F3.00 
G01 X54.6 Y33.02 Z255 F3.00 
G01 X54.86 Y33.15 Z255 F3.00 
G01 X54.86 Y33.28 Z255 F3.00 
G01 X54.99 Y33.41 Z255 F3.00 
G01 X54.86 Y33.54 Z255 F3.00 
G01 X54.86 Y33.67 Z255 F3.00 
G01 X54.73 Y33.8 Z255 F3.00 
G01 X54.73 Y33.93 Z255 F3.00 
G01 X54.6 Y34.19 Z255 F3.00 
G01 X54.6 Y34.32 Z255 F3.00 
G01 X54.47 Y34.45 Z255 F3.00 
G01 X54.34 Y34.71 Z255 F3.00 
G01 X54.21 Y34.84 Z255 F3.00 
G01 X54.21 Y34.97 Z255 F3.00 
G01 X54.08 Y35.1 Z255 F3.00 
G01 X53.95 Y35.36 Z255 F3.00 
G01 X53.82 Y35.49 Z255 F3.00 
G01 X53.69 Y35.75 Z255 F3.00 
G01 X53.56 Y35.88 Z255 F3.00 
G01 X53.17 Y36.4 Z255 F3.00 
G01 X53.04 Y36.53 Z255 F3.00 
G01 X52.91 Y36.53 Z255 F3.00 
G01 X52.78 Y36.66 Z255 F3.00 
G01 X52.39 Y37.18 Z255 F3.00 
G01 X52.52 Y37.31 Z255 F3.00 
G01 X52.78 Y37.44 Z255 F3.00 
G01 X53.04 Y37.31 Z255 F3.00 
G01 X53.17 Y37.31 Z255 F3.00 
G01 X53.3 Y37.18 Z255 F3.00 
G01 X53.43 Y37.18 Z255 F3.00 
G01 X53.56 Y37.05 Z255 F3.00 
G01 X53.69 Y37.05 Z255 F3.00 
G01 X53.82 Y36.92 Z255 F3.00 
G01 X55.64 Y34.97 Z255 F3.00 
G01 X55.77 Y34.84 Z255 F3.00 
G01 X56.03 Y34.71 Z255 F3.00 
G01 X56.16 Y34.58 Z255 F3.00 
G01 X56.16 Y34.45 Z255 F3.00 
G01 X56.29 Y34.32 Z255 F3.00 
G01 X56.42 Y34.06 Z255 F3.00 
G01 X56.55 Y33.93 Z255 F3.00 
G01 X56.68 Y33.67 Z255 F3.00 
G01 X56.81 Y32.37 Z255 F3.00 
G01 X56.81 Y32.24 Z255 F3.00 
G01 X56.94 Y31.46 Z255 F3.00 
G01 X56.94 Y31.33 Z255 F3.00 
G01 X57.07 Y30.94 Z255 F3.00 
G01 X57.07 Y30.81 Z255 F3.00 
G01 X57.2 Y30.55 Z255 F3.00 
G01 X57.2 Y30.42 Z255 F3.00 
G01 X57.33 Y30.16 Z255 F3.00 
G01 X57.33 Y30.03 Z255 F3.00 
G01 X57.46 Y29.77 Z255 F3.00 
G01 X57.46 Y29.64 Z255 F3.00 
G01 X57.59 Y29.38 Z255 F3.00 
G01 X57.72 Y29.12 Z255 F3.00 
G01 X57.85 Y28.86 Z255 F3.00 
G01 X57.85 Y28.73 Z255 F3.00 
G01 X57.98 Y28.47 Z255 F3.00 
G01 X57.98 Y28.34 Z255 F3.00 
G01 X58.11 Y28.21 Z255 F3.00 
G01 X58.24 Y27.95 Z255 F3.00 
G01 X58.37 Y27.69 Z255 F3.00 
G01 X58.37 Y27.56 Z255 F3.00 
G01 X58.5 Y27.43 Z255 F3.00 
G01 X58.63 Y27.17 Z255 F3.00 
G01 X58.76 Y26.91 Z255 F3.00 
G01 X58.76 Y26.78 Z255 F3.00 
G01 X58.89 Y26.65 Z255 F3.00 
G01 X58.89 Y26.52 Z255 F3.00 
G01 X59.02 Y26.39 Z255 F3.00 
G01 X59.15 Y26.13 Z255 F3.00 
G01 X59.28 Y26.0 Z255 F3.00 
G01 X59.28 Y25.87 Z255 F3.00 
G01 X59.41 Y25.74 Z255 F3.00 
G01 X59.41 Y25.61 Z255 F3.00 
G01 X59.54 Y25.48 Z255 F3.00 
G01 X59.67 Y25.22 Z255 F3.00 
G01 X59.8 Y25.09 Z255 F3.00 
G01 X59.8 Y24.96 Z255 F3.00 
G01 X59.93 Y24.83 Z255 F3.00 
G01 X60.19 Y24.44 Z255 F3.00 
G01 X60.32 Y24.31 Z255 F3.00 
G01 X60.45 Y24.05 Z255 F3.00 
G01 X60.58 Y23.92 Z255 F3.00 
G01 X60.84 Y23.53 Z255 F3.00 
G01 X60.97 Y23.4 Z255 F3.00 
G01 X62.27 Y22.23 Z255 F3.00 
G01 X62.4 Y22.1 Z255 F3.00 
G01 X62.53 Y22.1 Z255 F3.00 
G01 X63.18 Y22.23 Z255 F3.00 
G01 X63.18 Y22.36 Z255 F3.00 
G01 X63.05 Y22.62 Z255 F3.00 
G01 X63.05 Y22.75 Z255 F3.00 
G01 X62.92 Y23.27 Z255 F3.00 
G01 X62.79 Y23.53 Z255 F3.00 
G01 X62.66 Y24.05 Z255 F3.00 
G01 X62.66 Y24.18 Z255 F3.00 
G01 X62.53 Y24.31 Z255 F3.00 
G01 X62.53 Y24.44 Z255 F3.00 
G01 X62.4 Y24.57 Z255 F3.00 
G01 X62.4 Y24.7 Z255 F3.00 
G01 X62.27 Y24.96 Z255 F3.00 
G01 X62.14 Y25.22 Z255 F3.00 
G01 X62.01 Y25.48 Z255 F3.00 
G01 X62.01 Y25.61 Z255 F3.00 
G01 X61.88 Y25.74 Z255 F3.00 
G01 X61.88 Y25.87 Z255 F3.00 
G01 X61.75 Y26.0 Z255 F3.00 
G01 X61.75 Y26.13 Z255 F3.00 
G01 X61.62 Y26.39 Z255 F3.00 
G01 X61.62 Y26.52 Z255 F3.00 
G01 X61.49 Y26.65 Z255 F3.00 
G01 X61.36 Y26.91 Z255 F3.00 
G01 X61.23 Y27.17 Z255 F3.00 
G01 X61.23 Y27.3 Z255 F3.00 
G01 X61.1 Y27.43 Z255 F3.00 
G01 X61.1 Y27.56 Z255 F3.00 
G01 X60.97 Y27.69 Z255 F3.00 
G01 X60.97 Y27.82 Z255 F3.00 
G01 X60.84 Y27.95 Z255 F3.00 
G01 X60.71 Y28.21 Z255 F3.00 
G01 X60.58 Y28.34 Z255 F3.00 
G01 X60.58 Y28.47 Z255 F3.00 
G01 X60.45 Y28.73 Z255 F3.00 
G01 X60.45 Y28.86 Z255 F3.00 
G01 X60.32 Y28.99 Z255 F3.00 
G01 X60.32 Y29.12 Z255 F3.00 
G01 X60.19 Y29.25 Z255 F3.00 
G01 X60.06 Y29.51 Z255 F3.00 
G01 X59.93 Y29.77 Z255 F3.00 
G01 X59.93 Y29.9 Z255 F3.00 
G01 X59.8 Y30.03 Z255 F3.00 
G01 X59.54 Y30.42 Z255 F3.00 
G01 X59.41 Y30.68 Z255 F3.00 
G01 X59.28 Y30.94 Z255 F3.00 
G01 X59.15 Y31.07 Z255 F3.00 
G01 X59.02 Y31.33 Z255 F3.00 
G01 X58.89 Y31.46 Z255 F3.00 
G01 X58.76 Y31.72 Z255 F3.00 
G01 X58.63 Y31.85 Z255 F3.00 
G01 X58.63 Y31.98 Z255 F3.00 
G01 X58.5 Y32.11 Z255 F3.00 
G01 X58.5 Y32.24 Z255 F3.00 
G01 X58.37 Y32.37 Z255 F3.00 
G01 X57.98 Y32.89 Z255 F3.00 
G01 X57.85 Y33.02 Z255 F3.00 
G01 X57.72 Y33.28 Z255 F3.00 
G01 X57.85 Y34.32 Z255 F3.00 
G01 X57.85 Y34.45 Z255 F3.00 
G01 X57.98 Y34.84 Z255 F3.00 
G01 X57.98 Y34.97 Z255 F3.00 
G01 X58.11 Y35.1 Z255 F3.00 
G01 X58.11 Y35.23 Z255 F3.00 
G01 X58.24 Y35.36 Z255 F3.00 
G01 X58.76 Y35.75 Z255 F3.00 
G01 X59.41 Y35.62 Z255 F3.00 
G01 X59.54 Y35.36 Z255 F3.00 
G01 X59.67 Y35.23 Z255 F3.00 
G01 X59.67 Y35.1 Z255 F3.00 
G01 X59.8 Y34.84 Z255 F3.00 
G01 X59.8 Y34.71 Z255 F3.00 
G01 X59.67 Y33.54 Z255 F3.00 
G01 X59.67 Y33.41 Z255 F3.00 
G01 X59.54 Y33.02 Z255 F3.00 
G01 X59.54 Y32.89 Z255 F3.00 
G01 X59.41 Y32.76 Z255 F3.00 
G01 X59.41 Y32.63 Z255 F3.00 
G01 X59.28 Y32.5 Z255 F3.00 
G01 X59.02 Y32.11 Z255 F3.00 
G01 X59.15 Y31.85 Z255 F3.00 
G01 X59.15 Y31.72 Z255 F3.00 
G01 X59.28 Y31.59 Z255 F3.00 
G01 X59.67 Y31.33 Z255 F3.00 
G01 X60.06 Y31.46 Z255 F3.00 
G01 X60.19 Y31.46 Z255 F3.00 
G01 X61.1 Y31.33 Z255 F3.00 
G01 X61.23 Y31.33 Z255 F3.00 
G01 X61.75 Y31.2 Z255 F3.00 
G01 X61.88 Y31.2 Z255 F3.00 
G01 X62.01 Y31.07 Z255 F3.00 
G01 X62.01 Y30.94 Z255 F3.00 
G01 X62.14 Y30.68 Z255 F3.00 
G01 X62.14 Y30.55 Z255 F3.00 
G01 X62.27 Y30.29 Z255 F3.00 
G01 X62.4 Y30.03 Z255 F3.00 
G01 X62.53 Y29.9 Z255 F3.00 
G01 X63.96 Y28.6 Z255 F3.00 
G01 X64.22 Y28.47 Z255 F3.00 
G01 X64.35 Y28.47 Z255 F3.00 
G01 X64.48 Y28.34 Z255 F3.00 
G01 X64.61 Y28.34 Z255 F3.00 
G01 X65.13 Y28.47 Z255 F3.00 
G01 X65.39 Y28.86 Z255 F3.00 
G01 X65.52 Y28.99 Z255 F3.00 
G01 X65.52 Y29.12 Z255 F3.00 
G01 X65.39 Y29.38 Z255 F3.00 
G01 X65.39 Y29.51 Z255 F3.00 
G01 X65.26 Y29.64 Z255 F3.00 
G01 X65.26 Y29.77 Z255 F3.00 
G01 X65.13 Y29.9 Z255 F3.00 
G01 X65.0 Y30.16 Z255 F3.00 
G01 X64.87 Y30.29 Z255 F3.00 
G01 X64.74 Y30.29 Z255 F3.00 
G01 X64.61 Y30.42 Z255 F3.00 
G01 X64.09 Y30.81 Z255 F3.00 
G01 X63.96 Y30.94 Z255 F3.00 
G01 X63.7 Y31.07 Z255 F3.00 
G01 X63.57 Y31.2 Z255 F3.00 
G01 X63.31 Y31.33 Z255 F3.00 
G01 X63.18 Y31.46 Z255 F3.00 
G01 X63.05 Y31.72 Z255 F3.00 
G01 X63.18 Y31.85 Z255 F3.00 
G01 X63.57 Y32.11 Z255 F3.00 
G01 X64.22 Y31.98 Z255 F3.00 
G01 X64.35 Y31.98 Z255 F3.00 
G01 X64.61 Y31.85 Z255 F3.00 
G01 X64.87 Y31.72 Z255 F3.00 
G01 X65.0 Y31.59 Z255 F3.00 
G01 X65.26 Y31.46 Z255 F3.00 
G01 X65.39 Y31.33 Z255 F3.00 
G01 X65.65 Y31.2 Z255 F3.00 
G01 X65.78 Y31.07 Z255 F3.00 
G01 X66.04 Y30.68 Z255 F3.00 
G01 X66.17 Y30.55 Z255 F3.00 
G01 X66.3 Y30.29 Z255 F3.00 
G01 X66.43 Y30.16 Z255 F3.00 
G01 X66.43 Y30.03 Z255 F3.00 
G01 X66.56 Y29.77 Z255 F3.00 
G01 X67.34 Y29.12 Z255 F3.00 
G01 X67.47 Y29.25 Z255 F3.00 
G01 X67.6 Y29.51 Z255 F3.00 
G01 X67.73 Y30.29 Z255 F3.00 
G01 X67.99 Y30.42 Z255 F3.00 
G01 X68.38 Y30.29 Z255 F3.00 
G01 X68.51 Y30.29 Z255 F3.00 
G01 X68.64 Y30.16 Z255 F3.00 
G01 X68.77 Y30.16 Z255 F3.00 
G01 X69.03 Y30.03 Z255 F3.00 
G01 X69.29 Y29.9 Z255 F3.00 
G01 X69.42 Y29.77 Z255 F3.00 
G01 X69.81 Y29.51 Z255 F3.00 
G01 X69.94 Y29.38 Z255 F3.00 
G01 X70.72 Y28.73 Z255 F3.00 
G01 X70.85 Y28.6 Z255 F3.00 
G01 X71.37 Y28.21 Z255 F3.00 
G01 X71.5 Y28.08 Z255 F3.00 
G01 X71.63 Y28.08 Z255 F3.00 
G01 X71.76 Y28.21 Z255 F3.00 
G01 X71.89 Y28.47 Z255 F3.00 
G01 X72.02 Y28.6 Z255 F3.00 
G01 X72.02 Y28.73 Z255 F3.00 
G01 X72.15 Y28.86 Z255 F3.00 
G01 X72.67 Y29.25 Z255 F3.00 
G01 X72.8 Y29.38 Z255 F3.00 
G01 X72.93 Y29.38 Z255 F3.00 
G01 X73.06 Y29.51 Z255 F3.00 
G01 X73.19 Y29.51 Z255 F3.00 
G01 X73.84 Y29.38 Z255 F3.00 
G01 X73.97 Y29.38 Z255 F3.00 
G01 X74.36 Y29.25 Z255 F3.00 
G01 X74.49 Y29.25 Z255 F3.00 
G01 X74.75 Y29.12 Z255 F3.00 
G01 X74.88 Y29.12 Z255 F3.00 
G01 X75.14 Y28.99 Z255 F3.00 
G01 X75.27 Y28.99 Z255 F3.00 
G01 X75.53 Y29.12 Z255 F3.00 
G01 X75.66 Y28.99 Z255 F3.00 
G01 X75.53 Y28.86 Z255 F3.00 
G01 X75.66 Y28.86 Z255 F3.00 
G01 X75.66 Y28.86 Z255 F3.00 
G00 X75.27 Y29.38 Z0 F50.00 

G01 X75.14 Y29.38 Z255 F3.00 
G01 X75.01 Y29.51 Z255 F3.00 
G01 X74.88 Y29.51 Z255 F3.00 
G01 X74.75 Y29.64 Z255 F3.00 
G01 X74.62 Y29.64 Z255 F3.00 
G01 X74.49 Y29.77 Z255 F3.00 
G01 X74.23 Y29.9 Z255 F3.00 
G01 X73.84 Y30.03 Z255 F3.00 
G01 X73.71 Y30.03 Z255 F3.00 
G01 X73.58 Y30.16 Z255 F3.00 
G01 X73.45 Y30.16 Z255 F3.00 
G01 X73.19 Y30.29 Z255 F3.00 
G01 X73.06 Y30.29 Z255 F3.00 
G01 X71.89 Y30.16 Z255 F3.00 
G01 X71.76 Y30.16 Z255 F3.00 
G01 X71.63 Y30.03 Z255 F3.00 
G01 X71.37 Y29.9 Z255 F3.00 
G01 X71.24 Y29.77 Z255 F3.00 
G01 X71.24 Y29.64 Z255 F3.00 
G01 X71.11 Y29.51 Z255 F3.00 
G01 X70.98 Y29.25 Z255 F3.00 
G01 X70.85 Y28.99 Z255 F3.00 
G01 X70.72 Y29.12 Z255 F3.00 
G01 X70.07 Y29.64 Z255 F3.00 
G01 X69.94 Y29.77 Z255 F3.00 
G01 X69.81 Y30.03 Z255 F3.00 
G01 X69.68 Y30.16 Z255 F3.00 
G01 X69.55 Y30.16 Z255 F3.00 
G01 X69.42 Y30.29 Z255 F3.00 
G01 X69.16 Y30.42 Z255 F3.00 
G01 X69.03 Y30.55 Z255 F3.00 
G01 X68.9 Y30.55 Z255 F3.00 
G01 X68.77 Y30.68 Z255 F3.00 
G01 X68.77 Y30.81 Z255 F3.00 
G01 X68.77 Y30.81 Z255 F3.00 
G00 X68.38 Y30.94 Z0 F50.00 

G01 X68.25 Y30.94 Z255 F3.00 
G01 X68.12 Y31.07 Z255 F3.00 
G01 X67.99 Y31.07 Z255 F3.00 
G01 X67.73 Y31.2 Z255 F3.00 
G01 X67.6 Y31.2 Z255 F3.00 
G01 X66.82 Y31.07 Z255 F3.00 
G01 X66.43 Y30.94 Z255 F3.00 
G01 X66.43 Y31.07 Z255 F3.00 
G01 X66.3 Y31.2 Z255 F3.00 
G01 X65.78 Y31.59 Z255 F3.00 
G01 X65.65 Y31.72 Z255 F3.00 
G01 X65.26 Y31.98 Z255 F3.00 
G01 X65.13 Y32.11 Z255 F3.00 
G01 X65.0 Y32.11 Z255 F3.00 
G01 X64.87 Y32.24 Z255 F3.00 
G01 X64.48 Y32.5 Z255 F3.00 
G01 X64.35 Y32.63 Z255 F3.00 
G01 X64.09 Y32.76 Z255 F3.00 
G01 X63.96 Y32.89 Z255 F3.00 
G01 X63.83 Y32.89 Z255 F3.00 
G01 X63.44 Y33.02 Z255 F3.00 
G01 X63.31 Y33.02 Z255 F3.00 
G01 X63.05 Y32.89 Z255 F3.00 
G01 X62.92 Y32.89 Z255 F3.00 
G01 X62.66 Y32.76 Z255 F3.00 
G01 X62.53 Y32.76 Z255 F3.00 
G01 X62.27 Y32.63 Z255 F3.00 
G01 X62.14 Y32.37 Z255 F3.00 
G01 X62.01 Y32.24 Z255 F3.00 
G01 X62.01 Y32.11 Z255 F3.00 
G01 X61.88 Y31.98 Z255 F3.00 
G01 X61.75 Y32.11 Z255 F3.00 
G01 X61.62 Y32.11 Z255 F3.00 
G01 X61.1 Y32.24 Z255 F3.00 
G01 X60.97 Y32.24 Z255 F3.00 
G01 X60.45 Y32.37 Z255 F3.00 
G01 X60.45 Y32.5 Z255 F3.00 
G01 X60.58 Y32.89 Z255 F3.00 
G01 X60.58 Y33.02 Z255 F3.00 
G01 X60.71 Y33.41 Z255 F3.00 
G01 X60.58 Y33.54 Z255 F3.00 
G01 X60.58 Y33.67 Z255 F3.00 
G01 X60.45 Y34.97 Z255 F3.00 
G01 X60.32 Y35.23 Z255 F3.00 
G01 X60.19 Y35.49 Z255 F3.00 
G01 X60.06 Y35.75 Z255 F3.00 
G01 X59.93 Y35.88 Z255 F3.00 
G01 X59.54 Y36.14 Z255 F3.00 
G01 X59.41 Y36.27 Z255 F3.00 
G01 X59.28 Y36.27 Z255 F3.00 
G01 X59.15 Y36.4 Z255 F3.00 
G01 X58.89 Y36.53 Z255 F3.00 
G01 X58.76 Y36.66 Z255 F3.00 
G01 X58.63 Y36.66 Z255 F3.00 
G01 X58.24 Y36.53 Z255 F3.00 
G01 X58.11 Y36.53 Z255 F3.00 
G01 X57.98 Y36.4 Z255 F3.00 
G01 X57.85 Y36.4 Z255 F3.00 
G01 X57.72 Y36.27 Z255 F3.00 
G01 X57.46 Y35.88 Z255 F3.00 
G01 X57.33 Y35.75 Z255 F3.00 
G01 X57.2 Y35.75 Z255 F3.00 
G01 X57.07 Y35.62 Z255 F3.00 
G01 X57.07 Y35.49 Z255 F3.00 
G01 X56.94 Y35.23 Z255 F3.00 
G01 X56.94 Y35.1 Z255 F3.00 
G01 X56.81 Y34.97 Z255 F3.00 
G01 X56.81 Y34.84 Z255 F3.00 
G01 X56.68 Y34.71 Z255 F3.00 
G01 X56.55 Y34.84 Z255 F3.00 
G01 X56.42 Y34.84 Z255 F3.00 
G01 X56.29 Y34.97 Z255 F3.00 
G01 X56.29 Y35.1 Z255 F3.00 
G01 X56.16 Y35.23 Z255 F3.00 
G01 X54.21 Y37.05 Z255 F3.00 
G01 X54.08 Y37.18 Z255 F3.00 
G01 X53.82 Y37.57 Z255 F3.00 
G01 X53.69 Y37.7 Z255 F3.00 
G01 X53.56 Y37.7 Z255 F3.00 
G01 X53.43 Y37.83 Z255 F3.00 
G01 X53.04 Y38.09 Z255 F3.00 
G01 X52.91 Y38.22 Z255 F3.00 
G01 X52.78 Y38.22 Z255 F3.00 
G01 X52.52 Y38.35 Z255 F3.00 
G01 X52.39 Y38.35 Z255 F3.00 
G01 X51.61 Y38.22 Z255 F3.00 
G01 X51.22 Y37.7 Z255 F3.00 
G01 X51.09 Y37.57 Z255 F3.00 
G01 X51.09 Y37.57 Z255 F3.00 
G00 X53.04 Y35.62 Z0 F50.00 

G01 X53.43 Y35.1 Z255 F3.00 
G01 X53.56 Y34.97 Z255 F3.00 
G01 X53.69 Y34.71 Z255 F3.00 
G01 X53.82 Y34.58 Z255 F3.00 
G01 X53.82 Y34.45 Z255 F3.00 
G01 X53.95 Y34.32 Z255 F3.00 
G01 X53.82 Y34.19 Z255 F3.00 
G01 X53.69 Y34.32 Z255 F3.00 
G01 X53.43 Y34.71 Z255 F3.00 
G01 X53.3 Y34.84 Z255 F3.00 
G01 X53.04 Y35.23 Z255 F3.00 
G01 X52.91 Y35.36 Z255 F3.00 
G01 X52.78 Y35.62 Z255 F3.00 
G01 X52.78 Y35.62 Z255 F3.00 
G00 X52.13 Y43.29 Z0 F50.00 

G01 X52.0 Y43.16 Z255 F3.00 
G01 X51.87 Y43.29 Z255 F3.00 
G01 X51.74 Y43.29 Z255 F3.00 
G01 X51.61 Y43.42 Z255 F3.00 
G01 X51.48 Y43.42 Z255 F3.00 
G01 X51.35 Y43.42 Z255 F3.00 
G00 X51.61 Y43.68 Z0 F50.00 

G01 X51.87 Y43.55 Z255 F3.00 
G01 X52.0 Y43.55 Z255 F3.00 
G01 X52.13 Y43.42 Z255 F3.00 
G01 X52.13 Y43.42 Z255 F3.00 
G00 X53.43 Y46.67 Z0 F50.00 

G01 X52.91 Y47.32 Z255 F3.00 
G01 X52.78 Y47.45 Z255 F3.00 
G01 X52.78 Y47.58 Z255 F3.00 
G01 X52.65 Y47.71 Z255 F3.00 
G01 X52.65 Y47.84 Z255 F3.00 
G01 X52.52 Y47.97 Z255 F3.00 
G01 X52.52 Y48.1 Z255 F3.00 
G01 X52.39 Y48.36 Z255 F3.00 
G01 X52.39 Y48.49 Z255 F3.00 
G01 X52.52 Y50.31 Z255 F3.00 
G01 X52.52 Y50.44 Z255 F3.00 
G01 X52.65 Y50.7 Z255 F3.00 
G01 X52.65 Y50.83 Z255 F3.00 
G01 X52.78 Y50.96 Z255 F3.00 
G01 X52.91 Y51.22 Z255 F3.00 
G01 X53.04 Y51.35 Z255 F3.00 
G01 X53.43 Y51.61 Z255 F3.00 
G01 X53.56 Y51.74 Z255 F3.00 
G01 X53.95 Y52.0 Z255 F3.00 
G01 X54.08 Y52.13 Z255 F3.00 
G01 X54.34 Y52.26 Z255 F3.00 
G01 X54.47 Y52.39 Z255 F3.00 
G01 X54.6 Y52.39 Z255 F3.00 
G01 X54.73 Y52.52 Z255 F3.00 
G01 X54.86 Y52.52 Z255 F3.00 
G01 X54.99 Y52.65 Z255 F3.00 
G01 X55.12 Y52.65 Z255 F3.00 
G01 X55.25 Y52.78 Z255 F3.00 
G01 X55.38 Y52.78 Z255 F3.00 
G01 X55.51 Y52.91 Z255 F3.00 
G01 X55.64 Y52.91 Z255 F3.00 
G01 X55.77 Y53.04 Z255 F3.00 
G01 X55.9 Y53.04 Z255 F3.00 
G01 X56.03 Y53.17 Z255 F3.00 
G01 X56.16 Y53.17 Z255 F3.00 
G01 X56.29 Y53.3 Z255 F3.00 
G01 X56.42 Y53.3 Z255 F3.00 
G01 X56.55 Y53.43 Z255 F3.00 
G01 X56.81 Y53.56 Z255 F3.00 
G01 X56.94 Y53.69 Z255 F3.00 
G01 X57.33 Y54.21 Z255 F3.00 
G01 X57.46 Y54.34 Z255 F3.00 
G01 X57.46 Y54.47 Z255 F3.00 
G01 X57.59 Y54.73 Z255 F3.00 
G01 X57.59 Y54.86 Z255 F3.00 
G01 X57.46 Y55.51 Z255 F3.00 
G01 X57.46 Y55.64 Z255 F3.00 
G01 X57.33 Y55.9 Z255 F3.00 
G01 X57.33 Y56.03 Z255 F3.00 
G01 X57.2 Y56.16 Z255 F3.00 
G01 X56.94 Y56.29 Z255 F3.00 
G01 X56.81 Y56.42 Z255 F3.00 
G01 X56.68 Y56.42 Z255 F3.00 
G01 X56.55 Y56.55 Z255 F3.00 
G01 X56.42 Y56.55 Z255 F3.00 
G01 X54.86 Y56.42 Z255 F3.00 
G01 X54.73 Y56.42 Z255 F3.00 
G01 X54.47 Y56.29 Z255 F3.00 
G01 X54.34 Y56.29 Z255 F3.00 
G01 X54.08 Y56.16 Z255 F3.00 
G01 X53.95 Y56.16 Z255 F3.00 
G01 X53.82 Y56.03 Z255 F3.00 
G01 X53.69 Y56.03 Z255 F3.00 
G01 X53.56 Y55.9 Z255 F3.00 
G01 X53.43 Y55.9 Z255 F3.00 
G01 X53.3 Y55.77 Z255 F3.00 
G01 X53.17 Y55.77 Z255 F3.00 
G01 X53.04 Y55.64 Z255 F3.00 
G01 X52.91 Y55.77 Z255 F3.00 
G01 X52.78 Y56.03 Z255 F3.00 
G01 X52.65 Y56.29 Z255 F3.00 
G01 X52.65 Y56.42 Z255 F3.00 
G01 X52.52 Y56.55 Z255 F3.00 
G01 X52.52 Y56.68 Z255 F3.00 
G01 X52.39 Y56.94 Z255 F3.00 
G01 X52.39 Y57.07 Z255 F3.00 
G01 X52.26 Y57.33 Z255 F3.00 
G01 X52.26 Y57.46 Z255 F3.00 
G01 X52.39 Y57.72 Z255 F3.00 
G01 X52.52 Y57.72 Z255 F3.00 
G01 X52.65 Y57.85 Z255 F3.00 
G01 X52.78 Y57.85 Z255 F3.00 
G01 X52.91 Y57.98 Z255 F3.00 
G01 X53.04 Y57.98 Z255 F3.00 
G01 X53.17 Y58.11 Z255 F3.00 
G01 X53.3 Y58.11 Z255 F3.00 
G01 X53.69 Y58.24 Z255 F3.00 
G01 X53.82 Y58.24 Z255 F3.00 
G01 X54.21 Y58.37 Z255 F3.00 
G01 X54.34 Y58.37 Z255 F3.00 
G01 X54.86 Y58.5 Z255 F3.00 
G01 X54.99 Y58.5 Z255 F3.00 
G01 X57.07 Y58.37 Z255 F3.00 
G01 X57.2 Y58.37 Z255 F3.00 
G01 X57.59 Y58.24 Z255 F3.00 
G01 X57.72 Y58.24 Z255 F3.00 
G01 X57.85 Y58.11 Z255 F3.00 
G01 X57.98 Y58.11 Z255 F3.00 
G01 X58.11 Y57.98 Z255 F3.00 
G01 X58.24 Y57.98 Z255 F3.00 
G01 X58.37 Y57.85 Z255 F3.00 
G01 X58.76 Y57.59 Z255 F3.00 
G01 X58.89 Y57.46 Z255 F3.00 
G01 X59.02 Y57.2 Z255 F3.00 
G01 X59.15 Y57.07 Z255 F3.00 
G01 X59.28 Y56.81 Z255 F3.00 
G01 X59.41 Y56.68 Z255 F3.00 
G01 X59.41 Y56.55 Z255 F3.00 
G01 X59.54 Y56.42 Z255 F3.00 
G01 X59.54 Y56.29 Z255 F3.00 
G01 X59.67 Y56.16 Z255 F3.00 
G01 X59.67 Y56.03 Z255 F3.00 
G01 X59.8 Y55.64 Z255 F3.00 
G01 X59.8 Y55.51 Z255 F3.00 
G01 X59.67 Y53.95 Z255 F3.00 
G01 X59.67 Y53.82 Z255 F3.00 
G01 X59.54 Y53.43 Z255 F3.00 
G01 X59.54 Y53.3 Z255 F3.00 
G01 X59.41 Y53.17 Z255 F3.00 
G01 X59.41 Y53.04 Z255 F3.00 
G01 X59.28 Y52.91 Z255 F3.00 
G01 X59.28 Y52.78 Z255 F3.00 
G01 X59.15 Y52.65 Z255 F3.00 
G01 X58.24 Y51.87 Z255 F3.00 
G01 X58.11 Y51.74 Z255 F3.00 
G01 X57.85 Y51.61 Z255 F3.00 
G01 X57.72 Y51.48 Z255 F3.00 
G01 X57.59 Y51.48 Z255 F3.00 
G01 X57.46 Y51.35 Z255 F3.00 
G01 X57.2 Y51.22 Z255 F3.00 
G01 X57.07 Y51.09 Z255 F3.00 
G01 X56.94 Y51.09 Z255 F3.00 
G01 X56.81 Y50.96 Z255 F3.00 
G01 X56.68 Y50.96 Z255 F3.00 
G01 X56.55 Y50.83 Z255 F3.00 
G01 X56.42 Y50.83 Z255 F3.00 
G01 X56.29 Y50.7 Z255 F3.00 
G01 X56.16 Y50.7 Z255 F3.00 
G01 X56.03 Y50.57 Z255 F3.00 
G01 X55.9 Y50.57 Z255 F3.00 
G01 X55.77 Y50.44 Z255 F3.00 
G01 X55.64 Y50.44 Z255 F3.00 
G01 X55.51 Y50.31 Z255 F3.00 
G01 X55.38 Y50.31 Z255 F3.00 
G01 X55.25 Y50.18 Z255 F3.00 
G01 X54.73 Y49.53 Z255 F3.00 
G01 X54.6 Y49.4 Z255 F3.00 
G01 X54.6 Y49.27 Z255 F3.00 
G01 X54.73 Y48.62 Z255 F3.00 
G01 X54.73 Y48.49 Z255 F3.00 
G01 X54.86 Y48.36 Z255 F3.00 
G01 X54.86 Y48.23 Z255 F3.00 
G01 X54.99 Y48.1 Z255 F3.00 
G01 X55.25 Y47.97 Z255 F3.00 
G01 X55.38 Y47.84 Z255 F3.00 
G01 X55.51 Y47.84 Z255 F3.00 
G01 X55.77 Y47.71 Z255 F3.00 
G01 X55.9 Y47.71 Z255 F3.00 
G01 X57.07 Y47.84 Z255 F3.00 
G01 X57.2 Y47.84 Z255 F3.00 
G01 X57.59 Y47.97 Z255 F3.00 
G01 X57.72 Y47.97 Z255 F3.00 
G01 X57.85 Y48.1 Z255 F3.00 
G01 X57.98 Y48.1 Z255 F3.00 
G01 X58.11 Y48.23 Z255 F3.00 
G01 X58.24 Y48.23 Z255 F3.00 
G01 X58.5 Y48.36 Z255 F3.00 
G01 X58.63 Y48.36 Z255 F3.00 
G01 X58.76 Y48.49 Z255 F3.00 
G01 X58.89 Y48.36 Z255 F3.00 
G01 X59.02 Y48.1 Z255 F3.00 
G01 X59.15 Y47.97 Z255 F3.00 
G01 X59.15 Y47.84 Z255 F3.00 
G01 X59.28 Y47.71 Z255 F3.00 
G01 X59.28 Y47.58 Z255 F3.00 
G01 X59.41 Y47.45 Z255 F3.00 
G01 X59.41 Y47.32 Z255 F3.00 
G01 X59.54 Y47.19 Z255 F3.00 
G01 X59.54 Y47.06 Z255 F3.00 
G01 X59.41 Y46.67 Z255 F3.00 
G01 X59.15 Y46.54 Z255 F3.00 
G01 X59.02 Y46.41 Z255 F3.00 
G01 X58.89 Y46.41 Z255 F3.00 
G01 X58.76 Y46.28 Z255 F3.00 
G01 X58.63 Y46.28 Z255 F3.00 
G01 X58.37 Y46.15 Z255 F3.00 
G01 X58.24 Y46.15 Z255 F3.00 
G01 X57.98 Y46.02 Z255 F3.00 
G01 X57.85 Y46.02 Z255 F3.00 
G01 X57.33 Y45.89 Z255 F3.00 
G01 X57.2 Y45.89 Z255 F3.00 
G01 X54.99 Y46.02 Z255 F3.00 
G01 X54.86 Y46.02 Z255 F3.00 
G01 X54.47 Y46.15 Z255 F3.00 
G01 X54.34 Y46.15 Z255 F3.00 
G01 X54.21 Y46.28 Z255 F3.00 
G01 X54.08 Y46.28 Z255 F3.00 
G01 X53.95 Y46.41 Z255 F3.00 
G01 X53.82 Y46.41 Z255 F3.00 
G01 X53.69 Y46.54 Z255 F3.00 
G01 X53.69 Y46.54 Z255 F3.00 
G00 X62.01 Y50.7 Z0 F50.00 

G01 X63.05 Y49.79 Z255 F3.00 
G01 X63.18 Y49.66 Z255 F3.00 
G01 X63.31 Y49.66 Z255 F3.00 
G01 X63.44 Y49.53 Z255 F3.00 
G01 X63.57 Y49.53 Z255 F3.00 
G01 X63.83 Y49.4 Z255 F3.00 
G01 X63.96 Y49.4 Z255 F3.00 
G01 X64.22 Y49.27 Z255 F3.00 
G01 X64.35 Y49.27 Z255 F3.00 
G01 X66.17 Y49.4 Z255 F3.00 
G01 X66.3 Y49.4 Z255 F3.00 
G01 X66.69 Y49.53 Z255 F3.00 
G01 X66.82 Y49.53 Z255 F3.00 
G01 X66.95 Y49.66 Z255 F3.00 
G01 X67.08 Y49.66 Z255 F3.00 
G01 X67.34 Y49.79 Z255 F3.00 
G01 X67.6 Y50.31 Z255 F3.00 
G01 X67.6 Y50.44 Z255 F3.00 
G01 X67.47 Y50.57 Z255 F3.00 
G01 X67.47 Y50.7 Z255 F3.00 
G01 X67.34 Y50.83 Z255 F3.00 
G01 X67.34 Y50.96 Z255 F3.00 
G01 X67.21 Y51.09 Z255 F3.00 
G01 X67.21 Y51.22 Z255 F3.00 
G01 X67.08 Y51.35 Z255 F3.00 
G01 X67.08 Y51.48 Z255 F3.00 
G01 X66.95 Y51.61 Z255 F3.00 
G01 X66.82 Y51.61 Z255 F3.00 
G01 X66.69 Y51.48 Z255 F3.00 
G01 X66.56 Y51.48 Z255 F3.00 
G01 X66.43 Y51.35 Z255 F3.00 
G01 X66.17 Y51.22 Z255 F3.00 
G01 X66.04 Y51.09 Z255 F3.00 
G01 X65.91 Y51.09 Z255 F3.00 
G01 X65.78 Y50.96 Z255 F3.00 
G01 X65.65 Y50.96 Z255 F3.00 
G01 X64.48 Y51.09 Z255 F3.00 
G01 X64.35 Y51.09 Z255 F3.00 
G01 X64.22 Y51.22 Z255 F3.00 
G01 X63.7 Y51.87 Z255 F3.00 
G01 X63.57 Y52.13 Z255 F3.00 
G01 X63.57 Y52.26 Z255 F3.00 
G01 X63.44 Y52.52 Z255 F3.00 
G01 X63.44 Y52.65 Z255 F3.00 
G01 X63.31 Y53.3 Z255 F3.00 
G01 X63.31 Y53.43 Z255 F3.00 
G01 X63.44 Y54.73 Z255 F3.00 
G01 X63.44 Y54.86 Z255 F3.00 
G01 X63.57 Y55.51 Z255 F3.00 
G01 X63.57 Y55.64 Z255 F3.00 
G01 X63.7 Y55.9 Z255 F3.00 
G01 X63.7 Y56.03 Z255 F3.00 
G01 X63.83 Y56.16 Z255 F3.00 
G01 X63.83 Y56.29 Z255 F3.00 
G01 X63.96 Y56.42 Z255 F3.00 
G01 X64.35 Y56.68 Z255 F3.00 
G01 X64.48 Y56.81 Z255 F3.00 
G01 X64.61 Y56.81 Z255 F3.00 
G01 X64.87 Y56.94 Z255 F3.00 
G01 X65.0 Y56.94 Z255 F3.00 
G01 X65.65 Y56.81 Z255 F3.00 
G01 X65.78 Y56.81 Z255 F3.00 
G01 X66.04 Y56.68 Z255 F3.00 
G01 X66.17 Y56.68 Z255 F3.00 
G01 X66.43 Y56.55 Z255 F3.00 
G01 X66.69 Y56.42 Z255 F3.00 
G01 X66.82 Y56.29 Z255 F3.00 
G01 X66.95 Y56.42 Z255 F3.00 
G01 X67.08 Y56.68 Z255 F3.00 
G01 X67.21 Y56.94 Z255 F3.00 
G01 X67.21 Y57.07 Z255 F3.00 
G01 X67.34 Y57.2 Z255 F3.00 
G01 X67.34 Y57.33 Z255 F3.00 
G01 X67.47 Y57.59 Z255 F3.00 
G01 X67.47 Y57.72 Z255 F3.00 
G01 X67.34 Y57.85 Z255 F3.00 
G01 X66.95 Y58.11 Z255 F3.00 
G01 X66.82 Y58.24 Z255 F3.00 
G01 X66.69 Y58.24 Z255 F3.00 
G01 X66.56 Y58.37 Z255 F3.00 
G01 X66.43 Y58.37 Z255 F3.00 
G01 X66.17 Y58.5 Z255 F3.00 
G01 X66.04 Y58.5 Z255 F3.00 
G01 X65.39 Y58.63 Z255 F3.00 
G01 X65.26 Y58.63 Z255 F3.00 
G01 X64.22 Y58.5 Z255 F3.00 
G01 X64.09 Y58.5 Z255 F3.00 
G01 X63.57 Y58.37 Z255 F3.00 
G01 X63.44 Y58.37 Z255 F3.00 
G01 X63.18 Y58.24 Z255 F3.00 
G01 X63.05 Y58.24 Z255 F3.00 
G01 X62.92 Y58.11 Z255 F3.00 
G01 X62.79 Y58.11 Z255 F3.00 
G01 X62.66 Y57.98 Z255 F3.00 
G01 X61.88 Y57.07 Z255 F3.00 
G01 X61.75 Y56.94 Z255 F3.00 
G01 X61.62 Y56.68 Z255 F3.00 
G01 X61.49 Y56.55 Z255 F3.00 
G01 X61.49 Y56.42 Z255 F3.00 
G01 X61.36 Y56.16 Z255 F3.00 
G01 X61.36 Y56.03 Z255 F3.00 
G01 X61.23 Y55.77 Z255 F3.00 
G01 X61.23 Y55.64 Z255 F3.00 
G01 X61.1 Y55.12 Z255 F3.00 
G01 X61.1 Y54.99 Z255 F3.00 
G01 X61.23 Y52.91 Z255 F3.00 
G01 X61.23 Y52.78 Z255 F3.00 
G01 X61.36 Y52.26 Z255 F3.00 
G01 X61.36 Y52.13 Z255 F3.00 
G01 X61.49 Y51.87 Z255 F3.00 
G01 X61.49 Y51.74 Z255 F3.00 
G01 X61.62 Y51.48 Z255 F3.00 
G01 X61.62 Y51.35 Z255 F3.00 
G01 X61.75 Y51.22 Z255 F3.00 
G01 X61.75 Y51.09 Z255 F3.00 
G01 X61.88 Y50.96 Z255 F3.00 
G01 X61.88 Y50.96 Z255 F3.00 
G00 X69.16 Y51.09 Z0 F50.00 

G01 X69.29 Y58.24 Z255 F3.00 
G01 X69.42 Y58.24 Z255 F3.00 
G01 X71.37 Y58.11 Z255 F3.00 
G01 X71.37 Y58.24 Z255 F3.00 
G01 X71.37 Y58.24 Z255 F3.00 
G00 X71.37 Y57.85 Z0 F50.00 

G01 X71.5 Y51.61 Z255 F3.00 
G01 X71.89 Y51.35 Z255 F3.00 
G01 X72.02 Y51.22 Z255 F3.00 
G01 X72.28 Y51.09 Z255 F3.00 
G01 X72.54 Y50.96 Z255 F3.00 
G01 X72.67 Y50.96 Z255 F3.00 
G01 X73.45 Y51.09 Z255 F3.00 
G01 X73.58 Y51.09 Z255 F3.00 
G01 X73.71 Y51.22 Z255 F3.00 
G01 X73.84 Y51.48 Z255 F3.00 
G01 X73.97 Y51.74 Z255 F3.00 
G01 X73.97 Y51.87 Z255 F3.00 
G01 X74.1 Y58.24 Z255 F3.00 
G01 X74.23 Y58.24 Z255 F3.00 
G01 X76.18 Y58.11 Z255 F3.00 
G01 X76.18 Y58.24 Z255 F3.00 
G01 X76.18 Y58.24 Z255 F3.00 
G00 X76.18 Y57.85 Z0 F50.00 

G01 X76.05 Y50.96 Z255 F3.00 
G01 X76.05 Y50.83 Z255 F3.00 
G01 X75.92 Y50.44 Z255 F3.00 
G01 X75.92 Y50.31 Z255 F3.00 
G01 X75.79 Y50.18 Z255 F3.00 
G01 X75.79 Y50.05 Z255 F3.00 
G01 X75.66 Y49.92 Z255 F3.00 
G01 X75.27 Y49.66 Z255 F3.00 
G01 X75.14 Y49.53 Z255 F3.00 
G01 X74.88 Y49.4 Z255 F3.00 
G01 X74.62 Y49.27 Z255 F3.00 
G01 X74.49 Y49.27 Z255 F3.00 
G01 X72.93 Y49.4 Z255 F3.00 
G01 X72.8 Y49.4 Z255 F3.00 
G01 X72.54 Y49.53 Z255 F3.00 
G01 X72.41 Y49.53 Z255 F3.00 
G01 X72.28 Y49.66 Z255 F3.00 
G01 X72.15 Y49.66 Z255 F3.00 
G01 X72.02 Y49.79 Z255 F3.00 
G01 X71.76 Y49.92 Z255 F3.00 
G01 X71.63 Y50.05 Z255 F3.00 
G01 X71.37 Y50.05 Z255 F3.00 
G01 X71.37 Y49.92 Z255 F3.00 
G01 X71.24 Y45.37 Z255 F3.00 
G01 X71.11 Y45.37 Z255 F3.00 
G01 X70.85 Y45.5 Z255 F3.00 
G01 X70.72 Y45.5 Z255 F3.00 
G01 X70.2 Y45.63 Z255 F3.00 
G01 X70.07 Y45.63 Z255 F3.00 
G01 X69.68 Y45.76 Z255 F3.00 
G01 X69.55 Y45.76 Z255 F3.00 
G01 X69.16 Y45.89 Z255 F3.00 
G01 X69.16 Y46.02 Z255 F3.00 
G01 X69.16 Y50.83 Z255 F3.00 
G00 X78.78 Y57.2 Z0 F50.00 

G01 X78.78 Y57.33 Z255 F3.00 
G01 X78.91 Y57.59 Z255 F3.00 
G01 X78.91 Y57.72 Z255 F3.00 
G01 X79.04 Y57.85 Z255 F3.00 
G01 X79.69 Y58.37 Z255 F3.00 
G01 X79.82 Y58.5 Z255 F3.00 
G01 X79.95 Y58.5 Z255 F3.00 
G01 X80.34 Y58.63 Z255 F3.00 
G01 X80.47 Y58.63 Z255 F3.00 
G01 X81.38 Y58.5 Z255 F3.00 
G01 X81.51 Y58.5 Z255 F3.00 
G01 X82.03 Y58.37 Z255 F3.00 
G01 X82.16 Y58.37 Z255 F3.00 
G01 X82.42 Y58.24 Z255 F3.00 
G01 X82.55 Y58.24 Z255 F3.00 
G01 X82.55 Y58.24 Z255 F3.00 
G00 X82.42 Y57.85 Z0 F50.00 

G01 X82.42 Y57.72 Z255 F3.00 
G01 X82.29 Y57.33 Z255 F3.00 
G01 X82.29 Y57.2 Z255 F3.00 
G01 X82.16 Y56.81 Z255 F3.00 
G01 X82.16 Y56.68 Z255 F3.00 
G01 X82.03 Y56.55 Z255 F3.00 
G01 X82.16 Y56.55 Z255 F3.00 
G01 X82.16 Y56.55 Z255 F3.00 
G00 X81.77 Y56.55 Z0 F50.00 

G01 X80.99 Y56.42 Z255 F3.00 
G01 X80.86 Y56.16 Z255 F3.00 
G01 X80.73 Y45.63 Z255 F3.00 
G01 X80.73 Y45.5 Z255 F3.00 
G01 X80.6 Y45.37 Z255 F3.00 
G01 X80.73 Y45.37 Z255 F3.00 
G01 X80.73 Y45.37 Z255 F3.00 
G00 X80.34 Y45.5 Z0 F50.00 

G01 X80.21 Y45.5 Z255 F3.00 
G01 X79.69 Y45.63 Z255 F3.00 
G01 X79.56 Y45.63 Z255 F3.00 
G01 X79.04 Y45.76 Z255 F3.00 
G01 X78.91 Y45.76 Z255 F3.00 
G01 X78.65 Y45.89 Z255 F3.00 
G01 X78.65 Y46.02 Z255 F3.00 
G01 X78.65 Y56.94 Z255 F3.00 
G00 X83.33 Y55.9 Z0 F50.00 

G01 X83.33 Y56.03 Z255 F3.00 
G01 X83.46 Y56.29 Z255 F3.00 
G01 X83.46 Y56.42 Z255 F3.00 
G01 X83.59 Y56.55 Z255 F3.00 
G01 X83.59 Y56.68 Z255 F3.00 
G01 X83.72 Y56.81 Z255 F3.00 
G01 X83.72 Y56.94 Z255 F3.00 
G01 X83.85 Y57.07 Z255 F3.00 
G01 X83.98 Y57.33 Z255 F3.00 
G01 X84.11 Y57.46 Z255 F3.00 
G01 X84.76 Y57.98 Z255 F3.00 
G01 X84.89 Y58.11 Z255 F3.00 
G01 X85.02 Y58.11 Z255 F3.00 
G01 X85.15 Y58.24 Z255 F3.00 
G01 X85.28 Y58.24 Z255 F3.00 
G01 X85.41 Y58.37 Z255 F3.00 
G01 X85.54 Y58.37 Z255 F3.00 
G01 X85.8 Y58.5 Z255 F3.00 
G01 X85.93 Y58.5 Z255 F3.00 
G01 X86.45 Y58.63 Z255 F3.00 
G01 X86.58 Y58.63 Z255 F3.00 
G01 X87.49 Y58.5 Z255 F3.00 
G01 X87.62 Y58.5 Z255 F3.00 
G01 X88.14 Y58.37 Z255 F3.00 
G01 X88.27 Y58.37 Z255 F3.00 
G01 X88.53 Y58.24 Z255 F3.00 
G01 X88.66 Y58.24 Z255 F3.00 
G01 X88.79 Y58.11 Z255 F3.00 
G01 X88.92 Y58.11 Z255 F3.00 
G01 X89.05 Y57.98 Z255 F3.00 
G01 X89.44 Y57.72 Z255 F3.00 
G01 X89.57 Y57.59 Z255 F3.00 
G01 X89.57 Y57.46 Z255 F3.00 
G01 X89.7 Y57.33 Z255 F3.00 
G01 X89.96 Y56.94 Z255 F3.00 
G01 X90.09 Y56.81 Z255 F3.00 
G01 X90.09 Y56.68 Z255 F3.00 
G01 X90.22 Y56.55 Z255 F3.00 
G01 X90.22 Y56.42 Z255 F3.00 
G01 X90.35 Y56.29 Z255 F3.00 
G01 X90.35 Y56.16 Z255 F3.00 
G01 X90.48 Y56.03 Z255 F3.00 
G01 X90.48 Y55.9 Z255 F3.00 
G01 X90.61 Y55.51 Z255 F3.00 
G01 X90.61 Y55.38 Z255 F3.00 
G01 X90.74 Y54.86 Z255 F3.00 
G01 X90.74 Y54.73 Z255 F3.00 
G01 X90.61 Y52.78 Z255 F3.00 
G01 X90.61 Y52.65 Z255 F3.00 
G01 X90.48 Y52.13 Z255 F3.00 
G01 X90.48 Y52.0 Z255 F3.00 
G01 X90.35 Y51.61 Z255 F3.00 
G01 X90.35 Y51.48 Z255 F3.00 
G01 X90.22 Y51.35 Z255 F3.00 
G01 X90.22 Y51.22 Z255 F3.00 
G01 X90.09 Y51.09 Z255 F3.00 
G01 X90.09 Y50.96 Z255 F3.00 
G01 X89.96 Y50.83 Z255 F3.00 
G01 X89.96 Y50.7 Z255 F3.00 
G01 X89.83 Y50.57 Z255 F3.00 
G01 X88.92 Y49.79 Z255 F3.00 
G01 X88.79 Y49.66 Z255 F3.00 
G01 X88.66 Y49.66 Z255 F3.00 
G01 X88.53 Y49.53 Z255 F3.00 
G01 X88.4 Y49.53 Z255 F3.00 
G01 X88.27 Y49.4 Z255 F3.00 
G01 X88.14 Y49.4 Z255 F3.00 
G01 X87.88 Y49.27 Z255 F3.00 
G01 X87.75 Y49.27 Z255 F3.00 
G01 X85.8 Y49.4 Z255 F3.00 
G01 X85.67 Y49.4 Z255 F3.00 
G01 X85.41 Y49.53 Z255 F3.00 
G01 X85.28 Y49.53 Z255 F3.00 
G01 X85.15 Y49.66 Z255 F3.00 
G01 X85.02 Y49.66 Z255 F3.00 
G01 X84.89 Y49.79 Z255 F3.00 
G01 X84.76 Y49.79 Z255 F3.00 
G01 X84.63 Y49.92 Z255 F3.00 
G01 X83.85 Y50.83 Z255 F3.00 
G01 X83.72 Y50.96 Z255 F3.00 
G01 X83.72 Y51.09 Z255 F3.00 
G01 X83.59 Y51.22 Z255 F3.00 
G01 X83.59 Y51.35 Z255 F3.00 
G01 X83.46 Y51.48 Z255 F3.00 
G01 X83.46 Y51.61 Z255 F3.00 
G01 X83.33 Y51.74 Z255 F3.00 
G01 X83.33 Y51.87 Z255 F3.00 
G01 X83.2 Y52.13 Z255 F3.00 
G01 X83.2 Y52.26 Z255 F3.00 
G01 X83.07 Y52.78 Z255 F3.00 
G01 X83.07 Y52.91 Z255 F3.00 
G01 X83.2 Y55.25 Z255 F3.00 
G01 X83.2 Y55.38 Z255 F3.00 
G01 X83.2 Y55.64 Z255 F3.00 
G00 X85.54 Y55.51 Z0 F50.00 

G01 X85.54 Y55.64 Z255 F3.00 
G01 X85.67 Y56.03 Z255 F3.00 
G01 X85.67 Y56.16 Z255 F3.00 
G01 X85.8 Y56.29 Z255 F3.00 
G01 X85.8 Y56.42 Z255 F3.00 
G01 X85.93 Y56.55 Z255 F3.00 
G01 X86.19 Y56.68 Z255 F3.00 
G01 X86.32 Y56.81 Z255 F3.00 
G01 X86.45 Y56.81 Z255 F3.00 
G01 X86.71 Y56.94 Z255 F3.00 
G01 X86.84 Y56.94 Z255 F3.00 
G01 X87.23 Y56.81 Z255 F3.00 
G01 X87.36 Y56.81 Z255 F3.00 
G01 X87.62 Y56.68 Z255 F3.00 
G01 X88.14 Y56.03 Z255 F3.00 
G01 X88.27 Y55.77 Z255 F3.00 
G01 X88.27 Y55.64 Z255 F3.00 
G01 X88.4 Y55.25 Z255 F3.00 
G01 X88.4 Y55.12 Z255 F3.00 
G01 X88.27 Y52.39 Z255 F3.00 
G01 X88.27 Y52.26 Z255 F3.00 
G01 X88.14 Y51.87 Z255 F3.00 
G01 X88.14 Y51.74 Z255 F3.00 
G01 X88.01 Y51.61 Z255 F3.00 
G01 X88.01 Y51.48 Z255 F3.00 
G01 X87.88 Y51.35 Z255 F3.00 
G01 X87.49 Y51.09 Z255 F3.00 
G01 X87.36 Y50.96 Z255 F3.00 
G01 X87.23 Y50.96 Z255 F3.00 
G01 X86.32 Y51.09 Z255 F3.00 
G01 X86.19 Y51.09 Z255 F3.00 
G01 X86.06 Y51.22 Z255 F3.00 
G01 X85.67 Y51.74 Z255 F3.00 
G01 X85.54 Y52.0 Z255 F3.00 
G01 X85.54 Y52.13 Z255 F3.00 
G01 X85.41 Y52.39 Z255 F3.00 
G01 X85.41 Y52.52 Z255 F3.00 
G01 X85.41 Y55.25 Z255 F3.00 
G00 X92.17 Y57.2 Z0 F50.00 

G01 X92.17 Y57.07 Z255 F3.00 
G01 X92.3 Y56.81 Z255 F3.00 
G01 X92.3 Y56.68 Z255 F3.00 
G01 X92.43 Y56.42 Z255 F3.00 
G01 X92.43 Y56.29 Z255 F3.00 
G01 X92.56 Y56.16 Z255 F3.00 
G01 X92.69 Y56.16 Z255 F3.00 
G01 X92.95 Y56.29 Z255 F3.00 
G01 X93.08 Y56.29 Z255 F3.00 
G01 X93.21 Y56.42 Z255 F3.00 
G01 X93.34 Y56.42 Z255 F3.00 
G01 X93.47 Y56.55 Z255 F3.00 
G01 X93.6 Y56.55 Z255 F3.00 
G01 X93.73 Y56.68 Z255 F3.00 
G01 X93.86 Y56.68 Z255 F3.00 
G01 X94.12 Y56.81 Z255 F3.00 
G01 X94.25 Y56.81 Z255 F3.00 
G01 X94.64 Y56.94 Z255 F3.00 
G01 X94.77 Y56.94 Z255 F3.00 
G01 X95.68 Y56.81 Z255 F3.00 
G01 X95.81 Y56.81 Z255 F3.00 
G01 X95.94 Y56.68 Z255 F3.00 
G01 X96.2 Y56.29 Z255 F3.00 
G01 X96.33 Y56.16 Z255 F3.00 
G01 X96.33 Y56.03 Z255 F3.00 
G01 X96.2 Y55.64 Z255 F3.00 
G01 X96.2 Y55.51 Z255 F3.00 
G01 X96.07 Y55.38 Z255 F3.00 
G01 X95.81 Y55.25 Z255 F3.00 
G01 X95.68 Y55.12 Z255 F3.00 
G01 X95.42 Y54.99 Z255 F3.00 
G01 X95.16 Y54.86 Z255 F3.00 
G01 X95.03 Y54.86 Z255 F3.00 
G01 X94.9 Y54.73 Z255 F3.00 
G01 X94.77 Y54.73 Z255 F3.00 
G01 X94.51 Y54.6 Z255 F3.00 
G01 X94.38 Y54.6 Z255 F3.00 
G01 X94.25 Y54.47 Z255 F3.00 
G01 X94.12 Y54.47 Z255 F3.00 
G01 X93.86 Y54.34 Z255 F3.00 
G01 X93.73 Y54.34 Z255 F3.00 
G01 X93.6 Y54.21 Z255 F3.00 
G01 X93.47 Y54.21 Z255 F3.00 
G01 X93.34 Y54.08 Z255 F3.00 
G01 X92.69 Y53.3 Z255 F3.00 
G01 X92.56 Y53.17 Z255 F3.00 
G01 X92.56 Y53.04 Z255 F3.00 
G01 X92.43 Y52.91 Z255 F3.00 
G01 X92.43 Y52.78 Z255 F3.00 
G01 X92.3 Y52.39 Z255 F3.00 
G01 X92.3 Y52.26 Z255 F3.00 
G01 X92.43 Y51.61 Z255 F3.00 
G01 X92.43 Y51.48 Z255 F3.00 
G01 X92.56 Y51.09 Z255 F3.00 
G01 X92.56 Y50.96 Z255 F3.00 
G01 X92.69 Y50.7 Z255 F3.00 
G01 X92.69 Y50.57 Z255 F3.00 
G01 X92.82 Y50.44 Z255 F3.00 
G01 X93.73 Y49.66 Z255 F3.00 
G01 X93.86 Y49.53 Z255 F3.00 
G01 X93.99 Y49.53 Z255 F3.00 
G01 X94.25 Y49.4 Z255 F3.00 
G01 X94.38 Y49.4 Z255 F3.00 
G01 X94.64 Y49.27 Z255 F3.00 
G01 X94.77 Y49.27 Z255 F3.00 
G01 X96.59 Y49.4 Z255 F3.00 
G01 X96.72 Y49.4 Z255 F3.00 
G01 X97.11 Y49.53 Z255 F3.00 
G01 X97.24 Y49.53 Z255 F3.00 
G01 X97.63 Y49.66 Z255 F3.00 
G01 X97.76 Y49.66 Z255 F3.00 
G01 X97.89 Y49.79 Z255 F3.00 
G01 X98.02 Y49.79 Z255 F3.00 
G01 X98.15 Y49.92 Z255 F3.00 
G01 X98.15 Y50.05 Z255 F3.00 
G01 X98.02 Y50.31 Z255 F3.00 
G01 X98.02 Y50.44 Z255 F3.00 
G01 X97.89 Y50.57 Z255 F3.00 
G01 X97.89 Y50.7 Z255 F3.00 
G01 X97.76 Y50.96 Z255 F3.00 
G01 X97.76 Y51.09 Z255 F3.00 
G01 X97.63 Y51.22 Z255 F3.00 
G01 X97.37 Y51.22 Z255 F3.00 
G01 X97.24 Y51.22 Z255 F3.00 
G01 X96.98 Y51.09 Z255 F3.00 
G01 X96.85 Y51.09 Z255 F3.00 
G01 X96.72 Y50.96 Z255 F3.00 
G01 X96.59 Y50.96 Z255 F3.00 
G01 X96.2 Y50.83 Z255 F3.00 
G01 X96.07 Y50.83 Z255 F3.00 
G01 X95.03 Y50.96 Z255 F3.00 
G01 X94.9 Y50.96 Z255 F3.00 
G01 X94.77 Y51.09 Z255 F3.00 
G01 X94.64 Y51.09 Z255 F3.00 
G01 X94.51 Y51.22 Z255 F3.00 
G01 X94.51 Y51.35 Z255 F3.00 
G01 X94.38 Y51.48 Z255 F3.00 
G01 X94.38 Y51.61 Z255 F3.00 
G01 X94.51 Y52.26 Z255 F3.00 
G01 X94.9 Y52.52 Z255 F3.00 
G01 X95.03 Y52.65 Z255 F3.00 
G01 X95.16 Y52.65 Z255 F3.00 
G01 X95.29 Y52.78 Z255 F3.00 
G01 X95.42 Y52.78 Z255 F3.00 
G01 X95.55 Y52.91 Z255 F3.00 
G01 X95.68 Y52.91 Z255 F3.00 
G01 X95.94 Y53.04 Z255 F3.00 
G01 X96.07 Y53.04 Z255 F3.00 
G01 X96.2 Y53.17 Z255 F3.00 
G01 X96.33 Y53.17 Z255 F3.00 
G01 X96.59 Y53.3 Z255 F3.00 
G01 X96.72 Y53.3 Z255 F3.00 
G01 X96.85 Y53.43 Z255 F3.00 
G01 X96.98 Y53.43 Z255 F3.00 
G01 X97.11 Y53.56 Z255 F3.00 
G01 X97.24 Y53.56 Z255 F3.00 
G01 X97.37 Y53.69 Z255 F3.00 
G01 X98.02 Y54.47 Z255 F3.00 
G01 X98.15 Y54.6 Z255 F3.00 
G01 X98.15 Y54.73 Z255 F3.00 
G01 X98.28 Y54.86 Z255 F3.00 
G01 X98.28 Y54.99 Z255 F3.00 
G01 X98.41 Y55.38 Z255 F3.00 
G01 X98.41 Y55.51 Z255 F3.00 
G01 X98.28 Y56.29 Z255 F3.00 
G01 X98.28 Y56.42 Z255 F3.00 
G01 X98.15 Y56.81 Z255 F3.00 
G01 X98.15 Y56.94 Z255 F3.00 
G01 X98.02 Y57.07 Z255 F3.00 
G01 X98.02 Y57.2 Z255 F3.00 
G01 X97.89 Y57.33 Z255 F3.00 
G01 X97.89 Y57.46 Z255 F3.00 
G01 X97.76 Y57.59 Z255 F3.00 
G01 X96.98 Y58.24 Z255 F3.00 
G01 X96.85 Y58.37 Z255 F3.00 
G01 X96.72 Y58.37 Z255 F3.00 
G01 X96.46 Y58.5 Z255 F3.00 
G01 X96.33 Y58.5 Z255 F3.00 
G01 X95.94 Y58.63 Z255 F3.00 
G01 X95.81 Y58.63 Z255 F3.00 
G01 X94.64 Y58.5 Z255 F3.00 
G01 X94.51 Y58.5 Z255 F3.00 
G01 X93.86 Y58.37 Z255 F3.00 
G01 X93.73 Y58.37 Z255 F3.00 
G01 X93.47 Y58.24 Z255 F3.00 
G01 X93.34 Y58.24 Z255 F3.00 
G01 X93.08 Y58.11 Z255 F3.00 
G01 X92.95 Y58.11 Z255 F3.00 
G01 X92.69 Y57.98 Z255 F3.00 
G01 X92.56 Y57.98 Z255 F3.00 
G01 X92.43 Y57.85 Z255 F3.00 
G01 X92.3 Y57.85 Z255 F3.00 
G01 X92.17 Y57.72 Z255 F3.00 
G01 X92.04 Y57.72 Z255 F3.00 
G01 X92.04 Y57.72 Z255 F3.00 
G00 X99.71 Y57.59 Z0 F50.00 

G01 X99.84 Y57.72 Z255 F3.00 
G01 X100.1 Y57.85 Z255 F3.00 
G01 X100.23 Y57.98 Z255 F3.00 
G01 X100.36 Y57.98 Z255 F3.00 
G01 X100.49 Y58.11 Z255 F3.00 
G01 X100.62 Y58.11 Z255 F3.00 
G01 X100.75 Y58.24 Z255 F3.00 
G01 X100.88 Y58.24 Z255 F3.00 
G01 X101.14 Y58.37 Z255 F3.00 
G01 X101.27 Y58.37 Z255 F3.00 
G01 X101.66 Y58.5 Z255 F3.00 
G01 X101.79 Y58.5 Z255 F3.00 
G01 X102.44 Y58.63 Z255 F3.00 
G01 X102.57 Y58.63 Z255 F3.00 
G01 X103.74 Y58.5 Z255 F3.00 
G01 X103.87 Y58.5 Z255 F3.00 
G01 X104.26 Y58.37 Z255 F3.00 
G01 X104.39 Y58.37 Z255 F3.00 
G01 X104.65 Y58.24 Z255 F3.00 
G01 X104.91 Y58.11 Z255 F3.00 
G01 X105.04 Y57.98 Z255 F3.00 
G01 X105.56 Y57.33 Z255 F3.00 
G01 X105.69 Y57.2 Z255 F3.00 
G01 X105.69 Y57.07 Z255 F3.00 
G01 X105.82 Y56.94 Z255 F3.00 
G01 X105.82 Y56.81 Z255 F3.00 
G01 X105.95 Y56.68 Z255 F3.00 
G01 X105.95 Y56.55 Z255 F3.00 
G01 X106.08 Y56.03 Z255 F3.00 
G01 X106.08 Y55.9 Z255 F3.00 
G01 X105.95 Y55.25 Z255 F3.00 
G01 X105.95 Y55.12 Z255 F3.00 
G01 X105.82 Y54.73 Z255 F3.00 
G01 X105.82 Y54.6 Z255 F3.00 
G01 X105.69 Y54.47 Z255 F3.00 
G01 X105.69 Y54.34 Z255 F3.00 
G01 X105.56 Y54.21 Z255 F3.00 
G01 X104.78 Y53.56 Z255 F3.00 
G01 X104.65 Y53.43 Z255 F3.00 
G01 X104.52 Y53.43 Z255 F3.00 
G01 X104.39 Y53.3 Z255 F3.00 
G01 X104.26 Y53.3 Z255 F3.00 
G01 X104.0 Y53.17 Z255 F3.00 
G01 X103.87 Y53.17 Z255 F3.00 
G01 X103.74 Y53.04 Z255 F3.00 
G01 X103.61 Y53.04 Z255 F3.00 
G01 X103.48 Y52.91 Z255 F3.00 
G01 X103.35 Y52.91 Z255 F3.00 
G01 X103.09 Y52.78 Z255 F3.00 
G01 X102.96 Y52.78 Z255 F3.00 
G01 X102.83 Y52.65 Z255 F3.00 
G01 X102.7 Y52.65 Z255 F3.00 
G01 X102.57 Y52.52 Z255 F3.00 
G01 X102.44 Y52.52 Z255 F3.00 
G01 X102.31 Y52.39 Z255 F3.00 
G01 X102.05 Y52.0 Z255 F3.00 
G01 X102.18 Y51.35 Z255 F3.00 
G01 X102.18 Y51.22 Z255 F3.00 
G01 X102.31 Y51.09 Z255 F3.00 
G01 X102.57 Y50.96 Z255 F3.00 
G01 X102.83 Y50.83 Z255 F3.00 
G01 X102.96 Y50.83 Z255 F3.00 
G01 X104.0 Y50.96 Z255 F3.00 
G01 X104.13 Y50.96 Z255 F3.00 
G01 X104.39 Y51.09 Z255 F3.00 
G01 X104.52 Y51.09 Z255 F3.00 
G01 X104.78 Y51.22 Z255 F3.00 
G01 X104.91 Y51.22 Z255 F3.00 
G01 X105.17 Y51.35 Z255 F3.00 
G01 X105.3 Y51.22 Z255 F3.00 
G01 X105.43 Y50.96 Z255 F3.00 
G01 X105.56 Y50.7 Z255 F3.00 
G01 X105.56 Y50.57 Z255 F3.00 
G01 X105.69 Y50.44 Z255 F3.00 
G01 X105.69 Y50.31 Z255 F3.00 
G01 X105.82 Y50.18 Z255 F3.00 
G01 X105.82 Y50.05 Z255 F3.00 
G01 X105.69 Y49.79 Z255 F3.00 
G01 X105.56 Y49.79 Z255 F3.00 
G01 X105.43 Y49.66 Z255 F3.00 
G01 X105.3 Y49.66 Z255 F3.00 
G01 X105.17 Y49.53 Z255 F3.00 
G01 X105.04 Y49.53 Z255 F3.00 
G01 X104.65 Y49.4 Z255 F3.00 
G01 X104.52 Y49.4 Z255 F3.00 
G01 X104.13 Y49.27 Z255 F3.00 
G01 X104.0 Y49.27 Z255 F3.00 
G01 X102.18 Y49.4 Z255 F3.00 
G01 X102.05 Y49.4 Z255 F3.00 
G01 X101.66 Y49.53 Z255 F3.00 
G01 X101.53 Y49.53 Z255 F3.00 
G01 X101.4 Y49.66 Z255 F3.00 
G01 X101.27 Y49.66 Z255 F3.00 
G01 X101.14 Y49.79 Z255 F3.00 
G01 X100.36 Y50.7 Z255 F3.00 
G01 X100.23 Y50.83 Z255 F3.00 
G01 X100.23 Y50.96 Z255 F3.00 
G01 X100.1 Y51.09 Z255 F3.00 
G01 X100.1 Y51.22 Z255 F3.00 
G01 X99.97 Y51.61 Z255 F3.00 
G01 X99.97 Y51.74 Z255 F3.00 
G01 X100.1 Y52.65 Z255 F3.00 
G01 X100.1 Y52.78 Z255 F3.00 
G01 X100.23 Y53.17 Z255 F3.00 
G01 X100.23 Y53.3 Z255 F3.00 
G01 X100.36 Y53.43 Z255 F3.00 
G01 X100.49 Y53.69 Z255 F3.00 
G01 X100.62 Y53.82 Z255 F3.00 
G01 X100.88 Y53.95 Z255 F3.00 
G01 X101.01 Y54.08 Z255 F3.00 
G01 X101.27 Y54.21 Z255 F3.00 
G01 X101.4 Y54.34 Z255 F3.00 
G01 X101.53 Y54.34 Z255 F3.00 
G01 X101.66 Y54.47 Z255 F3.00 
G01 X101.79 Y54.47 Z255 F3.00 
G01 X102.05 Y54.6 Z255 F3.00 
G01 X102.18 Y54.6 Z255 F3.00 
G01 X102.31 Y54.73 Z255 F3.00 
G01 X102.44 Y54.73 Z255 F3.00 
G01 X102.7 Y54.86 Z255 F3.00 
G01 X102.83 Y54.86 Z255 F3.00 
G01 X102.96 Y54.99 Z255 F3.00 
G01 X103.09 Y54.99 Z255 F3.00 
G01 X103.22 Y55.12 Z255 F3.00 
G01 X103.35 Y55.12 Z255 F3.00 
G01 X103.48 Y55.25 Z255 F3.00 
G01 X103.61 Y55.25 Z255 F3.00 
G01 X103.74 Y55.38 Z255 F3.00 
G01 X103.87 Y55.64 Z255 F3.00 
G01 X104.0 Y55.77 Z255 F3.00 
G01 X104.0 Y55.9 Z255 F3.00 
G01 X103.87 Y56.29 Z255 F3.00 
G01 X103.87 Y56.42 Z255 F3.00 
G01 X103.74 Y56.55 Z255 F3.00 
G01 X103.35 Y56.81 Z255 F3.00 
G01 X103.22 Y56.94 Z255 F3.00 
G01 X103.09 Y56.94 Z255 F3.00 
G01 X102.05 Y56.81 Z255 F3.00 
G01 X101.92 Y56.81 Z255 F3.00 
G01 X101.66 Y56.68 Z255 F3.00 
G01 X101.53 Y56.68 Z255 F3.00 
G01 X101.27 Y56.55 Z255 F3.00 
G01 X101.14 Y56.55 Z255 F3.00 
G01 X101.01 Y56.42 Z255 F3.00 
G01 X100.88 Y56.42 Z255 F3.00 
G01 X100.75 Y56.29 Z255 F3.00 
G01 X100.62 Y56.29 Z255 F3.00 
G01 X100.49 Y56.16 Z255 F3.00 
G01 X100.36 Y56.16 Z255 F3.00 
G01 X100.1 Y56.29 Z255 F3.00 
G01 X100.1 Y56.42 Z255 F3.00 
G01 X99.97 Y56.55 Z255 F3.00 
G01 X99.97 Y56.68 Z255 F3.00 
G01 X99.84 Y56.94 Z255 F3.00 
G01 X99.84 Y57.07 Z255 F3.00 
G01 X99.71 Y57.2 Z255 F3.00 
G01 X99.71 Y57.33 Z255 F3.00 
G01 X99.71 Y57.33 Z255 F3.00 
G00 X99.45 Y65.39 Z0 F50.00 

G01 X99.58 Y65.39 Z255 F3.00 
G01 X99.71 Y65.52 Z255 F3.00 
G01 X99.71 Y65.78 Z255 F3.00 
G01 X99.71 Y65.91 Z255 F3.00 
G01 X99.58 Y66.04 Z255 F3.00 
G01 X99.58 Y66.17 Z255 F3.00 
G01 X99.45 Y71.37 Z255 F3.00 
G01 X99.45 Y71.5 Z255 F3.00 
G01 X99.32 Y71.76 Z255 F3.00 
G01 X98.67 Y72.28 Z255 F3.00 
G01 X98.41 Y72.41 Z255 F3.00 
G01 X98.28 Y72.41 Z255 F3.00 
G01 X97.11 Y72.28 Z255 F3.00 
G01 X96.98 Y72.28 Z255 F3.00 
G01 X96.72 Y72.15 Z255 F3.00 
G01 X96.59 Y72.15 Z255 F3.00 
G01 X96.33 Y72.02 Z255 F3.00 
G01 X96.2 Y72.02 Z255 F3.00 
G01 X96.2 Y72.02 Z255 F3.00 
G00 X96.33 Y71.63 Z0 F50.00 

G01 X96.59 Y71.5 Z255 F3.00 
G01 X96.72 Y71.63 Z255 F3.00 
G01 X96.85 Y71.63 Z255 F3.00 
G01 X97.11 Y71.76 Z255 F3.00 
G01 X97.24 Y71.76 Z255 F3.00 
G01 X97.63 Y71.89 Z255 F3.00 
G01 X97.76 Y71.89 Z255 F3.00 
G01 X98.02 Y71.76 Z255 F3.00 
G01 X98.15 Y71.76 Z255 F3.00 
G01 X98.54 Y71.63 Z255 F3.00 
G01 X98.93 Y71.11 Z255 F3.00 
G01 X98.8 Y69.68 Z255 F3.00 
G01 X98.67 Y69.68 Z255 F3.00 
G01 X98.54 Y69.81 Z255 F3.00 
G01 X98.28 Y69.94 Z255 F3.00 
G01 X98.02 Y70.07 Z255 F3.00 
G01 X97.89 Y70.07 Z255 F3.00 
G01 X96.85 Y69.94 Z255 F3.00 
G01 X96.72 Y69.94 Z255 F3.00 
G01 X96.59 Y69.81 Z255 F3.00 
G01 X96.2 Y69.29 Z255 F3.00 
G01 X96.07 Y69.16 Z255 F3.00 
G01 X96.07 Y69.03 Z255 F3.00 
G01 X95.94 Y68.64 Z255 F3.00 
G01 X95.94 Y68.51 Z255 F3.00 
G01 X96.07 Y66.95 Z255 F3.00 
G01 X96.07 Y66.82 Z255 F3.00 
G01 X96.2 Y66.43 Z255 F3.00 
G01 X96.2 Y66.3 Z255 F3.00 
G01 X96.33 Y66.17 Z255 F3.00 
G01 X96.33 Y66.04 Z255 F3.00 
G01 X96.46 Y65.91 Z255 F3.00 
G01 X96.98 Y65.52 Z255 F3.00 
G01 X97.11 Y65.39 Z255 F3.00 
G01 X97.24 Y65.39 Z255 F3.00 
G01 X97.76 Y65.26 Z255 F3.00 
G01 X97.89 Y65.39 Z255 F3.00 
G01 X98.02 Y65.39 Z255 F3.00 
G01 X98.54 Y65.52 Z255 F3.00 
G01 X98.67 Y65.52 Z255 F3.00 
G01 X98.8 Y65.65 Z255 F3.00 
G01 X98.93 Y65.65 Z255 F3.00 
G01 X99.19 Y65.52 Z255 F3.00 
G01 X99.19 Y65.39 Z255 F3.00 
G01 X99.19 Y65.39 Z255 F3.00 
G00 X98.8 Y66.17 Z0 F50.00 

G01 X98.54 Y66.04 Z255 F3.00 
G01 X98.28 Y65.91 Z255 F3.00 
G01 X98.15 Y65.91 Z255 F3.00 
G01 X97.37 Y66.04 Z255 F3.00 
G01 X97.24 Y66.04 Z255 F3.00 
G01 X97.11 Y66.17 Z255 F3.00 
G01 X96.98 Y66.43 Z255 F3.00 
G01 X96.85 Y66.56 Z255 F3.00 
G01 X96.85 Y66.69 Z255 F3.00 
G01 X96.72 Y66.82 Z255 F3.00 
G01 X96.72 Y66.95 Z255 F3.00 
G01 X96.59 Y67.47 Z255 F3.00 
G01 X96.59 Y67.6 Z255 F3.00 
G01 X96.72 Y68.25 Z255 F3.00 
G01 X96.72 Y68.38 Z255 F3.00 
G01 X96.85 Y68.9 Z255 F3.00 
G01 X96.85 Y69.03 Z255 F3.00 
G01 X96.98 Y69.29 Z255 F3.00 
G01 X97.24 Y69.42 Z255 F3.00 
G01 X97.37 Y69.55 Z255 F3.00 
G01 X97.5 Y69.55 Z255 F3.00 
G01 X98.02 Y69.42 Z255 F3.00 
G01 X98.15 Y69.42 Z255 F3.00 
G01 X98.41 Y69.29 Z255 F3.00 
G01 X98.54 Y69.29 Z255 F3.00 
G01 X98.67 Y69.16 Z255 F3.00 
G01 X98.93 Y68.77 Z255 F3.00 
G01 X98.93 Y66.43 Z255 F3.00 
G00 X101.27 Y65.78 Z0 F50.00 

G01 X101.27 Y65.91 Z255 F3.00 
G01 X101.4 Y66.17 Z255 F3.00 
G01 X101.4 Y66.3 Z255 F3.00 
G01 X101.53 Y70.2 Z255 F3.00 
G01 X101.66 Y70.2 Z255 F3.00 
G01 X102.05 Y70.07 Z255 F3.00 
G01 X102.05 Y70.2 Z255 F3.00 
G01 X102.05 Y70.2 Z255 F3.00 
G00 X102.05 Y69.81 Z0 F50.00 

G01 X102.18 Y66.43 Z255 F3.00 
G01 X102.44 Y66.3 Z255 F3.00 
G01 X102.57 Y66.17 Z255 F3.00 
G01 X102.83 Y66.04 Z255 F3.00 
G01 X102.96 Y65.91 Z255 F3.00 
G01 X103.09 Y65.91 Z255 F3.00 
G01 X103.87 Y66.04 Z255 F3.00 
G01 X104.13 Y66.43 Z255 F3.00 
G01 X104.26 Y70.2 Z255 F3.00 
G01 X104.39 Y70.2 Z255 F3.00 
G01 X104.78 Y70.07 Z255 F3.00 
G01 X104.78 Y70.2 Z255 F3.00 
G01 X104.78 Y70.2 Z255 F3.00 
G00 X104.78 Y69.81 Z0 F50.00 

G01 X104.65 Y65.78 Z255 F3.00 
G01 X104.65 Y65.65 Z255 F3.00 
G01 X104.52 Y65.52 Z255 F3.00 
G01 X104.39 Y65.52 Z255 F3.00 
G01 X104.26 Y65.39 Z255 F3.00 
G01 X104.13 Y65.39 Z255 F3.00 
G01 X102.96 Y65.52 Z255 F3.00 
G01 X102.83 Y65.52 Z255 F3.00 
G01 X102.57 Y65.65 Z255 F3.00 
G01 X102.31 Y65.78 Z255 F3.00 
G01 X102.18 Y65.91 Z255 F3.00 
G01 X101.92 Y65.91 Z255 F3.00 
G01 X101.92 Y65.78 Z255 F3.00 
G01 X101.79 Y65.52 Z255 F3.00 
G01 X101.79 Y65.39 Z255 F3.00 
G01 X101.79 Y65.39 Z255 F3.00 
G00 X101.4 Y65.52 Z0 F50.00 

G01 X101.27 Y65.65 Z255 F3.00 
G00 X106.73 Y69.81 Z0 F50.00 

G01 X106.73 Y69.94 Z255 F3.00 
G01 X106.86 Y70.07 Z255 F3.00 
G01 X107.12 Y70.2 Z255 F3.00 
G01 X107.25 Y70.33 Z255 F3.00 
G01 X107.38 Y70.33 Z255 F3.00 
G01 X107.9 Y70.46 Z255 F3.00 
G01 X108.03 Y70.46 Z255 F3.00 
G01 X108.16 Y70.33 Z255 F3.00 
G01 X108.29 Y70.33 Z255 F3.00 
G01 X108.68 Y70.2 Z255 F3.00 
G01 X108.81 Y70.2 Z255 F3.00 
G01 X108.94 Y70.07 Z255 F3.00 
G01 X109.07 Y70.07 Z255 F3.00 
G01 X109.2 Y69.94 Z255 F3.00 
G01 X109.46 Y69.81 Z255 F3.00 
G01 X109.59 Y69.94 Z255 F3.00 
G01 X109.59 Y70.07 Z255 F3.00 
G01 X109.72 Y70.33 Z255 F3.00 
G01 X109.85 Y70.33 Z255 F3.00 
G01 X110.11 Y70.2 Z255 F3.00 
G01 X110.24 Y69.94 Z255 F3.00 
G01 X110.11 Y69.81 Z255 F3.00 
G01 X110.11 Y69.68 Z255 F3.00 
G01 X109.98 Y69.42 Z255 F3.00 
G01 X109.98 Y69.29 Z255 F3.00 
G01 X109.85 Y65.39 Z255 F3.00 
G01 X109.98 Y65.39 Z255 F3.00 
G01 X109.98 Y65.39 Z255 F3.00 
G00 X109.59 Y65.39 Z0 F50.00 

G01 X109.46 Y65.52 Z255 F3.00 
G01 X109.33 Y65.78 Z255 F3.00 
G01 X109.2 Y69.42 Z255 F3.00 
G01 X109.07 Y69.42 Z255 F3.00 
G01 X108.94 Y69.55 Z255 F3.00 
G01 X108.81 Y69.55 Z255 F3.00 
G01 X108.68 Y69.68 Z255 F3.00 
G01 X108.55 Y69.68 Z255 F3.00 
G01 X108.42 Y69.81 Z255 F3.00 
G01 X108.29 Y69.81 Z255 F3.00 
G01 X107.51 Y69.68 Z255 F3.00 
G01 X107.38 Y69.42 Z255 F3.00 
G01 X107.25 Y69.29 Z255 F3.00 
G01 X107.25 Y69.16 Z255 F3.00 
G01 X107.12 Y65.39 Z255 F3.00 
G01 X107.25 Y65.39 Z255 F3.00 
G01 X107.25 Y65.39 Z255 F3.00 
G00 X106.86 Y65.39 Z0 F50.00 

G01 X106.6 Y65.52 Z255 F3.00 
G01 X106.6 Y65.65 Z255 F3.00 
G01 X106.6 Y69.55 Z255 F3.00 
G00 X111.8 Y65.52 Z0 F50.00 

G01 X112.06 Y65.39 Z255 F3.00 
G01 X112.32 Y65.52 Z255 F3.00 
G01 X112.32 Y65.65 Z255 F3.00 
G01 X112.45 Y65.91 Z255 F3.00 
G01 X112.58 Y65.91 Z255 F3.00 
G01 X112.71 Y65.78 Z255 F3.00 
G01 X112.84 Y65.78 Z255 F3.00 
G01 X112.97 Y65.65 Z255 F3.00 
G01 X113.23 Y65.52 Z255 F3.00 
G01 X113.49 Y65.39 Z255 F3.00 
G01 X113.62 Y65.39 Z255 F3.00 
G01 X114.14 Y65.26 Z255 F3.00 
G01 X114.27 Y65.39 Z255 F3.00 
G01 X114.4 Y65.39 Z255 F3.00 
G01 X114.79 Y65.52 Z255 F3.00 
G01 X114.92 Y65.52 Z255 F3.00 
G01 X115.05 Y65.65 Z255 F3.00 
G01 X115.05 Y65.78 Z255 F3.00 
G01 X115.18 Y65.91 Z255 F3.00 
G01 X115.18 Y66.04 Z255 F3.00 
G01 X115.31 Y66.43 Z255 F3.00 
G01 X115.31 Y66.56 Z255 F3.00 
G01 X115.18 Y70.2 Z255 F3.00 
G01 X115.31 Y70.2 Z255 F3.00 
G01 X115.31 Y70.2 Z255 F3.00 
G00 X114.92 Y70.2 Z0 F50.00 

G01 X114.66 Y70.07 Z255 F3.00 
G01 X114.66 Y70.2 Z255 F3.00 
G01 X114.66 Y70.2 Z255 F3.00 
G00 X114.66 Y69.81 Z0 F50.00 

G01 X114.53 Y66.43 Z255 F3.00 
G01 X114.53 Y66.3 Z255 F3.00 
G01 X114.4 Y66.04 Z255 F3.00 
G01 X114.14 Y65.91 Z255 F3.00 
G01 X113.23 Y66.04 Z255 F3.00 
G01 X113.1 Y66.04 Z255 F3.00 
G01 X112.97 Y66.17 Z255 F3.00 
G01 X112.71 Y66.3 Z255 F3.00 
G01 X112.58 Y66.43 Z255 F3.00 
G01 X112.45 Y66.69 Z255 F3.00 
G01 X112.32 Y70.2 Z255 F3.00 
G01 X112.45 Y70.2 Z255 F3.00 
G01 X112.45 Y70.2 Z255 F3.00 
G00 X112.06 Y70.2 Z0 F50.00 

G01 X111.8 Y70.07 Z255 F3.00 
G01 X111.8 Y70.2 Z255 F3.00 
G01 X111.8 Y70.2 Z255 F3.00 
G00 X111.8 Y69.81 Z0 F50.00 

G01 X111.67 Y65.91 Z255 F3.00 
G01 X111.67 Y65.78 Z255 F3.00 
G01 X111.67 Y65.78 Z255 F3.00 
G00 X117.0 Y66.56 Z0 F50.00 

