#############################################################
###########Gcode generated with LazerImg.py V0.1#############
######written by Nick Sidney Lemberger aka Holysocks#########
#############################################################

luna
laser_engraver(diode, 445nm)
X10.0 Y10.0 



F80.0 


G00 X10.0 Y10.0 Z0 F80.00
 G01 X23.25 Y17.8 Z0 F80.00 
G01 X23.35 Y17.8 Z31 F40.00 
G01 X23.45 Y17.8 Z53 F40.00 
G01 X23.55 Y17.8 Z74 F40.00 
G01 X23.65 Y17.8 Z98 F40.00 
G01 X23.75 Y17.8 Z134 F39.06 
G01 X23.85 Y17.8 Z165 F34.17 
G01 X23.95 Y17.8 Z186 F30.87 
G01 X24.05 Y17.8 Z203 F28.19 
G01 X24.15 Y17.8 Z215 F26.30 
G01 X24.25 Y17.8 Z223 F25.04 
G01 X24.35 Y17.8 Z228 F24.25 
G01 X24.45 Y17.8 Z232 F23.62 
G01 X24.55 Y17.8 Z234 F23.31 
G01 X24.65 Y17.8 Z237 F22.83 
G01 X24.75 Y17.8 Z235 F23.15 
G01 X24.85 Y17.8 Z231 F23.78 
G01 X24.95 Y17.8 Z228 F24.25 
G01 X25.05 Y17.8 Z224 F24.88 
G01 X25.15 Y17.8 Z218 F25.83 
G01 X25.25 Y17.8 Z209 F27.24 
G01 X25.35 Y17.8 Z195 F29.45 
G01 X25.45 Y17.8 Z175 F32.60 
G01 X25.55 Y17.8 Z149 F36.69 
G01 X25.65 Y17.8 Z114 F40.00 
G01 X25.75 Y17.8 Z84 F40.00 
G01 X25.85 Y17.8 Z65 F40.00 
G01 X25.95 Y17.8 Z42 F40.00 
G01 X26.0 Y17.8 Z0 F80.00 
G00 X26.0 Y17.9 Z0 F80.00 
G01 X26.45 Y17.9 Z0 F80.00 
G01 X26.35 Y17.9 Z50 F40.00 
G01 X26.25 Y17.9 Z111 F40.00 
G01 X26.15 Y17.9 Z163 F34.49 
G01 X26.05 Y17.9 Z199 F28.82 
G01 X25.95 Y17.9 Z224 F24.88 
G01 X25.85 Y17.9 Z239 F22.52 
G01 X25.75 Y17.9 Z249 F20.94 
G01 X25.65 Y17.9 Z253 F20.31 
G01 X25.55 Y17.9 Z254 F20.16 
G01 X23.75 Y17.9 Z255 F20.00 
G01 X23.55 Y17.9 Z254 F20.16 
G01 X23.45 Y17.9 Z252 F20.47 
G01 X23.35 Y17.9 Z245 F21.57 
G01 X23.25 Y17.9 Z233 F23.46 
G01 X23.15 Y17.9 Z213 F26.61 
G01 X23.05 Y17.9 Z184 F31.18 
G01 X22.95 Y17.9 Z141 F37.95 
G01 X22.85 Y17.9 Z83 F40.00 
G01 X22.75 Y17.9 Z29 F40.00 
G01 X22.65 Y17.9 Z12 F40.00 
G01 X22.6 Y17.9 Z0 F80.00 
G00 X22.6 Y18.0 Z0 F80.00 
G01 X22.35 Y18.0 Z0 F80.00 
G01 X22.45 Y18.0 Z59 F40.00 
G01 X22.55 Y18.0 Z117 F40.00 
G01 X22.65 Y18.0 Z174 F32.76 
G01 X22.75 Y18.0 Z221 F25.35 
G01 X22.85 Y18.0 Z245 F21.57 
G01 X22.95 Y18.0 Z252 F20.47 
G01 X23.05 Y18.0 Z254 F20.16 
G01 X26.15 Y18.0 Z255 F20.00 
G01 X26.25 Y18.0 Z254 F20.16 
G01 X26.35 Y18.0 Z253 F20.31 
G01 X26.45 Y18.0 Z249 F20.94 
G01 X26.55 Y18.0 Z235 F23.15 
G01 X26.65 Y18.0 Z198 F28.98 
G01 X26.75 Y18.0 Z143 F37.64 
G01 X26.85 Y18.0 Z87 F40.00 
G01 X26.9 Y18.0 Z0 F80.00 
G00 X26.9 Y18.1 Z0 F80.00 
G01 X27.25 Y18.1 Z0 F80.00 
G01 X27.15 Y18.1 Z51 F40.00 
G01 X27.05 Y18.1 Z122 F40.00 
G01 X26.95 Y18.1 Z198 F28.98 
G01 X26.85 Y18.1 Z236 F22.99 
G01 X26.75 Y18.1 Z250 F20.79 
G01 X26.65 Y18.1 Z254 F20.16 
G01 X22.55 Y18.1 Z255 F20.00 
G01 X22.45 Y18.1 Z253 F20.31 
G01 X22.35 Y18.1 Z246 F21.42 
G01 X22.25 Y18.1 Z225 F24.72 
G01 X22.15 Y18.1 Z174 F32.76 
G01 X22.05 Y18.1 Z89 F40.00 
G01 X21.95 Y18.1 Z36 F40.00 
G01 X21.9 Y18.1 Z0 F80.00 
G00 X21.9 Y18.2 Z0 F80.00 
G01 X21.65 Y18.2 Z0 F80.00 
G01 X21.75 Y18.2 Z24 F40.00 
G01 X21.85 Y18.2 Z111 F40.00 
G01 X21.95 Y18.2 Z189 F30.39 
G01 X22.05 Y18.2 Z237 F22.83 
G01 X22.15 Y18.2 Z253 F20.31 
G01 X27.05 Y18.2 Z255 F20.00 
G01 X27.15 Y18.2 Z254 F20.16 
G01 X27.25 Y18.2 Z247 F21.26 
G01 X27.35 Y18.2 Z216 F26.14 
G01 X27.45 Y18.2 Z152 F36.22 
G01 X27.5 Y18.2 Z0 F80.00 
G00 X27.5 Y18.3 Z0 F80.00 
G01 X27.75 Y18.3 Z0 F80.00 
G01 X27.65 Y18.3 Z137 F38.58 
G01 X27.55 Y18.3 Z216 F26.14 
G01 X27.45 Y18.3 Z248 F21.10 
G01 X27.35 Y18.3 Z254 F20.16 
G01 X21.85 Y18.3 Z255 F20.00 
G01 X21.75 Y18.3 Z252 F20.47 
G01 X21.65 Y18.3 Z239 F22.52 
G01 X21.55 Y18.3 Z184 F31.18 
G01 X21.45 Y18.3 Z92 F40.00 
G01 X21.35 Y18.3 Z18 F40.00 
G01 X21.3 Y18.3 Z0 F80.00 
G00 X21.3 Y18.4 Z0 F80.00 
G01 X21.15 Y18.4 Z0 F80.00 
G01 X21.25 Y18.4 Z45 F40.00 
G01 X21.35 Y18.4 Z152 F36.22 
G01 X21.45 Y18.4 Z228 F24.25 
G01 X21.55 Y18.4 Z252 F20.47 
G01 X27.65 Y18.4 Z255 F20.00 
G01 X27.75 Y18.4 Z254 F20.16 
G01 X27.85 Y18.4 Z243 F21.89 
G01 X27.95 Y18.4 Z195 F29.45 
G01 X28.05 Y18.4 Z89 F40.00 
G01 X28.1 Y18.4 Z0 F80.00 
G00 X28.1 Y18.5 Z0 F80.00 
G01 X28.25 Y18.5 Z0 F80.00 
G01 X28.15 Y18.5 Z134 F39.06 
G01 X28.05 Y18.5 Z222 F25.20 
G01 X27.95 Y18.5 Z252 F20.47 
G01 X21.35 Y18.5 Z255 F20.00 
G01 X21.25 Y18.5 Z254 F20.16 
G01 X21.15 Y18.5 Z244 F21.73 
G01 X21.05 Y18.5 Z187 F30.71 
G01 X20.95 Y18.5 Z80 F40.00 
G01 X20.9 Y18.5 Z0 F80.00 
G00 X20.9 Y18.6 Z0 F80.00 
G01 X20.65 Y18.6 Z0 F80.00 
G01 X20.75 Y18.6 Z12 F40.00 
G01 X20.85 Y18.6 Z99 F40.00 
G01 X20.95 Y18.6 Z209 F27.24 
G01 X21.05 Y18.6 Z249 F20.94 
G01 X28.15 Y18.6 Z255 F20.00 
G01 X28.25 Y18.6 Z253 F20.31 
G01 X28.35 Y18.6 Z236 F22.99 
G01 X28.45 Y18.6 Z154 F35.91 
G01 X28.5 Y18.6 Z0 F80.00 
G00 X28.5 Y18.7 Z0 F80.00 
G01 X28.65 Y18.7 Z0 F80.00 
G01 X28.55 Y18.7 Z156 F35.59 
G01 X28.45 Y18.7 Z239 F22.52 
G01 X28.35 Y18.7 Z254 F20.16 
G01 X20.85 Y18.7 Z255 F20.00 
G01 X20.75 Y18.7 Z252 F20.47 
G01 X20.65 Y18.7 Z215 F26.30 
G01 X20.55 Y18.7 Z103 F40.00 
G01 X20.5 Y18.7 Z0 F80.00 
G00 X20.5 Y18.8 Z0 F80.00 
G01 X20.35 Y18.8 Z0 F80.00 
G01 X20.45 Y18.8 Z89 F40.00 
G01 X20.55 Y18.8 Z210 F27.09 
G01 X20.65 Y18.8 Z252 F20.47 
G01 X28.55 Y18.8 Z255 F20.00 
G01 X28.65 Y18.8 Z254 F20.16 
G01 X28.75 Y18.8 Z238 F22.68 
G01 X28.85 Y18.8 Z150 F36.54 
G01 X28.9 Y18.8 Z0 F80.00 
G00 X28.9 Y18.9 Z0 F80.00 
G01 X29.05 Y18.9 Z0 F80.00 
G01 X28.95 Y18.9 Z127 F40.00 
G01 X28.85 Y18.9 Z233 F23.46 
G01 X28.75 Y18.9 Z254 F20.16 
G01 X20.45 Y18.9 Z255 F20.00 
G01 X20.35 Y18.9 Z250 F20.79 
G01 X20.25 Y18.9 Z198 F28.98 
G01 X20.15 Y18.9 Z65 F40.00 
G01 X20.1 Y18.9 Z0 F80.00 
G00 X20.1 Y19.0 Z0 F80.00 
G01 X19.95 Y19.0 Z0 F80.00 
G01 X20.05 Y19.0 Z29 F40.00 
G01 X20.15 Y19.0 Z165 F34.17 
G01 X20.25 Y19.0 Z246 F21.42 
G01 X28.95 Y19.0 Z255 F20.00 
G01 X29.05 Y19.0 Z253 F20.31 
G01 X29.15 Y19.0 Z215 F26.30 
G01 X29.2 Y19.0 Z0 F80.00 
G00 X29.2 Y19.1 Z0 F80.00 
G01 X29.35 Y19.1 Z0 F80.00 
G01 X29.25 Y19.1 Z175 F32.60 
G01 X29.15 Y19.1 Z249 F20.94 
G01 X20.15 Y19.1 Z255 F20.00 
G01 X20.05 Y19.1 Z254 F20.16 
G01 X19.95 Y19.1 Z230 F23.94 
G01 X19.85 Y19.1 Z107 F40.00 
G01 X19.8 Y19.1 Z0 F80.00 
G00 X19.8 Y19.2 Z0 F80.00 
G01 X19.65 Y19.2 Z0 F80.00 
G01 X19.75 Y19.2 Z48 F40.00 
G01 X19.85 Y19.2 Z189 F30.39 
G01 X19.95 Y19.2 Z251 F20.63 
G01 X29.25 Y19.2 Z255 F20.00 
G01 X29.35 Y19.2 Z254 F20.16 
G01 X29.45 Y19.2 Z232 F23.62 
G01 X29.5 Y19.2 Z0 F80.00 
G00 X29.5 Y19.3 Z0 F80.00 
G01 X29.65 Y19.3 Z0 F80.00 
G01 X29.55 Y19.3 Z186 F30.87 
G01 X29.45 Y19.3 Z251 F20.63 
G01 X19.75 Y19.3 Z255 F20.00 
G01 X19.65 Y19.3 Z237 F22.83 
G01 X19.55 Y19.3 Z113 F40.00 
G01 X19.5 Y19.3 Z0 F80.00 
G00 X19.5 Y19.4 Z0 F80.00 
G01 X19.35 Y19.4 Z0 F80.00 
G01 X19.45 Y19.4 Z33 F40.00 
G01 X19.55 Y19.4 Z181 F31.65 
G01 X19.65 Y19.4 Z251 F20.63 
G01 X29.55 Y19.4 Z255 F20.00 
G01 X29.65 Y19.4 Z254 F20.16 
G01 X29.75 Y19.4 Z230 F23.94 
G01 X29.8 Y19.4 Z0 F80.00 
G00 X29.8 Y19.5 Z0 F80.00 
G01 X29.95 Y19.5 Z0 F80.00 
G01 X29.85 Y19.5 Z159 F35.12 
G01 X29.75 Y19.5 Z249 F20.94 
G01 X19.55 Y19.5 Z255 F20.00 
G01 X19.45 Y19.5 Z254 F20.16 
G01 X19.35 Y19.5 Z227 F24.41 
G01 X19.25 Y19.5 Z84 F40.00 
G01 X19.2 Y19.5 Z0 F80.00 
G00 X19.2 Y19.6 Z0 F80.00 
G01 X19.15 Y19.6 Z0 F80.00 
G01 X19.25 Y19.6 Z138 F38.43 
G01 X19.35 Y19.6 Z246 F21.42 
G01 X29.85 Y19.6 Z255 F20.00 
G01 X29.95 Y19.6 Z254 F20.16 
G01 X30.05 Y19.6 Z205 F27.87 
G01 X30.1 Y19.6 Z0 F80.00 
G00 X30.1 Y19.7 Z0 F80.00 
G01 X30.15 Y19.7 Z0 F80.00 
G01 X30.05 Y19.7 Z232 F23.62 
G01 X19.25 Y19.7 Z255 F20.00 
G01 X19.15 Y19.7 Z252 F20.47 
G01 X19.05 Y19.7 Z183 F31.34 
G01 X18.95 Y19.7 Z27 F40.00 
G01 X18.9 Y19.7 Z0 F80.00 
G00 X18.9 Y19.8 Z0 F80.00 
G01 X18.85 Y19.8 Z0 F80.00 
G01 X18.95 Y19.8 Z51 F40.00 
G01 X19.05 Y19.8 Z215 F26.30 
G01 X19.15 Y19.8 Z254 F20.16 
G01 X30.15 Y19.8 Z255 F20.00 
G01 X30.25 Y19.8 Z246 F21.42 
G01 X30.3 Y19.8 Z0 F80.00 
G00 X30.3 Y19.9 Z0 F80.00 
G01 X30.45 Y19.9 Z0 F80.00 
G01 X30.35 Y19.9 Z165 F34.17 
G01 X30.25 Y19.9 Z251 F20.63 
G01 X18.95 Y19.9 Z255 F20.00 
G01 X18.85 Y19.9 Z232 F23.62 
G01 X18.75 Y19.9 Z76 F40.00 
G01 X18.7 Y19.9 Z0 F80.00 
G00 X18.7 Y20.0 Z0 F80.00 
G01 X18.65 Y20.0 Z0 F80.00 
G01 X18.75 Y20.0 Z104 F40.00 
G01 X18.85 Y20.0 Z243 F21.89 
G01 X30.35 Y20.0 Z255 F20.00 
G01 X30.45 Y20.0 Z253 F20.31 
G01 X30.55 Y20.0 Z189 F30.39 
G01 X30.6 Y20.0 Z0 F80.00 
G00 X30.6 Y20.1 Z0 F80.00 
G01 X30.65 Y20.1 Z0 F80.00 
G01 X30.55 Y20.1 Z204 F28.03 
G01 X30.45 Y20.1 Z254 F20.16 
G01 X18.75 Y20.1 Z255 F20.00 
G01 X18.65 Y20.1 Z248 F21.10 
G01 X18.55 Y20.1 Z123 F40.00 
G01 X18.5 Y20.1 Z0 F80.00 
G00 X18.5 Y20.2 Z0 F80.00 
G01 X18.45 Y20.2 Z0 F80.00 
G01 X18.55 Y20.2 Z137 F38.58 
G01 X18.65 Y20.2 Z249 F20.94 
G01 X30.55 Y20.2 Z255 F20.00 
G01 X30.65 Y20.2 Z254 F20.16 
G01 X30.75 Y20.2 Z213 F26.61 
G01 X30.8 Y20.2 Z0 F80.00 
G00 X30.8 Y20.3 Z0 F80.00 
G01 X30.85 Y20.3 Z0 F80.00 
G01 X30.75 Y20.3 Z221 F25.35 
G01 X18.55 Y20.3 Z255 F20.00 
G01 X18.45 Y20.3 Z251 F20.63 
G01 X18.35 Y20.3 Z146 F37.17 
G01 X18.3 Y20.3 Z0 F80.00 
G00 X18.3 Y20.4 Z0 F80.00 
G01 X18.25 Y20.4 Z0 F80.00 
G01 X18.35 Y20.4 Z144 F37.48 
G01 X18.45 Y20.4 Z251 F20.63 
G01 X25.75 Y20.4 Z255 F20.00 
G01 X25.85 Y20.4 Z254 F20.16 
G01 X25.95 Y20.4 Z251 F20.63 
G01 X26.05 Y20.4 Z247 F21.26 
G01 X26.15 Y20.4 Z243 F21.89 
G01 X26.25 Y20.4 Z238 F22.68 
G01 X26.35 Y20.4 Z231 F23.78 
G01 X26.45 Y20.4 Z227 F24.41 
G01 X26.55 Y20.4 Z223 F25.04 
G01 X26.65 Y20.4 Z221 F25.35 
G01 X26.75 Y20.4 Z218 F25.83 
G01 X26.85 Y20.4 Z216 F26.14 
G01 X26.95 Y20.4 Z221 F25.35 
G01 X27.05 Y20.4 Z223 F25.04 
G01 X27.15 Y20.4 Z225 F24.72 
G01 X27.25 Y20.4 Z230 F23.94 
G01 X27.35 Y20.4 Z236 F22.99 
G01 X27.45 Y20.4 Z243 F21.89 
G01 X27.55 Y20.4 Z247 F21.26 
G01 X27.65 Y20.4 Z250 F20.79 
G01 X27.75 Y20.4 Z253 F20.31 
G01 X30.85 Y20.4 Z255 F20.00 
G01 X30.95 Y20.4 Z221 F25.35 
G01 X31.0 Y20.4 Z0 F80.00 
G00 X31.0 Y20.5 Z0 F80.00 
G01 X31.05 Y20.5 Z0 F80.00 
G01 X30.95 Y20.5 Z218 F25.83 
G01 X28.45 Y20.5 Z255 F20.00 
G01 X28.35 Y20.5 Z253 F20.31 
G01 X28.25 Y20.5 Z249 F20.94 
G01 X28.15 Y20.5 Z243 F21.89 
G01 X28.05 Y20.5 Z225 F24.72 
G01 X27.95 Y20.5 Z198 F28.98 
G01 X27.85 Y20.5 Z162 F34.65 
G01 X27.75 Y20.5 Z123 F40.00 
G01 X27.65 Y20.5 Z96 F40.00 
G01 X27.55 Y20.5 Z76 F40.00 
G01 X27.45 Y20.5 Z63 F40.00 
G01 X27.35 Y20.5 Z48 F40.00 
G01 X27.25 Y20.5 Z33 F40.00 
G01 X27.15 Y20.5 Z20 F40.00 
G01 X27.05 Y20.5 Z12 F40.00 
G01 X26.95 Y20.5 Z5 F80.00 
G01 X26.65 Y20.5 Z0 F80.00 
G01 X26.55 Y20.5 Z3 F80.00 
G01 X26.45 Y20.5 Z7 F80.00 
G01 X26.35 Y20.5 Z12 F40.00 
G01 X26.25 Y20.5 Z22 F40.00 
G01 X26.15 Y20.5 Z37 F40.00 
G01 X26.05 Y20.5 Z51 F40.00 
G01 X25.95 Y20.5 Z68 F40.00 
G01 X25.85 Y20.5 Z83 F40.00 
G01 X25.75 Y20.5 Z101 F40.00 
G01 X25.65 Y20.5 Z131 F39.53 
G01 X25.55 Y20.5 Z171 F33.23 
G01 X25.45 Y20.5 Z204 F28.03 
G01 X25.35 Y20.5 Z231 F23.78 
G01 X25.25 Y20.5 Z246 F21.42 
G01 X25.15 Y20.5 Z251 F20.63 
G01 X25.05 Y20.5 Z254 F20.16 
G01 X18.35 Y20.5 Z255 F20.00 
G01 X18.25 Y20.5 Z251 F20.63 
G01 X18.15 Y20.5 Z140 F38.11 
G01 X18.1 Y20.5 Z0 F80.00 
G00 X18.1 Y20.6 Z0 F80.00 
G01 X18.05 Y20.6 Z0 F80.00 
G01 X18.15 Y20.6 Z127 F40.00 
G01 X18.25 Y20.6 Z250 F20.79 
G01 X24.65 Y20.6 Z255 F20.00 
G01 X24.75 Y20.6 Z253 F20.31 
G01 X24.85 Y20.6 Z246 F21.42 
G01 X24.95 Y20.6 Z222 F25.20 
G01 X25.05 Y20.6 Z182 F31.50 
G01 X25.15 Y20.6 Z138 F38.43 
G01 X25.25 Y20.6 Z92 F40.00 
G01 X25.35 Y20.6 Z36 F40.00 
G01 X25.45 Y20.6 Z5 F80.00 
G01 X28.05 Y20.6 Z0 F80.00 
G01 X28.15 Y20.6 Z3 F80.00 
G01 X28.25 Y20.6 Z18 F40.00 
G01 X28.35 Y20.6 Z71 F40.00 
G01 X28.45 Y20.6 Z124 F40.00 
G01 X28.55 Y20.6 Z171 F33.23 
G01 X28.65 Y20.6 Z213 F26.61 
G01 X28.75 Y20.6 Z243 F21.89 
G01 X28.85 Y20.6 Z253 F20.31 
G01 X28.95 Y20.6 Z254 F20.16 
G01 X30.95 Y20.6 Z255 F20.00 
G01 X31.05 Y20.6 Z254 F20.16 
G01 X31.15 Y20.6 Z211 F26.93 
G01 X31.2 Y20.6 Z0 F80.00 
G00 X31.2 Y20.7 Z0 F80.00 
G01 X31.25 Y20.7 Z0 F80.00 
G01 X31.15 Y20.7 Z199 F28.82 
G01 X31.05 Y20.7 Z254 F20.16 
G01 X29.25 Y20.7 Z255 F20.00 
G01 X29.15 Y20.7 Z254 F20.16 
G01 X29.05 Y20.7 Z243 F21.89 
G01 X28.95 Y20.7 Z216 F26.14 
G01 X28.85 Y20.7 Z160 F34.96 
G01 X28.75 Y20.7 Z84 F40.00 
G01 X28.65 Y20.7 Z37 F40.00 
G01 X28.55 Y20.7 Z9 F80.00 
G01 X24.95 Y20.7 Z0 F80.00 
G01 X24.85 Y20.7 Z16 F40.00 
G01 X24.75 Y20.7 Z44 F40.00 
G01 X24.65 Y20.7 Z101 F40.00 
G01 X24.55 Y20.7 Z178 F32.13 
G01 X24.45 Y20.7 Z225 F24.72 
G01 X24.35 Y20.7 Z247 F21.26 
G01 X24.25 Y20.7 Z254 F20.16 
G01 X18.15 Y20.7 Z255 F20.00 
G01 X18.05 Y20.7 Z248 F21.10 
G01 X17.95 Y20.7 Z107 F40.00 
G01 X17.9 Y20.7 Z0 F80.00 
G00 X17.9 Y20.8 Z0 F80.00 
G01 X17.85 Y20.8 Z0 F80.00 
G01 X17.95 Y20.8 Z76 F40.00 
G01 X18.05 Y20.8 Z243 F21.89 
G01 X23.95 Y20.8 Z255 F20.00 
G01 X24.05 Y20.8 Z254 F20.16 
G01 X24.15 Y20.8 Z246 F21.42 
G01 X24.25 Y20.8 Z209 F27.24 
G01 X24.35 Y20.8 Z134 F39.06 
G01 X24.45 Y20.8 Z68 F40.00 
G01 X24.55 Y20.8 Z9 F80.00 
G01 X29.05 Y20.8 Z0 F80.00 
G01 X29.15 Y20.8 Z51 F40.00 
G01 X29.25 Y20.8 Z114 F40.00 
G01 X29.35 Y20.8 Z191 F30.08 
G01 X29.45 Y20.8 Z241 F22.20 
G01 X29.55 Y20.8 Z253 F20.31 
G01 X31.15 Y20.8 Z255 F20.00 
G01 X31.25 Y20.8 Z254 F20.16 
G01 X31.3 Y20.8 Z0 F80.00 
G00 X31.3 Y20.9 Z0 F80.00 
G01 X31.35 Y20.9 Z0 F80.00 
G01 X31.25 Y20.9 Z253 F20.31 
G01 X29.85 Y20.9 Z255 F20.00 
G01 X29.75 Y20.9 Z254 F20.16 
G01 X29.65 Y20.9 Z243 F21.89 
G01 X29.55 Y20.9 Z195 F29.45 
G01 X29.45 Y20.9 Z116 F40.00 
G01 X29.35 Y20.9 Z29 F40.00 
G01 X24.25 Y20.9 Z0 F80.00 
G01 X24.15 Y20.9 Z3 F80.00 
G01 X24.05 Y20.9 Z45 F40.00 
G01 X23.95 Y20.9 Z140 F38.11 
G01 X23.85 Y20.9 Z210 F27.09 
G01 X23.75 Y20.9 Z248 F21.10 
G01 X23.65 Y20.9 Z254 F20.16 
G01 X17.95 Y20.9 Z255 F20.00 
G01 X17.85 Y20.9 Z233 F23.46 
G01 X17.75 Y20.9 Z53 F40.00 
G01 X17.7 Y20.9 Z0 F80.00 
G00 X17.7 Y21.0 Z0 F80.00 
G01 X17.65 Y21.0 Z0 F80.00 
G01 X17.75 Y21.0 Z29 F40.00 
G01 X17.85 Y21.0 Z219 F25.67 
G01 X23.45 Y21.0 Z255 F20.00 
G01 X23.55 Y21.0 Z253 F20.31 
G01 X23.65 Y21.0 Z233 F23.46 
G01 X23.75 Y21.0 Z165 F34.17 
G01 X23.85 Y21.0 Z65 F40.00 
G01 X23.95 Y21.0 Z7 F80.00 
G01 X29.65 Y21.0 Z0 F80.00 
G01 X29.75 Y21.0 Z45 F40.00 
G01 X29.85 Y21.0 Z140 F38.11 
G01 X29.95 Y21.0 Z223 F25.04 
G01 X30.05 Y21.0 Z250 F20.79 
G01 X31.35 Y21.0 Z255 F20.00 
G01 X31.45 Y21.0 Z250 F20.79 
G01 X31.5 Y21.0 Z0 F80.00 
G00 X31.5 Y21.1 Z0 F80.00 
G01 X31.55 Y21.1 Z0 F80.00 
G01 X31.45 Y21.1 Z243 F21.89 
G01 X30.35 Y21.1 Z255 F20.00 
G01 X30.25 Y21.1 Z254 F20.16 
G01 X30.15 Y21.1 Z245 F21.57 
G01 X30.05 Y21.1 Z187 F30.71 
G01 X29.95 Y21.1 Z87 F40.00 
G01 X29.85 Y21.1 Z9 F80.00 
G01 X23.65 Y21.1 Z0 F80.00 
G01 X23.55 Y21.1 Z22 F40.00 
G01 X23.45 Y21.1 Z113 F40.00 
G01 X23.35 Y21.1 Z209 F27.24 
G01 X23.25 Y21.1 Z250 F20.79 
G01 X17.85 Y21.1 Z255 F20.00 
G01 X17.75 Y21.1 Z254 F20.16 
G01 X17.65 Y21.1 Z190 F30.24 
G01 X17.55 Y21.1 Z12 F40.00 
G01 X17.5 Y21.1 Z0 F80.00 
G00 X17.5 Y21.2 Z0 F80.00 
G01 X17.55 Y21.2 Z0 F80.00 
G01 X17.65 Y21.2 Z147 F37.01 
G01 X17.75 Y21.2 Z253 F20.31 
G01 X23.05 Y21.2 Z255 F20.00 
G01 X23.15 Y21.2 Z247 F21.26 
G01 X23.25 Y21.2 Z191 F30.08 
G01 X23.35 Y21.2 Z74 F40.00 
G01 X23.45 Y21.2 Z7 F80.00 
G01 X30.15 Y21.2 Z0 F80.00 
G01 X30.25 Y21.2 Z50 F40.00 
G01 X30.35 Y21.2 Z165 F34.17 
G01 X30.45 Y21.2 Z239 F22.52 
G01 X30.55 Y21.2 Z254 F20.16 
G01 X31.55 Y21.2 Z255 F20.00 
G01 X31.65 Y21.2 Z224 F24.88 
G01 X31.7 Y21.2 Z0 F80.00 
G00 X31.7 Y21.3 Z0 F80.00 
G01 X31.75 Y21.3 Z0 F80.00 
G01 X31.65 Y21.3 Z192 F29.92 
G01 X31.55 Y21.3 Z254 F20.16 
G01 X30.75 Y21.3 Z255 F20.00 
G01 X30.65 Y21.3 Z254 F20.16 
G01 X30.55 Y21.3 Z238 F22.68 
G01 X30.45 Y21.3 Z155 F35.75 
G01 X30.35 Y21.3 Z42 F40.00 
G01 X23.15 Y21.3 Z0 F80.00 
G01 X23.05 Y21.3 Z65 F40.00 
G01 X22.95 Y21.3 Z186 F30.87 
G01 X22.85 Y21.3 Z246 F21.42 
G01 X17.65 Y21.3 Z255 F20.00 
G01 X17.55 Y21.3 Z248 F21.10 
G01 X17.45 Y21.3 Z94 F40.00 
G01 X17.4 Y21.3 Z0 F80.00 
G00 X17.4 Y21.4 Z0 F80.00 
G01 X17.35 Y21.4 Z0 F80.00 
G01 X17.45 Y21.4 Z39 F40.00 
G01 X17.55 Y21.4 Z232 F23.62 
G01 X22.65 Y21.4 Z255 F20.00 
G01 X22.75 Y21.4 Z249 F20.94 
G01 X22.85 Y21.4 Z189 F30.39 
G01 X22.95 Y21.4 Z68 F40.00 
G01 X30.55 Y21.4 Z0 F80.00 
G01 X30.65 Y21.4 Z39 F40.00 
G01 X30.75 Y21.4 Z162 F34.65 
G01 X30.85 Y21.4 Z243 F21.89 
G01 X30.95 Y21.4 Z254 F20.16 
G01 X31.65 Y21.4 Z255 F20.00 
G01 X31.75 Y21.4 Z253 F20.31 
G01 X31.8 Y21.4 Z0 F80.00 
G00 X31.8 Y21.5 Z0 F80.00 
G01 X31.85 Y21.5 Z0 F80.00 
G01 X31.75 Y21.5 Z245 F21.57 
G01 X31.05 Y21.5 Z255 F20.00 
G01 X30.95 Y21.5 Z249 F20.94 
G01 X30.85 Y21.5 Z186 F30.87 
G01 X30.75 Y21.5 Z51 F40.00 
G01 X22.85 Y21.5 Z0 F80.00 
G01 X22.75 Y21.5 Z3 F80.00 
G01 X22.65 Y21.5 Z84 F40.00 
G01 X22.55 Y21.5 Z213 F26.61 
G01 X22.45 Y21.5 Z253 F20.31 
G01 X17.55 Y21.5 Z255 F20.00 
G01 X17.45 Y21.5 Z254 F20.16 
G01 X17.35 Y21.5 Z190 F30.24 
G01 X17.25 Y21.5 Z12 F40.00 
G01 X17.2 Y21.5 Z0 F80.00 
G00 X17.2 Y21.6 Z0 F80.00 
G01 X17.25 Y21.6 Z0 F80.00 
G01 X17.35 Y21.6 Z129 F39.84 
G01 X17.45 Y21.6 Z252 F20.47 
G01 X22.25 Y21.6 Z255 F20.00 
G01 X22.35 Y21.6 Z254 F20.16 
G01 X22.45 Y21.6 Z232 F23.62 
G01 X22.55 Y21.6 Z122 F40.00 
G01 X22.65 Y21.6 Z16 F40.00 
G01 X30.85 Y21.6 Z0 F80.00 
G01 X30.95 Y21.6 Z3 F80.00 
G01 X31.05 Y21.6 Z87 F40.00 
G01 X31.15 Y21.6 Z215 F26.30 
G01 X31.25 Y21.6 Z253 F20.31 
G01 X31.85 Y21.6 Z255 F20.00 
G01 X31.95 Y21.6 Z221 F25.35 
G01 X32.0 Y21.6 Z0 F80.00 
G00 X32.0 Y21.7 Z0 F80.00 
G01 X31.95 Y21.7 Z0 F80.00 
G01 X31.85 Y21.7 Z254 F20.16 
G01 X31.35 Y21.7 Z255 F20.00 
G01 X31.25 Y21.7 Z241 F22.20 
G01 X31.15 Y21.7 Z134 F39.06 
G01 X31.05 Y21.7 Z12 F40.00 
G01 X22.45 Y21.7 Z0 F80.00 
G01 X22.35 Y21.7 Z31 F40.00 
G01 X22.25 Y21.7 Z171 F33.23 
G01 X22.15 Y21.7 Z248 F21.10 
G01 X17.35 Y21.7 Z255 F20.00 
G01 X17.25 Y21.7 Z243 F21.89 
G01 X17.15 Y21.7 Z59 F40.00 
G01 X17.1 Y21.7 Z0 F80.00 
G00 X17.1 Y21.8 Z0 F80.00 
G01 X17.15 Y21.8 Z0 F80.00 
G01 X17.25 Y21.8 Z204 F28.03 
G01 X21.95 Y21.8 Z255 F20.00 
G01 X22.05 Y21.8 Z254 F20.16 
G01 X22.15 Y21.8 Z223 F25.04 
G01 X22.25 Y21.8 Z87 F40.00 
G01 X22.35 Y21.8 Z3 F80.00 
G01 X31.25 Y21.8 Z0 F80.00 
G01 X31.35 Y21.8 Z53 F40.00 
G01 X31.45 Y21.8 Z197 F29.13 
G01 X31.55 Y21.8 Z252 F20.47 
G01 X31.95 Y21.8 Z255 F20.00 
G01 X32.05 Y21.8 Z247 F21.26 
G01 X32.1 Y21.8 Z0 F80.00 
G00 X32.1 Y21.9 Z0 F80.00 
G01 X32.15 Y21.9 Z0 F80.00 
G01 X32.05 Y21.9 Z216 F26.14 
G01 X31.65 Y21.9 Z255 F20.00 
G01 X31.55 Y21.9 Z240 F22.36 
G01 X31.45 Y21.9 Z123 F40.00 
G01 X31.35 Y21.9 Z7 F80.00 
G01 X22.15 Y21.9 Z0 F80.00 
G01 X22.05 Y21.9 Z24 F40.00 
G01 X21.95 Y21.9 Z163 F34.49 
G01 X21.85 Y21.9 Z249 F20.94 
G01 X17.25 Y21.9 Z255 F20.00 
G01 X17.15 Y21.9 Z252 F20.47 
G01 X17.05 Y21.9 Z127 F40.00 
G01 X17.0 Y21.9 Z0 F80.00 
G00 X17.0 Y22.0 Z0 F80.00 
G01 X16.95 Y22.0 Z0 F80.00 
G01 X17.05 Y22.0 Z44 F40.00 
G01 X17.15 Y22.0 Z238 F22.68 
G01 X21.75 Y22.0 Z255 F20.00 
G01 X21.85 Y22.0 Z232 F23.62 
G01 X21.95 Y22.0 Z94 F40.00 
G01 X31.55 Y22.0 Z0 F80.00 
G01 X31.65 Y22.0 Z57 F40.00 
G01 X31.75 Y22.0 Z209 F27.24 
G01 X31.85 Y22.0 Z253 F20.31 
G01 X32.05 Y22.0 Z255 F20.00 
G01 X32.15 Y22.0 Z253 F20.31 
G01 X32.2 Y22.0 Z0 F80.00 
G00 X32.2 Y22.1 Z0 F80.00 
G01 X32.25 Y22.1 Z0 F80.00 
G01 X32.15 Y22.1 Z243 F21.89 
G01 X31.95 Y22.1 Z255 F20.00 
G01 X31.85 Y22.1 Z249 F20.94 
G01 X31.75 Y22.1 Z156 F35.59 
G01 X31.65 Y22.1 Z16 F40.00 
G01 X21.85 Y22.1 Z0 F80.00 
G01 X21.75 Y22.1 Z39 F40.00 
G01 X21.65 Y22.1 Z193 F29.76 
G01 X21.55 Y22.1 Z253 F20.31 
G01 X17.15 Y22.1 Z255 F20.00 
G01 X17.05 Y22.1 Z254 F20.16 
G01 X16.95 Y22.1 Z181 F31.65 
G01 X16.9 Y22.1 Z0 F80.00 
G00 X16.9 Y22.2 Z0 F80.00 
G01 X16.85 Y22.2 Z0 F80.00 
G01 X16.95 Y22.2 Z83 F40.00 
G01 X17.05 Y22.2 Z249 F20.94 
G01 X21.45 Y22.2 Z255 F20.00 
G01 X21.55 Y22.2 Z248 F21.10 
G01 X21.65 Y22.2 Z150 F36.54 
G01 X21.75 Y22.2 Z12 F40.00 
G01 X31.85 Y22.2 Z0 F80.00 
G01 X31.95 Y22.2 Z104 F40.00 
G01 X32.05 Y22.2 Z238 F22.68 
G01 X32.25 Y22.2 Z255 F20.00 
G01 X32.3 Y22.2 Z0 F80.00 
G00 X32.3 Y22.3 Z0 F80.00 
G01 X32.35 Y22.3 Z0 F80.00 
G01 X32.25 Y22.3 Z249 F20.94 
G01 X32.15 Y22.3 Z254 F20.16 
G01 X32.05 Y22.3 Z218 F25.83 
G01 X31.95 Y22.3 Z59 F40.00 
G01 X21.55 Y22.3 Z0 F80.00 
G01 X21.45 Y22.3 Z99 F40.00 
G01 X21.35 Y22.3 Z238 F22.68 
G01 X16.95 Y22.3 Z255 F20.00 
G01 X16.85 Y22.3 Z209 F27.24 
G01 X16.8 Y22.3 Z0 F80.00 
G00 X16.8 Y22.4 Z0 F80.00 
G01 X16.75 Y22.4 Z0 F80.00 
G01 X16.85 Y22.4 Z109 F40.00 
G01 X16.95 Y22.4 Z252 F20.47 
G01 X21.15 Y22.4 Z255 F20.00 
G01 X21.25 Y22.4 Z254 F20.16 
G01 X21.35 Y22.4 Z225 F24.72 
G01 X21.45 Y22.4 Z61 F40.00 
G01 X32.05 Y22.4 Z0 F80.00 
G01 X32.15 Y22.4 Z31 F40.00 
G01 X32.25 Y22.4 Z193 F29.76 
G01 X32.35 Y22.4 Z253 F20.31 
G01 X32.45 Y22.4 Z212 F26.77 
G01 X32.5 Y22.4 Z0 F80.00 
G00 X32.5 Y22.5 Z0 F80.00 
G01 X32.45 Y22.5 Z0 F80.00 
G01 X32.35 Y22.5 Z245 F21.57 
G01 X32.25 Y22.5 Z170 F33.39 
G01 X32.15 Y22.5 Z13 F40.00 
G01 X21.35 Y22.5 Z0 F80.00 
G01 X21.25 Y22.5 Z39 F40.00 
G01 X21.15 Y22.5 Z206 F27.72 
G01 X21.05 Y22.5 Z254 F20.16 
G01 X16.85 Y22.5 Z255 F20.00 
G01 X16.75 Y22.5 Z224 F24.88 
G01 X16.65 Y22.5 Z24 F40.00 
G01 X16.6 Y22.5 Z0 F80.00 
G00 X16.6 Y22.6 Z0 F80.00 
G01 X16.65 Y22.6 Z0 F80.00 
G01 X16.75 Y22.6 Z125 F40.00 
G01 X16.85 Y22.6 Z253 F20.31 
G01 X20.95 Y22.6 Z255 F20.00 
G01 X21.05 Y22.6 Z253 F20.31 
G01 X21.15 Y22.6 Z187 F30.71 
G01 X21.25 Y22.6 Z20 F40.00 
G01 X32.25 Y22.6 Z0 F80.00 
G01 X32.35 Y22.6 Z5 F80.00 
G01 X32.45 Y22.6 Z143 F37.64 
G01 X32.55 Y22.6 Z184 F31.18 
G01 X32.6 Y22.6 Z0 F80.00 
G00 X32.6 Y22.7 Z0 F80.00 
G01 X32.55 Y22.7 Z0 F80.00 
G01 X32.45 Y22.7 Z94 F40.00 
G01 X32.35 Y22.7 Z5 F80.00 
G01 X21.15 Y22.7 Z0 F80.00 
G01 X21.05 Y22.7 Z16 F40.00 
G01 X20.95 Y22.7 Z177 F32.28 
G01 X20.85 Y22.7 Z253 F20.31 
G01 X16.75 Y22.7 Z255 F20.00 
G01 X16.65 Y22.7 Z228 F24.25 
G01 X16.55 Y22.7 Z18 F40.00 
G01 X16.5 Y22.7 Z0 F80.00 
G00 X16.5 Y22.8 Z0 F80.00 
G01 X16.55 Y22.8 Z0 F80.00 
G01 X16.65 Y22.8 Z124 F40.00 
G01 X16.75 Y22.8 Z253 F20.31 
G01 X20.75 Y22.8 Z255 F20.00 
G01 X20.85 Y22.8 Z252 F20.47 
G01 X20.95 Y22.8 Z165 F34.17 
G01 X21.05 Y22.8 Z9 F80.00 
G01 X32.6 Y22.8 Z0 F80.00 
G00 X32.6 Y22.9 Z0 F80.00 
G01 X20.75 Y22.9 Z0 F80.00 
G01 X20.65 Y22.9 Z253 F20.31 
G01 X16.65 Y22.9 Z255 F20.00 
G01 X16.55 Y22.9 Z221 F25.35 
G01 X16.45 Y22.9 Z16 F40.00 
G01 X16.4 Y22.9 Z0 F80.00 
G00 X16.4 Y23.0 Z0 F80.00 
G01 X16.45 Y23.0 Z0 F80.00 
G01 X16.55 Y23.0 Z104 F40.00 
G01 X16.65 Y23.0 Z252 F20.47 
G01 X20.55 Y23.0 Z255 F20.00 
G01 X20.65 Y23.0 Z253 F20.31 
G01 X20.7 Y23.0 Z0 F80.00 
G00 X20.7 Y23.1 Z0 F80.00 
G01 X20.55 Y23.1 Z0 F80.00 
G01 X20.45 Y23.1 Z253 F20.31 
G01 X16.55 Y23.1 Z255 F20.00 
G01 X16.45 Y23.1 Z210 F27.09 
G01 X16.4 Y23.1 Z0 F80.00 
G00 X16.4 Y23.2 Z0 F80.00 
G01 X16.35 Y23.2 Z0 F80.00 
G01 X16.45 Y23.2 Z74 F40.00 
G01 X16.55 Y23.2 Z249 F20.94 
G01 X20.35 Y23.2 Z255 F20.00 
G01 X20.45 Y23.2 Z254 F20.16 
G01 X20.55 Y23.2 Z191 F30.08 
G01 X20.6 Y23.2 Z0 F80.00 
G00 X20.6 Y23.3 Z0 F80.00 
G01 X20.45 Y23.3 Z0 F80.00 
G01 X20.35 Y23.3 Z206 F27.72 
G01 X20.25 Y23.3 Z254 F20.16 
G01 X16.45 Y23.3 Z255 F20.00 
G01 X16.35 Y23.3 Z171 F33.23 
G01 X16.3 Y23.3 Z0 F80.00 
G00 X16.3 Y23.4 Z0 F80.00 
G01 X16.25 Y23.4 Z0 F80.00 
G01 X16.35 Y23.4 Z24 F40.00 
G01 X16.45 Y23.4 Z238 F22.68 
G01 X20.25 Y23.4 Z255 F20.00 
G01 X20.35 Y23.4 Z227 F24.41 
G01 X20.4 Y23.4 Z0 F80.00 
G00 X20.4 Y23.5 Z0 F80.00 
G01 X20.25 Y23.5 Z0 F80.00 
G01 X20.15 Y23.5 Z241 F22.20 
G01 X16.45 Y23.5 Z255 F20.00 
G01 X16.35 Y23.5 Z253 F20.31 
G01 X16.25 Y23.5 Z122 F40.00 
G01 X16.2 Y23.5 Z0 F80.00 
G00 X16.2 Y23.6 Z0 F80.00 
G01 X16.25 Y23.6 Z0 F80.00 
G01 X16.35 Y23.6 Z207 F27.56 
G01 X20.05 Y23.6 Z255 F20.00 
G01 X20.15 Y23.6 Z250 F20.79 
G01 X20.2 Y23.6 Z0 F80.00 
G00 X20.2 Y23.7 Z0 F80.00 
G01 X20.05 Y23.7 Z0 F80.00 
G01 X19.95 Y23.7 Z253 F20.31 
G01 X16.35 Y23.7 Z255 F20.00 
G01 X16.25 Y23.7 Z247 F21.26 
G01 X16.15 Y23.7 Z53 F40.00 
G01 X16.1 Y23.7 Z0 F80.00 
G00 X16.1 Y23.8 Z0 F80.00 
G01 X16.15 Y23.8 Z0 F80.00 
G01 X16.25 Y23.8 Z143 F37.64 
G01 X16.35 Y23.8 Z254 F20.16 
G01 X19.95 Y23.8 Z255 F20.00 
G01 X20.05 Y23.8 Z201 F28.50 
G01 X20.1 Y23.8 Z0 F80.00 
G00 X20.1 Y23.9 Z0 F80.00 
G01 X19.95 Y23.9 Z0 F80.00 
G01 X19.85 Y23.9 Z237 F22.83 
G01 X16.25 Y23.9 Z255 F20.00 
G01 X16.15 Y23.9 Z217 F25.98 
G01 X16.1 Y23.9 Z0 F80.00 
G00 X16.1 Y24.0 Z0 F80.00 
G01 X16.05 Y24.0 Z0 F80.00 
G01 X16.15 Y24.0 Z59 F40.00 
G01 X16.25 Y24.0 Z246 F21.42 
G01 X19.75 Y24.0 Z255 F20.00 
G01 X19.85 Y24.0 Z251 F20.63 
G01 X19.9 Y24.0 Z0 F80.00 
G00 X19.9 Y24.1 Z0 F80.00 
G01 X19.75 Y24.1 Z0 F80.00 
G01 X19.65 Y24.1 Z254 F20.16 
G01 X16.25 Y24.1 Z255 F20.00 
G01 X16.15 Y24.1 Z254 F20.16 
G01 X16.05 Y24.1 Z127 F40.00 
G01 X16.0 Y24.1 Z0 F80.00 
G00 X16.0 Y24.2 Z0 F80.00 
G01 X16.05 Y24.2 Z0 F80.00 
G01 X16.15 Y24.2 Z198 F28.98 
G01 X19.65 Y24.2 Z255 F20.00 
G01 X19.75 Y24.2 Z230 F23.94 
G01 X19.8 Y24.2 Z0 F80.00 
G00 X19.8 Y24.3 Z0 F80.00 
G01 X19.65 Y24.3 Z0 F80.00 
G01 X19.55 Y24.3 Z251 F20.63 
G01 X16.15 Y24.3 Z255 F20.00 
G01 X16.05 Y24.3 Z239 F22.52 
G01 X15.95 Y24.3 Z20 F40.00 
G01 X15.9 Y24.3 Z0 F80.00 
G00 X15.9 Y24.4 Z0 F80.00 
G01 X15.95 Y24.4 Z0 F80.00 
G01 X16.05 Y24.4 Z87 F40.00 
G01 X16.15 Y24.4 Z251 F20.63 
G01 X19.45 Y24.4 Z255 F20.00 
G01 X19.55 Y24.4 Z254 F20.16 
G01 X19.6 Y24.4 Z0 F80.00 
G00 X19.6 Y24.5 Z0 F80.00 
G01 X19.55 Y24.5 Z0 F80.00 
G01 X19.45 Y24.5 Z239 F22.52 
G01 X16.15 Y24.5 Z255 F20.00 
G01 X16.05 Y24.5 Z254 F20.16 
G01 X15.95 Y24.5 Z155 F35.75 
G01 X15.9 Y24.5 Z0 F80.00 
G00 X15.9 Y24.6 Z0 F80.00 
G01 X15.95 Y24.6 Z0 F80.00 
G01 X16.05 Y24.6 Z204 F28.03 
G01 X19.35 Y24.6 Z255 F20.00 
G01 X19.45 Y24.6 Z253 F20.31 
G01 X19.5 Y24.6 Z0 F80.00 
G00 X19.5 Y24.7 Z0 F80.00 
G01 X19.45 Y24.7 Z0 F80.00 
G01 X19.35 Y24.7 Z224 F24.88 
G01 X16.05 Y24.7 Z255 F20.00 
G01 X15.95 Y24.7 Z235 F23.15 
G01 X15.85 Y24.7 Z33 F40.00 
G01 X15.8 Y24.7 Z0 F80.00 
G00 X15.8 Y24.8 Z0 F80.00 
G01 X15.85 Y24.8 Z0 F80.00 
G01 X15.95 Y24.8 Z68 F40.00 
G01 X16.05 Y24.8 Z251 F20.63 
G01 X19.25 Y24.8 Z255 F20.00 
G01 X19.35 Y24.8 Z252 F20.47 
G01 X19.4 Y24.8 Z0 F80.00 
G00 X19.4 Y24.9 Z0 F80.00 
G01 X19.35 Y24.9 Z0 F80.00 
G01 X19.25 Y24.9 Z209 F27.24 
G01 X16.05 Y24.9 Z255 F20.00 
G01 X15.95 Y24.9 Z254 F20.16 
G01 X15.85 Y24.9 Z123 F40.00 
G01 X15.8 Y24.9 Z0 F80.00 
G00 X15.8 Y25.0 Z0 F80.00 
G01 X15.85 Y25.0 Z0 F80.00 
G01 X15.95 Y25.0 Z177 F32.28 
G01 X19.15 Y25.0 Z255 F20.00 
G01 X19.25 Y25.0 Z251 F20.63 
G01 X19.3 Y25.0 Z0 F80.00 
G00 X19.3 Y25.1 Z0 F80.00 
G01 X19.15 Y25.1 Z0 F80.00 
G01 X15.95 Y25.1 Z255 F20.00 
G01 X15.85 Y25.1 Z216 F26.14 
G01 X15.8 Y25.1 Z0 F80.00 
G00 X15.8 Y25.2 Z0 F80.00 
G01 X15.75 Y25.2 Z0 F80.00 
G01 X15.85 Y25.2 Z13 F40.00 
G01 X15.95 Y25.2 Z237 F22.83 
G01 X19.05 Y25.2 Z255 F20.00 
G01 X19.15 Y25.2 Z250 F20.79 
G01 X19.2 Y25.2 Z0 F80.00 
G00 X19.2 Y25.3 Z0 F80.00 
G01 X19.05 Y25.3 Z0 F80.00 
G01 X15.95 Y25.3 Z255 F20.00 
G01 X15.85 Y25.3 Z245 F21.57 
G01 X15.75 Y25.3 Z55 F40.00 
G01 X15.7 Y25.3 Z0 F80.00 
G00 X15.7 Y25.4 Z0 F80.00 
G01 X15.75 Y25.4 Z0 F80.00 
G01 X15.85 Y25.4 Z89 F40.00 
G01 X15.95 Y25.4 Z250 F20.79 
G01 X18.95 Y25.4 Z255 F20.00 
G01 X19.05 Y25.4 Z253 F20.31 
G01 X19.1 Y25.4 Z0 F80.00 
G00 X19.1 Y25.5 Z0 F80.00 
G01 X19.05 Y25.5 Z0 F80.00 
G01 X18.95 Y25.5 Z225 F24.72 
G01 X15.95 Y25.5 Z255 F20.00 
G01 X15.85 Y25.5 Z253 F20.31 
G01 X15.75 Y25.5 Z119 F40.00 
G01 X15.7 Y25.5 Z0 F80.00 
G00 X15.7 Y25.6 Z0 F80.00 
G01 X15.75 Y25.6 Z0 F80.00 
G01 X15.85 Y25.6 Z144 F37.48 
G01 X18.85 Y25.6 Z255 F20.00 
G01 X18.95 Y25.6 Z254 F20.16 
G01 X19.0 Y25.6 Z0 F80.00 
G00 X19.0 Y25.7 Z0 F80.00 
G01 X18.95 Y25.7 Z0 F80.00 
G01 X18.85 Y25.7 Z243 F21.89 
G01 X15.85 Y25.7 Z255 F20.00 
G01 X15.75 Y25.7 Z177 F32.28 
G01 X15.7 Y25.7 Z0 F80.00 
G00 X15.7 Y25.8 Z0 F80.00 
G01 X15.75 Y25.8 Z0 F80.00 
G01 X15.85 Y25.8 Z198 F28.98 
G01 X18.85 Y25.8 Z255 F20.00 
G01 X18.9 Y25.8 Z0 F80.00 
G00 X18.9 Y25.9 Z0 F80.00 
G01 X18.85 Y25.9 Z0 F80.00 
G01 X18.75 Y25.9 Z251 F20.63 
G01 X15.85 Y25.9 Z255 F20.00 
G01 X15.75 Y25.9 Z213 F26.61 
G01 X15.7 Y25.9 Z0 F80.00 
G00 X15.7 Y26.0 Z0 F80.00 
G01 X15.65 Y26.0 Z0 F80.00 
G01 X15.75 Y26.0 Z13 F40.00 
G01 X15.85 Y26.0 Z225 F24.72 
G01 X18.75 Y26.0 Z255 F20.00 
G01 X18.85 Y26.0 Z230 F23.94 
G01 X18.9 Y26.0 Z0 F80.00 
G00 X18.9 Y26.1 Z0 F80.00 
G01 X18.75 Y26.1 Z0 F80.00 
G01 X18.65 Y26.1 Z254 F20.16 
G01 X15.85 Y26.1 Z255 F20.00 
G01 X15.75 Y26.1 Z235 F23.15 
G01 X15.65 Y26.1 Z20 F40.00 
G01 X15.6 Y26.1 Z0 F80.00 
G00 X15.6 Y26.2 Z0 F80.00 
G01 X15.65 Y26.2 Z0 F80.00 
G01 X15.75 Y26.2 Z24 F40.00 
G01 X15.85 Y26.2 Z243 F21.89 
G01 X18.65 Y26.2 Z255 F20.00 
G01 X18.75 Y26.2 Z251 F20.63 
G01 X18.8 Y26.2 Z0 F80.00 
G00 X18.8 Y26.3 Z0 F80.00 
G01 X18.75 Y26.3 Z0 F80.00 
G01 X18.65 Y26.3 Z227 F24.41 
G01 X15.85 Y26.3 Z255 F20.00 
G01 X15.75 Y26.3 Z245 F21.57 
G01 X15.65 Y26.3 Z29 F40.00 
G01 X15.6 Y26.3 Z0 F80.00 
G00 X15.6 Y26.4 Z0 F80.00 
G01 X15.65 Y26.4 Z0 F80.00 
G01 X15.75 Y26.4 Z31 F40.00 
G01 X15.85 Y26.4 Z247 F21.26 
G01 X18.65 Y26.4 Z255 F20.00 
G01 X18.7 Y26.4 Z0 F80.00 
G00 X18.7 Y26.5 Z0 F80.00 
G01 X18.65 Y26.5 Z0 F80.00 
G01 X18.55 Y26.5 Z252 F20.47 
G01 X15.85 Y26.5 Z255 F20.00 
G01 X15.75 Y26.5 Z248 F21.10 
G01 X15.65 Y26.5 Z31 F40.00 
G01 X15.6 Y26.5 Z0 F80.00 
G00 X15.6 Y26.6 Z0 F80.00 
G01 X15.65 Y26.6 Z0 F80.00 
G01 X15.75 Y26.6 Z33 F40.00 
G01 X15.85 Y26.6 Z250 F20.79 
G01 X18.55 Y26.6 Z255 F20.00 
G01 X18.65 Y26.6 Z240 F22.36 
G01 X18.75 Y26.6 Z22 F40.00 
G01 X76.35 Y26.6 Z0 F80.00 
G01 X76.45 Y26.6 Z18 F40.00 
G01 X76.55 Y26.6 Z88 F40.00 
G01 X76.6 Y26.6 Z0 F80.00 
G00 X76.6 Y26.7 Z0 F80.00 
G01 X76.75 Y26.7 Z0 F80.00 
G01 X76.65 Y26.7 Z98 F40.00 
G01 X76.55 Y26.7 Z209 F27.24 
G01 X76.45 Y26.7 Z162 F34.65 
G01 X76.35 Y26.7 Z24 F40.00 
G01 X18.65 Y26.7 Z0 F80.00 
G01 X18.55 Y26.7 Z204 F28.03 
G01 X15.85 Y26.7 Z255 F20.00 
G01 X15.75 Y26.7 Z249 F20.94 
G01 X15.65 Y26.7 Z33 F40.00 
G01 X15.6 Y26.7 Z0 F80.00 
G00 X15.6 Y26.8 Z0 F80.00 
G01 X15.65 Y26.8 Z0 F80.00 
G01 X15.75 Y26.8 Z31 F40.00 
G01 X15.85 Y26.8 Z247 F21.26 
G01 X18.55 Y26.8 Z255 F20.00 
G01 X18.65 Y26.8 Z141 F37.95 
G01 X52.95 Y26.8 Z0 F80.00 
G01 X53.05 Y26.8 Z5 F80.00 
G01 X53.15 Y26.8 Z28 F40.00 
G01 X53.25 Y26.8 Z3 F80.00 
G01 X76.35 Y26.8 Z0 F80.00 
G01 X76.45 Y26.8 Z24 F40.00 
G01 X76.55 Y26.8 Z165 F34.17 
G01 X76.65 Y26.8 Z252 F20.47 
G01 X76.75 Y26.8 Z225 F24.72 
G01 X76.85 Y26.8 Z114 F40.00 
G01 X76.9 Y26.8 Z0 F80.00 
G00 X76.9 Y26.9 Z0 F80.00 
G01 X76.95 Y26.9 Z0 F80.00 
G01 X76.85 Y26.9 Z116 F40.00 
G01 X76.75 Y26.9 Z230 F23.94 
G01 X76.65 Y26.9 Z255 F20.00 
G01 X76.55 Y26.9 Z253 F20.31 
G01 X76.45 Y26.9 Z180 F31.81 
G01 X76.35 Y26.9 Z40 F40.00 
G01 X53.35 Y26.9 Z0 F80.00 
G01 X53.25 Y26.9 Z36 F40.00 
G01 X53.15 Y26.9 Z129 F39.84 
G01 X53.05 Y26.9 Z150 F36.54 
G01 X52.95 Y26.9 Z15 F40.00 
G01 X18.65 Y26.9 Z0 F80.00 
G01 X18.55 Y26.9 Z84 F40.00 
G01 X18.45 Y26.9 Z251 F20.63 
G01 X15.85 Y26.9 Z255 F20.00 
G01 X15.75 Y26.9 Z246 F21.42 
G01 X15.65 Y26.9 Z29 F40.00 
G01 X15.6 Y26.9 Z0 F80.00 
G00 X15.6 Y27.0 Z0 F80.00 
G01 X15.65 Y27.0 Z0 F80.00 
G01 X15.75 Y27.0 Z27 F40.00 
G01 X15.85 Y27.0 Z243 F21.89 
G01 X18.45 Y27.0 Z255 F20.00 
G01 X18.55 Y27.0 Z238 F22.68 
G01 X18.65 Y27.0 Z37 F40.00 
G01 X52.95 Y27.0 Z0 F80.00 
G01 X53.05 Y27.0 Z4 F80.00 
G01 X53.15 Y27.0 Z138 F38.43 
G01 X53.25 Y27.0 Z252 F20.47 
G01 X53.35 Y27.0 Z206 F27.72 
G01 X53.45 Y27.0 Z100 F40.00 
G01 X53.55 Y27.0 Z15 F40.00 
G01 X55.15 Y27.0 Z0 F80.00 
G01 X55.25 Y27.0 Z2 F80.00 
G01 X76.35 Y27.0 Z0 F80.00 
G01 X76.45 Y27.0 Z59 F40.00 
G01 X76.55 Y27.0 Z209 F27.24 
G01 X76.85 Y27.0 Z255 F20.00 
G01 X76.95 Y27.0 Z227 F24.41 
G01 X77.05 Y27.0 Z112 F40.00 
G01 X77.1 Y27.0 Z0 F80.00 
G00 X77.1 Y27.1 Z0 F80.00 
G01 X77.15 Y27.1 Z0 F80.00 
G01 X77.05 Y27.1 Z95 F40.00 
G01 X76.95 Y27.1 Z216 F26.14 
G01 X76.55 Y27.1 Z255 F20.00 
G01 X76.45 Y27.1 Z225 F24.72 
G01 X76.35 Y27.1 Z70 F40.00 
G01 X76.25 Y27.1 Z2 F80.00 
G01 X55.45 Y27.1 Z0 F80.00 
G01 X55.35 Y27.1 Z9 F80.00 
G01 X55.15 Y27.1 Z72 F40.00 
G01 X53.75 Y27.1 Z0 F80.00 
G01 X53.65 Y27.1 Z2 F80.00 
G01 X53.55 Y27.1 Z51 F40.00 
G01 X53.45 Y27.1 Z167 F33.86 
G01 X53.35 Y27.1 Z244 F21.73 
G01 X53.25 Y27.1 Z255 F20.00 
G01 X53.15 Y27.1 Z246 F21.42 
G01 X53.05 Y27.1 Z86 F40.00 
G01 X18.65 Y27.1 Z0 F80.00 
G01 X18.55 Y27.1 Z5 F80.00 
G01 X18.45 Y27.1 Z215 F26.30 
G01 X15.85 Y27.1 Z255 F20.00 
G01 X15.75 Y27.1 Z241 F22.20 
G01 X15.65 Y27.1 Z24 F40.00 
G01 X15.6 Y27.1 Z0 F80.00 
G00 X15.6 Y27.2 Z0 F80.00 
G01 X15.65 Y27.2 Z0 F80.00 
G01 X15.75 Y27.2 Z20 F40.00 
G01 X15.85 Y27.2 Z236 F22.99 
G01 X18.35 Y27.2 Z255 F20.00 
G01 X18.45 Y27.2 Z254 F20.16 
G01 X18.55 Y27.2 Z177 F32.28 
G01 X53.05 Y27.2 Z0 F80.00 
G01 X53.15 Y27.2 Z45 F40.00 
G01 X53.25 Y27.2 Z221 F25.35 
G01 X53.55 Y27.2 Z255 F20.00 
G01 X53.65 Y27.2 Z216 F26.14 
G01 X53.75 Y27.2 Z95 F40.00 
G01 X53.85 Y27.2 Z9 F80.00 
G01 X55.15 Y27.2 Z0 F80.00 
G01 X55.25 Y27.2 Z95 F40.00 
G01 X55.35 Y27.2 Z228 F24.25 
G01 X55.45 Y27.2 Z144 F37.48 
G01 X55.55 Y27.2 Z35 F40.00 
G01 X76.25 Y27.2 Z0 F80.00 
G01 X76.35 Y27.2 Z9 F80.00 
G01 X76.45 Y27.2 Z99 F40.00 
G01 X76.55 Y27.2 Z230 F23.94 
G01 X76.95 Y27.2 Z255 F20.00 
G01 X77.05 Y27.2 Z254 F20.16 
G01 X77.15 Y27.2 Z204 F28.03 
G01 X77.2 Y27.2 Z0 F80.00 
G00 X77.2 Y27.3 Z0 F80.00 
G01 X77.25 Y27.3 Z0 F80.00 
G01 X77.15 Y27.3 Z187 F30.71 
G01 X77.05 Y27.3 Z250 F20.79 
G01 X76.55 Y27.3 Z255 F20.00 
G01 X76.45 Y27.3 Z245 F21.57 
G01 X76.35 Y27.3 Z138 F38.43 
G01 X76.25 Y27.3 Z16 F40.00 
G01 X55.75 Y27.3 Z0 F80.00 
G01 X55.65 Y27.3 Z3 F80.00 
G01 X55.55 Y27.3 Z71 F40.00 
G01 X55.45 Y27.3 Z198 F28.98 
G01 X55.35 Y27.3 Z253 F20.31 
G01 X55.25 Y27.3 Z235 F23.15 
G01 X55.15 Y27.3 Z48 F40.00 
G01 X53.95 Y27.3 Z0 F80.00 
G01 X53.85 Y27.3 Z20 F40.00 
G01 X53.75 Y27.3 Z137 F38.58 
G01 X53.65 Y27.3 Z240 F22.36 
G01 X53.25 Y27.3 Z255 F20.00 
G01 X53.15 Y27.3 Z191 F30.08 
G01 X53.05 Y27.3 Z12 F40.00 
G01 X18.55 Y27.3 Z0 F80.00 
G01 X18.45 Y27.3 Z129 F39.84 
G01 X18.35 Y27.3 Z254 F20.16 
G01 X15.85 Y27.3 Z255 F20.00 
G01 X15.75 Y27.3 Z227 F24.41 
G01 X15.65 Y27.3 Z16 F40.00 
G01 X15.6 Y27.3 Z0 F80.00 
G00 X15.6 Y27.4 Z0 F80.00 
G01 X15.75 Y27.4 Z0 F80.00 
G01 X15.85 Y27.4 Z215 F26.30 
G01 X18.35 Y27.4 Z255 F20.00 
G01 X18.45 Y27.4 Z252 F20.47 
G01 X18.55 Y27.4 Z69 F40.00 
G01 X53.15 Y27.4 Z0 F80.00 
G01 X53.25 Y27.4 Z142 F37.80 
G01 X53.75 Y27.4 Z255 F20.00 
G01 X53.85 Y27.4 Z250 F20.79 
G01 X53.95 Y27.4 Z167 F33.86 
G01 X54.05 Y27.4 Z37 F40.00 
G01 X55.15 Y27.4 Z0 F80.00 
G01 X55.25 Y27.4 Z20 F40.00 
G01 X55.35 Y27.4 Z204 F28.03 
G01 X55.55 Y27.4 Z255 F20.00 
G01 X55.65 Y27.4 Z228 F24.25 
G01 X55.75 Y27.4 Z105 F40.00 
G01 X55.85 Y27.4 Z9 F80.00 
G01 X76.25 Y27.4 Z0 F80.00 
G01 X76.35 Y27.4 Z21 F40.00 
G01 X76.45 Y27.4 Z165 F34.17 
G01 X76.55 Y27.4 Z253 F20.31 
G01 X77.15 Y27.4 Z255 F20.00 
G01 X77.25 Y27.4 Z247 F21.26 
G01 X77.35 Y27.4 Z153 F36.06 
G01 X77.4 Y27.4 Z0 F80.00 
G00 X77.4 Y27.5 Z0 F80.00 
G01 X77.35 Y27.5 Z0 F80.00 
G01 X77.25 Y27.5 Z232 F23.62 
G01 X76.55 Y27.5 Z255 F20.00 
G01 X76.45 Y27.5 Z254 F20.16 
G01 X76.35 Y27.5 Z189 F30.39 
G01 X76.25 Y27.5 Z46 F40.00 
G01 X76.15 Y27.5 Z2 F80.00 
G01 X57.55 Y27.5 Z0 F80.00 
G01 X57.45 Y27.5 Z3 F80.00 
G01 X57.35 Y27.5 Z6 F80.00 
G01 X57.25 Y27.5 Z2 F80.00 
G01 X55.95 Y27.5 Z0 F80.00 
G01 X55.85 Y27.5 Z15 F40.00 
G01 X55.75 Y27.5 Z129 F39.84 
G01 X55.65 Y27.5 Z241 F22.20 
G01 X55.35 Y27.5 Z255 F20.00 
G01 X55.25 Y27.5 Z157 F35.43 
G01 X55.15 Y27.5 Z9 F80.00 
G01 X54.15 Y27.5 Z0 F80.00 
G01 X54.05 Y27.5 Z44 F40.00 
G01 X53.95 Y27.5 Z187 F30.71 
G01 X53.35 Y27.5 Z255 F20.00 
G01 X53.25 Y27.5 Z252 F20.47 
G01 X53.15 Y27.5 Z90 F40.00 
G01 X18.55 Y27.5 Z0 F80.00 
G01 X18.45 Y27.5 Z36 F40.00 
G01 X18.35 Y27.5 Z244 F21.73 
G01 X15.85 Y27.5 Z255 F20.00 
G01 X15.75 Y27.5 Z198 F28.98 
G01 X15.7 Y27.5 Z0 F80.00 
G00 X15.7 Y27.6 Z0 F80.00 
G01 X15.75 Y27.6 Z0 F80.00 
G01 X15.85 Y27.6 Z174 F32.76 
G01 X18.35 Y27.6 Z255 F20.00 
G01 X18.45 Y27.6 Z228 F24.25 
G01 X18.55 Y27.6 Z20 F40.00 
G01 X53.15 Y27.6 Z0 F80.00 
G01 X53.25 Y27.6 Z51 F40.00 
G01 X53.35 Y27.6 Z236 F22.99 
G01 X53.95 Y27.6 Z255 F20.00 
G01 X54.05 Y27.6 Z254 F20.16 
G01 X54.15 Y27.6 Z195 F29.45 
G01 X54.25 Y27.6 Z48 F40.00 
G01 X55.15 Y27.6 Z0 F80.00 
G01 X55.25 Y27.6 Z2 F80.00 
G01 X55.35 Y27.6 Z116 F40.00 
G01 X55.75 Y27.6 Z255 F20.00 
G01 X55.85 Y27.6 Z246 F21.42 
G01 X55.95 Y27.6 Z135 F38.90 
G01 X56.05 Y27.6 Z15 F40.00 
G01 X57.25 Y27.6 Z0 F80.00 
G01 X57.35 Y27.6 Z3 F80.00 
G01 X57.45 Y27.6 Z70 F40.00 
G01 X57.55 Y27.6 Z95 F40.00 
G01 X57.65 Y27.6 Z15 F40.00 
G01 X76.15 Y27.6 Z0 F80.00 
G01 X76.25 Y27.6 Z3 F80.00 
G01 X76.35 Y27.6 Z80 F40.00 
G01 X76.45 Y27.6 Z222 F25.20 
G01 X77.25 Y27.6 Z255 F20.00 
G01 X77.35 Y27.6 Z254 F20.16 
G01 X77.45 Y27.6 Z195 F29.45 
G01 X77.5 Y27.6 Z0 F80.00 
G00 X77.5 Y27.7 Z0 F80.00 
G01 X77.55 Y27.7 Z0 F80.00 
G01 X77.45 Y27.7 Z147 F37.01 
G01 X77.35 Y27.7 Z248 F21.10 
G01 X76.45 Y27.7 Z255 F20.00 
G01 X76.35 Y27.7 Z237 F22.83 
G01 X76.25 Y27.7 Z103 F40.00 
G01 X76.15 Y27.7 Z5 F80.00 
G01 X57.75 Y27.7 Z0 F80.00 
G01 X57.65 Y27.7 Z26 F40.00 
G01 X57.55 Y27.7 Z137 F38.58 
G01 X57.45 Y27.7 Z219 F25.67 
G01 X57.35 Y27.7 Z85 F40.00 
G01 X56.15 Y27.7 Z0 F80.00 
G01 X56.05 Y27.7 Z12 F40.00 
G01 X55.95 Y27.7 Z134 F39.06 
G01 X55.85 Y27.7 Z246 F21.42 
G01 X55.45 Y27.7 Z255 F20.00 
G01 X55.35 Y27.7 Z246 F21.42 
G01 X55.25 Y27.7 Z81 F40.00 
G01 X54.35 Y27.7 Z0 F80.00 
G01 X54.25 Y27.7 Z42 F40.00 
G01 X54.15 Y27.7 Z193 F29.76 
G01 X53.35 Y27.7 Z255 F20.00 
G01 X53.25 Y27.7 Z199 F28.82 
G01 X53.15 Y27.7 Z27 F40.00 
G01 X18.55 Y27.7 Z0 F80.00 
G01 X18.45 Y27.7 Z7 F80.00 
G01 X18.35 Y27.7 Z209 F27.24 
G01 X15.85 Y27.7 Z255 F20.00 
G01 X15.75 Y27.7 Z143 F37.64 
G01 X15.7 Y27.7 Z0 F80.00 
G00 X15.7 Y27.8 Z0 F80.00 
G01 X15.75 Y27.8 Z0 F80.00 
G01 X15.85 Y27.8 Z114 F40.00 
G01 X15.95 Y27.8 Z253 F20.31 
G01 X18.35 Y27.8 Z255 F20.00 
G01 X18.45 Y27.8 Z181 F31.65 
G01 X53.15 Y27.8 Z0 F80.00 
G01 X53.25 Y27.8 Z7 F80.00 
G01 X53.35 Y27.8 Z162 F34.65 
G01 X54.25 Y27.8 Z255 F20.00 
G01 X54.35 Y27.8 Z177 F32.28 
G01 X54.45 Y27.8 Z28 F40.00 
G01 X55.25 Y27.8 Z0 F80.00 
G01 X55.35 Y27.8 Z52 F40.00 
G01 X55.45 Y27.8 Z225 F24.72 
G01 X55.95 Y27.8 Z255 F20.00 
G01 X56.05 Y27.8 Z243 F21.89 
G01 X56.15 Y27.8 Z114 F40.00 
G01 X56.25 Y27.8 Z6 F80.00 
G01 X57.35 Y27.8 Z0 F80.00 
G01 X57.45 Y27.8 Z59 F40.00 
G01 X57.55 Y27.8 Z224 F24.88 
G01 X57.65 Y27.8 Z245 F21.57 
G01 X57.75 Y27.8 Z156 F35.59 
G01 X57.85 Y27.8 Z31 F40.00 
G01 X76.15 Y27.8 Z0 F80.00 
G01 X76.25 Y27.8 Z20 F40.00 
G01 X76.35 Y27.8 Z146 F37.17 
G01 X76.45 Y27.8 Z249 F20.94 
G01 X77.45 Y27.8 Z255 F20.00 
G01 X77.55 Y27.8 Z215 F26.30 
G01 X77.6 Y27.8 Z0 F80.00 
G00 X77.6 Y27.9 Z0 F80.00 
G01 X77.65 Y27.9 Z0 F80.00 
G01 X77.55 Y27.9 Z165 F34.17 
G01 X77.45 Y27.9 Z250 F20.79 
G01 X76.35 Y27.9 Z255 F20.00 
G01 X76.25 Y27.9 Z192 F29.92 
G01 X76.15 Y27.9 Z42 F40.00 
G01 X57.95 Y27.9 Z0 F80.00 
G01 X57.85 Y27.9 Z35 F40.00 
G01 X57.75 Y27.9 Z165 F34.17 
G01 X57.65 Y27.9 Z249 F20.94 
G01 X57.55 Y27.9 Z255 F20.00 
G01 X57.45 Y27.9 Z217 F25.98 
G01 X57.35 Y27.9 Z48 F40.00 
G01 X56.35 Y27.9 Z0 F80.00 
G01 X56.25 Y27.9 Z2 F80.00 
G01 X56.15 Y27.9 Z89 F40.00 
G01 X56.05 Y27.9 Z236 F22.99 
G01 X55.45 Y27.9 Z255 F20.00 
G01 X55.35 Y27.9 Z204 F28.03 
G01 X55.25 Y27.9 Z22 F40.00 
G01 X54.55 Y27.9 Z0 F80.00 
G01 X54.45 Y27.9 Z18 F40.00 
G01 X54.35 Y27.9 Z156 F35.59 
G01 X54.25 Y27.9 Z251 F20.63 
G01 X53.45 Y27.9 Z255 F20.00 
G01 X53.35 Y27.9 Z253 F20.31 
G01 X53.25 Y27.9 Z123 F40.00 
G01 X18.45 Y27.9 Z0 F80.00 
G01 X18.35 Y27.9 Z153 F36.06 
G01 X15.95 Y27.9 Z255 F20.00 
G01 X15.85 Y27.9 Z250 F20.79 
G01 X15.75 Y27.9 Z85 F40.00 
G01 X15.7 Y27.9 Z0 F80.00 
G00 X15.7 Y28.0 Z0 F80.00 
G01 X15.75 Y28.0 Z0 F80.00 
G01 X15.85 Y28.0 Z50 F40.00 
G01 X15.95 Y28.0 Z245 F21.57 
G01 X18.25 Y28.0 Z255 F20.00 
G01 X18.35 Y28.0 Z253 F20.31 
G01 X18.45 Y28.0 Z129 F39.84 
G01 X53.25 Y28.0 Z0 F80.00 
G01 X53.35 Y28.0 Z83 F40.00 
G01 X53.45 Y28.0 Z243 F21.89 
G01 X54.35 Y28.0 Z255 F20.00 
G01 X54.45 Y28.0 Z249 F20.94 
G01 X54.55 Y28.0 Z122 F40.00 
G01 X54.65 Y28.0 Z4 F80.00 
G01 X55.25 Y28.0 Z0 F80.00 
G01 X55.35 Y28.0 Z3 F80.00 
G01 X55.45 Y28.0 Z175 F32.60 
G01 X56.15 Y28.0 Z255 F20.00 
G01 X56.25 Y28.0 Z216 F26.14 
G01 X56.35 Y28.0 Z54 F40.00 
G01 X57.35 Y28.0 Z0 F80.00 
G01 X57.45 Y28.0 Z36 F40.00 
G01 X57.55 Y28.0 Z198 F28.98 
G01 X57.75 Y28.0 Z255 F20.00 
G01 X57.85 Y28.0 Z249 F20.94 
G01 X57.95 Y28.0 Z158 F35.28 
G01 X58.05 Y28.0 Z28 F40.00 
G01 X76.05 Y28.0 Z0 F80.00 
G01 X76.15 Y28.0 Z2 F80.00 
G01 X76.25 Y28.0 Z59 F40.00 
G01 X76.35 Y28.0 Z212 F26.77 
G01 X77.55 Y28.0 Z255 F20.00 
G01 X77.65 Y28.0 Z215 F26.30 
G01 X77.7 Y28.0 Z0 F80.00 
G00 X77.7 Y28.1 Z0 F80.00 
G01 X77.75 Y28.1 Z0 F80.00 
G01 X77.65 Y28.1 Z153 F36.06 
G01 X77.55 Y28.1 Z243 F21.89 
G01 X76.35 Y28.1 Z255 F20.00 
G01 X76.25 Y28.1 Z235 F23.15 
G01 X76.15 Y28.1 Z104 F40.00 
G01 X76.05 Y28.1 Z4 F80.00 
G01 X58.15 Y28.1 Z0 F80.00 
G01 X58.05 Y28.1 Z20 F40.00 
G01 X57.95 Y28.1 Z146 F37.17 
G01 X57.85 Y28.1 Z245 F21.57 
G01 X57.55 Y28.1 Z255 F20.00 
G01 X57.45 Y28.1 Z177 F32.28 
G01 X57.35 Y28.1 Z21 F40.00 
G01 X56.45 Y28.1 Z0 F80.00 
G01 X56.35 Y28.1 Z21 F40.00 
G01 X56.25 Y28.1 Z178 F32.13 
G01 X55.45 Y28.1 Z255 F20.00 
G01 X55.35 Y28.1 Z141 F37.95 
G01 X54.65 Y28.1 Z0 F80.00 
G01 X54.55 Y28.1 Z75 F40.00 
G01 X54.45 Y28.1 Z231 F23.78 
G01 X53.45 Y28.1 Z255 F20.00 
G01 X53.35 Y28.1 Z230 F23.94 
G01 X53.25 Y28.1 Z42 F40.00 
G01 X18.45 Y28.1 Z0 F80.00 
G01 X18.35 Y28.1 Z108 F40.00 
G01 X18.25 Y28.1 Z252 F20.47 
G01 X15.95 Y28.1 Z255 F20.00 
G01 X15.85 Y28.1 Z235 F23.15 
G01 X15.75 Y28.1 Z12 F40.00 
G01 X15.7 Y28.1 Z0 F80.00 
G00 X15.7 Y28.2 Z0 F80.00 
G01 X15.85 Y28.2 Z0 F80.00 
G01 X15.95 Y28.2 Z213 F26.61 
G01 X18.25 Y28.2 Z255 F20.00 
G01 X18.35 Y28.2 Z250 F20.79 
G01 X18.45 Y28.2 Z87 F40.00 
G01 X53.25 Y28.2 Z0 F80.00 
G01 X53.35 Y28.2 Z16 F40.00 
G01 X53.45 Y28.2 Z204 F28.03 
G01 X54.55 Y28.2 Z255 F20.00 
G01 X54.65 Y28.2 Z195 F29.45 
G01 X54.75 Y28.2 Z31 F40.00 
G01 X55.35 Y28.2 Z0 F80.00 
G01 X55.45 Y28.2 Z105 F40.00 
G01 X55.55 Y28.2 Z252 F20.47 
G01 X56.25 Y28.2 Z255 F20.00 
G01 X56.35 Y28.2 Z249 F20.94 
G01 X56.45 Y28.2 Z117 F40.00 
G01 X56.55 Y28.2 Z4 F80.00 
G01 X57.35 Y28.2 Z0 F80.00 
G01 X57.45 Y28.2 Z13 F40.00 
G01 X57.55 Y28.2 Z167 F33.86 
G01 X57.95 Y28.2 Z255 F20.00 
G01 X58.05 Y28.2 Z241 F22.20 
G01 X58.15 Y28.2 Z120 F40.00 
G01 X58.25 Y28.2 Z9 F80.00 
G01 X76.05 Y28.2 Z0 F80.00 
G01 X76.15 Y28.2 Z15 F40.00 
G01 X76.25 Y28.2 Z147 F37.01 
G01 X76.35 Y28.2 Z254 F20.16 
G01 X77.65 Y28.2 Z255 F20.00 
G01 X77.75 Y28.2 Z217 F25.98 
G01 X77.8 Y28.2 Z0 F80.00 
G00 X77.8 Y28.3 Z0 F80.00 
G01 X77.85 Y28.3 Z0 F80.00 
G01 X77.75 Y28.3 Z134 F39.06 
G01 X77.65 Y28.3 Z247 F21.26 
G01 X76.25 Y28.3 Z255 F20.00 
G01 X76.15 Y28.3 Z191 F30.08 
G01 X76.05 Y28.3 Z48 F40.00 
G01 X58.35 Y28.3 Z0 F80.00 
G01 X58.25 Y28.3 Z3 F80.00 
G01 X58.15 Y28.3 Z85 F40.00 
G01 X58.05 Y28.3 Z227 F24.41 
G01 X57.55 Y28.3 Z255 F20.00 
G01 X57.45 Y28.3 Z160 F34.96 
G01 X57.35 Y28.3 Z12 F40.00 
G01 X56.55 Y28.3 Z0 F80.00 
G01 X56.45 Y28.3 Z53 F40.00 
G01 X56.35 Y28.3 Z222 F25.20 
G01 X55.55 Y28.3 Z255 F20.00 
G01 X55.45 Y28.3 Z250 F20.79 
G01 X55.35 Y28.3 Z71 F40.00 
G01 X54.85 Y28.3 Z0 F80.00 
G01 X54.75 Y28.3 Z6 F80.00 
G01 X54.65 Y28.3 Z135 F38.90 
G01 X54.55 Y28.3 Z251 F20.63 
G01 X53.45 Y28.3 Z255 F20.00 
G01 X53.35 Y28.3 Z165 F34.17 
G01 X53.25 Y28.3 Z9 F80.00 
G01 X18.45 Y28.3 Z0 F80.00 
G01 X18.35 Y28.3 Z68 F40.00 
G01 X18.25 Y28.3 Z248 F21.10 
G01 X15.95 Y28.3 Z255 F20.00 
G01 X15.85 Y28.3 Z174 F32.76 
G01 X15.8 Y28.3 Z0 F80.00 
G00 X15.8 Y28.4 Z0 F80.00 
G01 X15.85 Y28.4 Z0 F80.00 
G01 X15.95 Y28.4 Z116 F40.00 
G01 X16.05 Y28.4 Z254 F20.16 
G01 X18.25 Y28.4 Z255 F20.00 
G01 X18.35 Y28.4 Z246 F21.42 
G01 X18.45 Y28.4 Z45 F40.00 
G01 X53.25 Y28.4 Z0 F80.00 
G01 X53.35 Y28.4 Z3 F80.00 
G01 X53.45 Y28.4 Z125 F40.00 
G01 X54.65 Y28.4 Z255 F20.00 
G01 X54.75 Y28.4 Z230 F23.94 
G01 X54.85 Y28.4 Z62 F40.00 
G01 X55.35 Y28.4 Z0 F80.00 
G01 X55.45 Y28.4 Z46 F40.00 
G01 X55.55 Y28.4 Z235 F23.15 
G01 X56.45 Y28.4 Z255 F20.00 
G01 X56.55 Y28.4 Z163 F34.49 
G01 X56.65 Y28.4 Z12 F40.00 
G01 X57.35 Y28.4 Z0 F80.00 
G01 X57.45 Y28.4 Z9 F80.00 
G01 X57.55 Y28.4 Z141 F37.95 
G01 X57.65 Y28.4 Z251 F20.63 
G01 X58.15 Y28.4 Z255 F20.00 
G01 X58.25 Y28.4 Z198 F28.98 
G01 X58.35 Y28.4 Z46 F40.00 
G01 X75.95 Y28.4 Z0 F80.00 
G01 X76.05 Y28.4 Z2 F80.00 
G01 X76.15 Y28.4 Z76 F40.00 
G01 X76.25 Y28.4 Z227 F24.41 
G01 X77.65 Y28.4 Z255 F20.00 
G01 X77.75 Y28.4 Z253 F20.31 
G01 X77.85 Y28.4 Z181 F31.65 
G01 X77.9 Y28.4 Z0 F80.00 
G00 X77.9 Y28.5 Z0 F80.00 
G01 X77.85 Y28.5 Z0 F80.00 
G01 X77.75 Y28.5 Z218 F25.83 
G01 X76.25 Y28.5 Z255 F20.00 
G01 X76.15 Y28.5 Z243 F21.89 
G01 X76.05 Y28.5 Z129 F39.84 
G01 X75.95 Y28.5 Z13 F40.00 
G01 X58.45 Y28.5 Z0 F80.00 
G01 X58.35 Y28.5 Z16 F40.00 
G01 X58.25 Y28.5 Z153 F36.06 
G01 X58.15 Y28.5 Z251 F20.63 
G01 X57.65 Y28.5 Z255 F20.00 
G01 X57.55 Y28.5 Z248 F21.10 
G01 X57.45 Y28.5 Z119 F40.00 
G01 X57.35 Y28.5 Z3 F80.00 
G01 X56.75 Y28.5 Z0 F80.00 
G01 X56.65 Y28.5 Z2 F80.00 
G01 X56.55 Y28.5 Z80 F40.00 
G01 X56.45 Y28.5 Z239 F22.52 
G01 X55.55 Y28.5 Z255 F20.00 
G01 X55.45 Y28.5 Z210 F27.09 
G01 X55.35 Y28.5 Z33 F40.00 
G01 X54.95 Y28.5 Z0 F80.00 
G01 X54.85 Y28.5 Z12 F40.00 
G01 X54.75 Y28.5 Z167 F33.86 
G01 X53.55 Y28.5 Z255 F20.00 
G01 X53.45 Y28.5 Z253 F20.31 
G01 X53.35 Y28.5 Z90 F40.00 
G01 X18.45 Y28.5 Z0 F80.00 
G01 X18.35 Y28.5 Z33 F40.00 
G01 X18.25 Y28.5 Z244 F21.73 
G01 X16.05 Y28.5 Z255 F20.00 
G01 X15.95 Y28.5 Z250 F20.79 
G01 X15.85 Y28.5 Z65 F40.00 
G01 X15.8 Y28.5 Z0 F80.00 
G00 X15.8 Y28.6 Z0 F80.00 
G01 X15.85 Y28.6 Z0 F80.00 
G01 X15.95 Y28.6 Z33 F40.00 
G01 X16.05 Y28.6 Z235 F23.15 
G01 X18.25 Y28.6 Z255 F20.00 
G01 X18.35 Y28.6 Z243 F21.89 
G01 X18.45 Y28.6 Z27 F40.00 
G01 X53.35 Y28.6 Z0 F80.00 
G01 X53.45 Y28.6 Z63 F40.00 
G01 X53.55 Y28.6 Z236 F22.99 
G01 X54.75 Y28.6 Z255 F20.00 
G01 X54.85 Y28.6 Z239 F22.52 
G01 X54.95 Y28.6 Z75 F40.00 
G01 X55.35 Y28.6 Z0 F80.00 
G01 X55.45 Y28.6 Z21 F40.00 
G01 X55.55 Y28.6 Z189 F30.39 
G01 X56.55 Y28.6 Z255 F20.00 
G01 X56.65 Y28.6 Z179 F31.97 
G01 X56.75 Y28.6 Z16 F40.00 
G01 X57.35 Y28.6 Z0 F80.00 
G01 X57.45 Y28.6 Z3 F80.00 
G01 X57.55 Y28.6 Z113 F40.00 
G01 X57.65 Y28.6 Z248 F21.10 
G01 X58.25 Y28.6 Z255 F20.00 
G01 X58.35 Y28.6 Z237 F22.83 
G01 X58.45 Y28.6 Z90 F40.00 
G01 X58.55 Y28.6 Z3 F80.00 
G01 X75.95 Y28.6 Z0 F80.00 
G01 X76.05 Y28.6 Z36 F40.00 
G01 X76.15 Y28.6 Z183 F31.34 
G01 X76.25 Y28.6 Z254 F20.16 
G01 X77.75 Y28.6 Z255 F20.00 
G01 X77.85 Y28.6 Z246 F21.42 
G01 X77.95 Y28.6 Z149 F36.69 
G01 X78.0 Y28.6 Z0 F80.00 
G00 X78.0 Y28.7 Z0 F80.00 
G01 X77.95 Y28.7 Z0 F80.00 
G01 X77.85 Y28.7 Z198 F28.98 
G01 X76.15 Y28.7 Z255 F20.00 
G01 X76.05 Y28.7 Z215 F26.30 
G01 X75.95 Y28.7 Z70 F40.00 
G01 X75.85 Y28.7 Z2 F80.00 
G01 X58.55 Y28.7 Z0 F80.00 
G01 X58.45 Y28.7 Z39 F40.00 
G01 X58.35 Y28.7 Z195 F29.45 
G01 X57.65 Y28.7 Z255 F20.00 
G01 X57.55 Y28.7 Z244 F21.73 
G01 X57.45 Y28.7 Z104 F40.00 
G01 X57.35 Y28.7 Z2 F80.00 
G01 X56.75 Y28.7 Z0 F80.00 
G01 X56.65 Y28.7 Z79 F40.00 
G01 X56.55 Y28.7 Z243 F21.89 
G01 X55.55 Y28.7 Z255 F20.00 
G01 X55.45 Y28.7 Z166 F34.02 
G01 X55.35 Y28.7 Z9 F80.00 
G01 X55.05 Y28.7 Z0 F80.00 
G01 X54.95 Y28.7 Z12 F40.00 
G01 X54.85 Y28.7 Z168 F33.70 
G01 X53.55 Y28.7 Z255 F20.00 
G01 X53.45 Y28.7 Z215 F26.30 
G01 X53.35 Y28.7 Z39 F40.00 
G01 X18.45 Y28.7 Z0 F80.00 
G01 X18.35 Y28.7 Z18 F40.00 
G01 X18.25 Y28.7 Z243 F21.89 
G01 X16.05 Y28.7 Z255 F20.00 
G01 X15.95 Y28.7 Z203 F28.19 
G01 X15.9 Y28.7 Z0 F80.00 
G00 X15.9 Y28.8 Z0 F80.00 
G01 X15.95 Y28.8 Z0 F80.00 
G01 X16.05 Y28.8 Z152 F36.22 
G01 X16.15 Y28.8 Z254 F20.16 
G01 X18.25 Y28.8 Z255 F20.00 
G01 X18.35 Y28.8 Z240 F22.36 
G01 X18.45 Y28.8 Z9 F80.00 
G01 X53.35 Y28.8 Z0 F80.00 
G01 X53.45 Y28.8 Z18 F40.00 
G01 X53.55 Y28.8 Z195 F29.45 
G01 X54.85 Y28.8 Z255 F20.00 
G01 X54.95 Y28.8 Z235 F23.15 
G01 X55.05 Y28.8 Z63 F40.00 
G01 X55.35 Y28.8 Z0 F80.00 
G01 X55.45 Y28.8 Z2 F80.00 
G01 X55.55 Y28.8 Z143 F37.64 
G01 X56.65 Y28.8 Z255 F20.00 
G01 X56.75 Y28.8 Z167 F33.86 
G01 X56.85 Y28.8 Z11 F40.00 
G01 X57.35 Y28.8 Z0 F80.00 
G01 X57.45 Y28.8 Z2 F80.00 
G01 X57.55 Y28.8 Z95 F40.00 
G01 X57.65 Y28.8 Z238 F22.68 
G01 X58.35 Y28.8 Z255 F20.00 
G01 X58.45 Y28.8 Z247 F21.26 
G01 X58.55 Y28.8 Z124 F40.00 
G01 X58.65 Y28.8 Z7 F80.00 
G01 X75.85 Y28.8 Z0 F80.00 
G01 X75.95 Y28.8 Z9 F80.00 
G01 X76.05 Y28.8 Z123 F40.00 
G01 X76.15 Y28.8 Z243 F21.89 
G01 X77.85 Y28.8 Z255 F20.00 
G01 X77.95 Y28.8 Z227 F24.41 
G01 X78.0 Y28.8 Z0 F80.00 
G00 X78.0 Y28.9 Z0 F80.00 
G01 X77.95 Y28.9 Z0 F80.00 
G01 X77.85 Y28.9 Z243 F21.89 
G01 X76.15 Y28.9 Z255 F20.00 
G01 X76.05 Y28.9 Z254 F20.16 
G01 X75.95 Y28.9 Z171 F33.23 
G01 X75.85 Y28.9 Z29 F40.00 
G01 X58.65 Y28.9 Z0 F80.00 
G01 X58.55 Y28.9 Z46 F40.00 
G01 X58.45 Y28.9 Z209 F27.24 
G01 X57.65 Y28.9 Z255 F20.00 
G01 X57.55 Y28.9 Z233 F23.46 
G01 X57.45 Y28.9 Z83 F40.00 
G01 X56.85 Y28.9 Z0 F80.00 
G01 X56.75 Y28.9 Z57 F40.00 
G01 X56.65 Y28.9 Z232 F23.62 
G01 X55.65 Y28.9 Z255 F20.00 
G01 X55.55 Y28.9 Z253 F20.31 
G01 X55.45 Y28.9 Z120 F40.00 
G01 X55.15 Y28.9 Z0 F80.00 
G01 X55.05 Y28.9 Z5 F80.00 
G01 X54.95 Y28.9 Z143 F37.64 
G01 X54.85 Y28.9 Z254 F20.16 
G01 X53.55 Y28.9 Z255 F20.00 
G01 X53.45 Y28.9 Z174 F32.76 
G01 X53.35 Y28.9 Z3 F80.00 
G01 X18.45 Y28.9 Z0 F80.00 
G01 X18.35 Y28.9 Z9 F80.00 
G01 X18.25 Y28.9 Z241 F22.20 
G01 X16.15 Y28.9 Z255 F20.00 
G01 X16.05 Y28.9 Z251 F20.63 
G01 X15.95 Y28.9 Z78 F40.00 
G01 X15.9 Y28.9 Z0 F80.00 
G00 X15.9 Y29.0 Z0 F80.00 
G01 X15.95 Y29.0 Z0 F80.00 
G01 X16.05 Y29.0 Z18 F40.00 
G01 X16.15 Y29.0 Z237 F22.83 
G01 X18.25 Y29.0 Z255 F20.00 
G01 X18.35 Y29.0 Z243 F21.89 
G01 X18.45 Y29.0 Z18 F40.00 
G01 X53.45 Y29.0 Z0 F80.00 
G01 X53.55 Y29.0 Z144 F37.48 
G01 X54.95 Y29.0 Z255 F20.00 
G01 X55.05 Y29.0 Z211 F26.93 
G01 X55.15 Y29.0 Z35 F40.00 
G01 X55.45 Y29.0 Z0 F80.00 
G01 X55.55 Y29.0 Z100 F40.00 
G01 X55.65 Y29.0 Z247 F21.26 
G01 X56.75 Y29.0 Z255 F20.00 
G01 X56.85 Y29.0 Z130 F39.69 
G01 X56.95 Y29.0 Z3 F80.00 
G01 X57.45 Y29.0 Z0 F80.00 
G01 X57.55 Y29.0 Z72 F40.00 
G01 X57.65 Y29.0 Z230 F23.94 
G01 X58.45 Y29.0 Z255 F20.00 
G01 X58.55 Y29.0 Z248 F21.10 
G01 X58.65 Y29.0 Z123 F40.00 
G01 X58.75 Y29.0 Z6 F80.00 
G01 X75.85 Y29.0 Z0 F80.00 
G01 X75.95 Y29.0 Z77 F40.00 
G01 X76.05 Y29.0 Z223 F25.04 
G01 X77.85 Y29.0 Z255 F20.00 
G01 X77.95 Y29.0 Z249 F20.94 
G01 X78.05 Y29.0 Z144 F37.48 
G01 X78.1 Y29.0 Z0 F80.00 
G00 X78.1 Y29.1 Z0 F80.00 
G01 X78.05 Y29.1 Z0 F80.00 
G01 X77.95 Y29.1 Z177 F32.28 
G01 X77.85 Y29.1 Z253 F20.31 
G01 X76.05 Y29.1 Z255 F20.00 
G01 X75.95 Y29.1 Z245 F21.57 
G01 X75.85 Y29.1 Z130 F39.69 
G01 X75.75 Y29.1 Z12 F40.00 
G01 X58.75 Y29.1 Z0 F80.00 
G01 X58.65 Y29.1 Z42 F40.00 
G01 X58.55 Y29.1 Z203 F28.19 
G01 X57.65 Y29.1 Z255 F20.00 
G01 X57.55 Y29.1 Z230 F23.94 
G01 X57.45 Y29.1 Z72 F40.00 
G01 X56.95 Y29.1 Z0 F80.00 
G01 X56.85 Y29.1 Z22 F40.00 
G01 X56.75 Y29.1 Z204 F28.03 
G01 X55.65 Y29.1 Z255 F20.00 
G01 X55.55 Y29.1 Z241 F22.20 
G01 X55.45 Y29.1 Z81 F40.00 
G01 X55.15 Y29.1 Z0 F80.00 
G01 X55.05 Y29.1 Z88 F40.00 
G01 X54.95 Y29.1 Z250 F20.79 
G01 X53.65 Y29.1 Z255 F20.00 
G01 X53.55 Y29.1 Z252 F20.47 
G01 X53.45 Y29.1 Z113 F40.00 
G01 X18.45 Y29.1 Z0 F80.00 
G01 X18.35 Y29.1 Z27 F40.00 
G01 X18.25 Y29.1 Z243 F21.89 
G01 X16.15 Y29.1 Z255 F20.00 
G01 X16.05 Y29.1 Z191 F30.08 
G01 X16.0 Y29.1 Z0 F80.00 
G00 X16.0 Y29.2 Z0 F80.00 
G01 X16.05 Y29.2 Z0 F80.00 
G01 X16.15 Y29.2 Z122 F40.00 
G01 X16.25 Y29.2 Z254 F20.16 
G01 X18.25 Y29.2 Z255 F20.00 
G01 X18.35 Y29.2 Z244 F21.73 
G01 X18.45 Y29.2 Z36 F40.00 
G01 X53.45 Y29.2 Z0 F80.00 
G01 X53.55 Y29.2 Z83 F40.00 
G01 X53.65 Y29.2 Z248 F21.10 
G01 X55.05 Y29.2 Z255 F20.00 
G01 X55.15 Y29.2 Z156 F35.59 
G01 X55.25 Y29.2 Z3 F80.00 
G01 X55.45 Y29.2 Z0 F80.00 
G01 X55.55 Y29.2 Z62 F40.00 
G01 X55.65 Y29.2 Z234 F23.31 
G01 X56.75 Y29.2 Z255 F20.00 
G01 X56.85 Y29.2 Z239 F22.52 
G01 X56.95 Y29.2 Z76 F40.00 
G01 X57.45 Y29.2 Z0 F80.00 
G01 X57.55 Y29.2 Z69 F40.00 
G01 X57.65 Y29.2 Z225 F24.72 
G01 X58.55 Y29.2 Z255 F20.00 
G01 X58.65 Y29.2 Z247 F21.26 
G01 X58.75 Y29.2 Z111 F40.00 
G01 X58.85 Y29.2 Z3 F80.00 
G01 X75.75 Y29.2 Z0 F80.00 
G01 X75.85 Y29.2 Z39 F40.00 
G01 X75.95 Y29.2 Z190 F30.24 
G01 X76.05 Y29.2 Z254 F20.16 
G01 X77.95 Y29.2 Z255 F20.00 
G01 X78.05 Y29.2 Z204 F28.03 
G01 X78.1 Y29.2 Z0 F80.00 
G00 X78.1 Y29.3 Z0 F80.00 
G01 X80.25 Y29.3 Z0 F80.00 
G01 X80.15 Y29.3 Z70 F40.00 
G01 X80.05 Y29.3 Z2 F80.00 
G01 X78.25 Y29.3 Z0 F80.00 
G01 X78.15 Y29.3 Z3 F80.00 
G01 X78.05 Y29.3 Z83 F40.00 
G01 X77.95 Y29.3 Z222 F25.20 
G01 X75.95 Y29.3 Z255 F20.00 
G01 X75.85 Y29.3 Z227 F24.41 
G01 X75.75 Y29.3 Z92 F40.00 
G01 X75.65 Y29.3 Z4 F80.00 
G01 X58.85 Y29.3 Z0 F80.00 
G01 X58.75 Y29.3 Z26 F40.00 
G01 X58.65 Y29.3 Z186 F30.87 
G01 X57.65 Y29.3 Z255 F20.00 
G01 X57.55 Y29.3 Z221 F25.35 
G01 X57.45 Y29.3 Z61 F40.00 
G01 X57.05 Y29.3 Z0 F80.00 
G01 X56.95 Y29.3 Z3 F80.00 
G01 X56.85 Y29.3 Z137 F38.58 
G01 X56.75 Y29.3 Z254 F20.16 
G01 X55.65 Y29.3 Z255 F20.00 
G01 X55.55 Y29.3 Z228 F24.25 
G01 X55.45 Y29.3 Z44 F40.00 
G01 X55.25 Y29.3 Z0 F80.00 
G01 X55.15 Y29.3 Z27 F40.00 
G01 X55.05 Y29.3 Z207 F27.56 
G01 X53.65 Y29.3 Z255 F20.00 
G01 X53.55 Y29.3 Z243 F21.89 
G01 X53.45 Y29.3 Z52 F40.00 
G01 X18.45 Y29.3 Z0 F80.00 
G01 X18.35 Y29.3 Z45 F40.00 
G01 X18.25 Y29.3 Z246 F21.42 
G01 X16.25 Y29.3 Z255 F20.00 
G01 X16.15 Y29.3 Z244 F21.73 
G01 X16.05 Y29.3 Z51 F40.00 
G01 X16.0 Y29.3 Z0 F80.00 
G00 X16.0 Y29.4 Z0 F80.00 
G01 X16.15 Y29.4 Z0 F80.00 
G01 X16.25 Y29.4 Z210 F27.09 
G01 X18.25 Y29.4 Z255 F20.00 
G01 X18.35 Y29.4 Z248 F21.10 
G01 X18.45 Y29.4 Z63 F40.00 
G01 X53.45 Y29.4 Z0 F80.00 
G01 X53.55 Y29.4 Z36 F40.00 
G01 X53.65 Y29.4 Z227 F24.41 
G01 X55.05 Y29.4 Z255 F20.00 
G01 X55.15 Y29.4 Z236 F22.99 
G01 X55.25 Y29.4 Z68 F40.00 
G01 X55.45 Y29.4 Z0 F80.00 
G01 X55.55 Y29.4 Z27 F40.00 
G01 X55.65 Y29.4 Z222 F25.20 
G01 X56.85 Y29.4 Z255 F20.00 
G01 X56.95 Y29.4 Z191 F30.08 
G01 X57.05 Y29.4 Z21 F40.00 
G01 X57.45 Y29.4 Z0 F80.00 
G01 X57.55 Y29.4 Z53 F40.00 
G01 X57.65 Y29.4 Z219 F25.67 
G01 X58.65 Y29.4 Z255 F20.00 
G01 X58.75 Y29.4 Z234 F23.31 
G01 X58.85 Y29.4 Z74 F40.00 
G01 X75.65 Y29.4 Z0 F80.00 
G01 X75.75 Y29.4 Z20 F40.00 
G01 X75.85 Y29.4 Z153 F36.06 
G01 X75.95 Y29.4 Z250 F20.79 
G01 X77.95 Y29.4 Z255 F20.00 
G01 X78.05 Y29.4 Z232 F23.62 
G01 X78.15 Y29.4 Z98 F40.00 
G01 X78.25 Y29.4 Z5 F80.00 
G01 X80.05 Y29.4 Z0 F80.00 
G01 X80.15 Y29.4 Z30 F40.00 
G01 X80.25 Y29.4 Z198 F28.98 
G01 X80.3 Y29.4 Z0 F80.00 
G00 X80.3 Y29.5 Z0 F80.00 
G01 X80.35 Y29.5 Z0 F80.00 
G01 X80.25 Y29.5 Z198 F28.98 
G01 X80.15 Y29.5 Z253 F20.31 
G01 X80.05 Y29.5 Z120 F40.00 
G01 X79.95 Y29.5 Z2 F80.00 
G01 X78.25 Y29.5 Z0 F80.00 
G01 X78.15 Y29.5 Z9 F80.00 
G01 X78.05 Y29.5 Z113 F40.00 
G01 X77.95 Y29.5 Z239 F22.52 
G01 X75.85 Y29.5 Z255 F20.00 
G01 X75.75 Y29.5 Z204 F28.03 
G01 X75.65 Y29.5 Z59 F40.00 
G01 X58.95 Y29.5 Z0 F80.00 
G01 X58.85 Y29.5 Z6 F80.00 
G01 X58.75 Y29.5 Z137 F38.58 
G01 X58.65 Y29.5 Z253 F20.31 
G01 X57.65 Y29.5 Z255 F20.00 
G01 X57.55 Y29.5 Z219 F25.67 
G01 X57.45 Y29.5 Z48 F40.00 
G01 X57.05 Y29.5 Z0 F80.00 
G01 X56.95 Y29.5 Z50 F40.00 
G01 X56.85 Y29.5 Z235 F23.15 
G01 X55.65 Y29.5 Z255 F20.00 
G01 X55.55 Y29.5 Z215 F26.30 
G01 X55.45 Y29.5 Z18 F40.00 
G01 X55.25 Y29.5 Z0 F80.00 
G01 X55.15 Y29.5 Z109 F40.00 
G01 X55.05 Y29.5 Z254 F20.16 
G01 X53.65 Y29.5 Z255 F20.00 
G01 X53.55 Y29.5 Z205 F27.87 
G01 X53.45 Y29.5 Z27 F40.00 
G01 X18.45 Y29.5 Z0 F80.00 
G01 X18.35 Y29.5 Z85 F40.00 
G01 X18.25 Y29.5 Z250 F20.79 
G01 X16.35 Y29.5 Z255 F20.00 
G01 X16.25 Y29.5 Z254 F20.16 
G01 X16.15 Y29.5 Z134 F39.06 
G01 X16.1 Y29.5 Z0 F80.00 
G00 X16.1 Y29.6 Z0 F80.00 
G01 X16.15 Y29.6 Z0 F80.00 
G01 X16.25 Y29.6 Z48 F40.00 
G01 X16.35 Y29.6 Z244 F21.73 
G01 X18.25 Y29.6 Z255 F20.00 
G01 X18.35 Y29.6 Z252 F20.47 
G01 X18.45 Y29.6 Z107 F40.00 
G01 X53.45 Y29.6 Z0 F80.00 
G01 X53.55 Y29.6 Z20 F40.00 
G01 X53.65 Y29.6 Z186 F30.87 
G01 X55.15 Y29.6 Z255 F20.00 
G01 X55.25 Y29.6 Z150 F36.54 
G01 X55.35 Y29.6 Z6 F80.00 
G01 X55.45 Y29.6 Z0 F80.00 
G01 X55.55 Y29.6 Z15 F40.00 
G01 X55.65 Y29.6 Z199 F28.82 
G01 X56.85 Y29.6 Z255 F20.00 
G01 X56.95 Y29.6 Z251 F20.63 
G01 X57.05 Y29.6 Z95 F40.00 
G01 X57.45 Y29.6 Z0 F80.00 
G01 X57.55 Y29.6 Z52 F40.00 
G01 X57.65 Y29.6 Z221 F25.35 
G01 X58.75 Y29.6 Z255 F20.00 
G01 X58.85 Y29.6 Z195 F29.45 
G01 X58.95 Y29.6 Z28 F40.00 
G01 X75.55 Y29.6 Z0 F80.00 
G01 X75.65 Y29.6 Z5 F80.00 
G01 X75.75 Y29.6 Z113 F40.00 
G01 X75.85 Y29.6 Z241 F22.20 
G01 X77.95 Y29.6 Z255 F20.00 
G01 X78.05 Y29.6 Z246 F21.42 
G01 X78.15 Y29.6 Z132 F39.37 
G01 X78.25 Y29.6 Z12 F40.00 
G01 X79.95 Y29.6 Z0 F80.00 
G01 X80.05 Y29.6 Z44 F40.00 
G01 X80.15 Y29.6 Z215 F26.30 
G01 X80.25 Y29.6 Z255 F20.00 
G01 X80.35 Y29.6 Z248 F21.10 
G01 X80.4 Y29.6 Z0 F80.00 
G00 X80.4 Y29.7 Z0 F80.00 
G01 X80.35 Y29.7 Z0 F80.00 
G01 X80.15 Y29.7 Z255 F20.00 
G01 X80.05 Y29.7 Z254 F20.16 
G01 X79.95 Y29.7 Z138 F38.43 
G01 X79.85 Y29.7 Z6 F80.00 
G01 X78.25 Y29.7 Z0 F80.00 
G01 X78.15 Y29.7 Z15 F40.00 
G01 X78.05 Y29.7 Z150 F36.54 
G01 X77.95 Y29.7 Z252 F20.47 
G01 X75.85 Y29.7 Z255 F20.00 
G01 X75.75 Y29.7 Z252 F20.47 
G01 X75.65 Y29.7 Z181 F31.65 
G01 X75.55 Y29.7 Z36 F40.00 
G01 X58.95 Y29.7 Z0 F80.00 
G01 X58.85 Y29.7 Z69 F40.00 
G01 X58.75 Y29.7 Z235 F23.15 
G01 X57.65 Y29.7 Z255 F20.00 
G01 X57.55 Y29.7 Z221 F25.35 
G01 X57.45 Y29.7 Z57 F40.00 
G01 X57.05 Y29.7 Z0 F80.00 
G01 X56.95 Y29.7 Z146 F37.17 
G01 X55.65 Y29.7 Z255 F20.00 
G01 X55.55 Y29.7 Z186 F30.87 
G01 X55.45 Y29.7 Z12 F40.00 
G01 X55.35 Y29.7 Z0 F80.00 
G01 X55.25 Y29.7 Z16 F40.00 
G01 X55.15 Y29.7 Z189 F30.39 
G01 X53.65 Y29.7 Z255 F20.00 
G01 X53.55 Y29.7 Z165 F34.17 
G01 X53.45 Y29.7 Z11 F40.00 
G01 X18.45 Y29.7 Z0 F80.00 
G01 X18.35 Y29.7 Z129 F39.84 
G01 X18.25 Y29.7 Z253 F20.31 
G01 X16.35 Y29.7 Z255 F20.00 
G01 X16.25 Y29.7 Z199 F28.82 
G01 X16.2 Y29.7 Z0 F80.00 
G00 X16.2 Y29.8 Z0 F80.00 
G01 X16.25 Y29.8 Z0 F80.00 
G01 X16.35 Y29.8 Z109 F40.00 
G01 X16.45 Y29.8 Z252 F20.47 
G01 X18.35 Y29.8 Z255 F20.00 
G01 X18.45 Y29.8 Z153 F36.06 
G01 X53.45 Y29.8 Z0 F80.00 
G01 X53.55 Y29.8 Z3 F80.00 
G01 X53.65 Y29.8 Z144 F37.48 
G01 X55.15 Y29.8 Z255 F20.00 
G01 X55.25 Y29.8 Z221 F25.35 
G01 X55.35 Y29.8 Z27 F40.00 
G01 X55.45 Y29.8 Z0 F80.00 
G01 X55.55 Y29.8 Z9 F80.00 
G01 X55.65 Y29.8 Z171 F33.23 
G01 X56.95 Y29.8 Z255 F20.00 
G01 X57.05 Y29.8 Z186 F30.87 
G01 X57.15 Y29.8 Z9 F80.00 
G01 X57.45 Y29.8 Z0 F80.00 
G01 X57.55 Y29.8 Z59 F40.00 
G01 X57.65 Y29.8 Z219 F25.67 
G01 X58.75 Y29.8 Z255 F20.00 
G01 X58.85 Y29.8 Z252 F20.47 
G01 X58.95 Y29.8 Z126 F40.00 
G01 X59.05 Y29.8 Z3 F80.00 
G01 X75.45 Y29.8 Z0 F80.00 
G01 X75.55 Y29.8 Z6 F80.00 
G01 X75.65 Y29.8 Z95 F40.00 
G01 X75.75 Y29.8 Z230 F23.94 
G01 X77.95 Y29.8 Z255 F20.00 
G01 X78.05 Y29.8 Z254 F20.16 
G01 X78.15 Y29.8 Z165 F34.17 
G01 X78.25 Y29.8 Z21 F40.00 
G01 X79.85 Y29.8 Z0 F80.00 
G01 X79.95 Y29.8 Z54 F40.00 
G01 X80.05 Y29.8 Z227 F24.41 
G01 X80.35 Y29.8 Z255 F20.00 
G01 X80.45 Y29.8 Z210 F27.09 
G01 X80.5 Y29.8 Z0 F80.00 
G00 X80.5 Y29.9 Z0 F80.00 
G01 X80.45 Y29.9 Z0 F80.00 
G01 X80.35 Y29.9 Z233 F23.46 
G01 X80.05 Y29.9 Z255 F20.00 
G01 X79.95 Y29.9 Z254 F20.16 
G01 X79.85 Y29.9 Z157 F35.43 
G01 X79.75 Y29.9 Z11 F40.00 
G01 X78.25 Y29.9 Z0 F80.00 
G01 X78.15 Y29.9 Z31 F40.00 
G01 X78.05 Y29.9 Z175 F32.60 
G01 X77.95 Y29.9 Z254 F20.16 
G01 X75.75 Y29.9 Z255 F20.00 
G01 X75.65 Y29.9 Z251 F20.63 
G01 X75.55 Y29.9 Z174 F32.76 
G01 X75.45 Y29.9 Z35 F40.00 
G01 X59.05 Y29.9 Z0 F80.00 
G01 X58.95 Y29.9 Z20 F40.00 
G01 X58.85 Y29.9 Z172 F33.07 
G01 X57.65 Y29.9 Z255 F20.00 
G01 X57.55 Y29.9 Z216 F26.14 
G01 X57.45 Y29.9 Z57 F40.00 
G01 X57.15 Y29.9 Z0 F80.00 
G01 X57.05 Y29.9 Z35 F40.00 
G01 X56.95 Y29.9 Z210 F27.09 
G01 X55.65 Y29.9 Z255 F20.00 
G01 X55.55 Y29.9 Z162 F34.65 
G01 X55.45 Y29.9 Z7 F80.00 
G01 X55.35 Y29.9 Z0 F80.00 
G01 X55.25 Y29.9 Z46 F40.00 
G01 X55.15 Y29.9 Z235 F23.15 
G01 X53.65 Y29.9 Z255 F20.00 
G01 X53.55 Y29.9 Z123 F40.00 
G01 X18.45 Y29.9 Z0 F80.00 
G01 X18.35 Y29.9 Z179 F31.97 
G01 X16.45 Y29.9 Z255 F20.00 
G01 X16.35 Y29.9 Z233 F23.46 
G01 X16.25 Y29.9 Z18 F40.00 
G01 X16.2 Y29.9 Z0 F80.00 
G00 X16.2 Y30.0 Z0 F80.00 
G01 X16.35 Y30.0 Z0 F80.00 
G01 X16.45 Y30.0 Z160 F34.96 
G01 X18.35 Y30.0 Z255 F20.00 
G01 X18.45 Y30.0 Z206 F27.72 
G01 X18.55 Y30.0 Z7 F80.00 
G01 X53.55 Y30.0 Z0 F80.00 
G01 X53.65 Y30.0 Z104 F40.00 
G01 X53.75 Y30.0 Z250 F20.79 
G01 X55.15 Y30.0 Z255 F20.00 
G01 X55.25 Y30.0 Z240 F22.36 
G01 X55.35 Y30.0 Z69 F40.00 
G01 X55.45 Y30.0 Z0 F80.00 
G01 X55.55 Y30.0 Z6 F80.00 
G01 X55.65 Y30.0 Z153 F36.06 
G01 X56.95 Y30.0 Z255 F20.00 
G01 X57.05 Y30.0 Z230 F23.94 
G01 X57.15 Y30.0 Z59 F40.00 
G01 X57.45 Y30.0 Z0 F80.00 
G01 X57.55 Y30.0 Z53 F40.00 
G01 X57.65 Y30.0 Z218 F25.83 
G01 X58.85 Y30.0 Z255 F20.00 
G01 X58.95 Y30.0 Z210 F27.09 
G01 X59.05 Y30.0 Z42 F40.00 
G01 X75.35 Y30.0 Z0 F80.00 
G01 X75.45 Y30.0 Z5 F80.00 
G01 X75.55 Y30.0 Z89 F40.00 
G01 X75.65 Y30.0 Z224 F24.88 
G01 X77.95 Y30.0 Z255 F20.00 
G01 X78.05 Y30.0 Z254 F20.16 
G01 X78.15 Y30.0 Z178 F32.13 
G01 X78.25 Y30.0 Z37 F40.00 
G01 X79.75 Y30.0 Z0 F80.00 
G01 X79.85 Y30.0 Z71 F40.00 
G01 X79.95 Y30.0 Z237 F22.83 
G01 X80.35 Y30.0 Z255 F20.00 
G01 X80.45 Y30.0 Z248 F21.10 
G01 X80.5 Y30.0 Z0 F80.00 
G00 X80.5 Y30.1 Z0 F80.00 
G01 X80.45 Y30.1 Z0 F80.00 
G01 X80.35 Y30.1 Z254 F20.16 
G01 X79.85 Y30.1 Z255 F20.00 
G01 X79.75 Y30.1 Z174 F32.76 
G01 X79.65 Y30.1 Z13 F40.00 
G01 X78.25 Y30.1 Z0 F80.00 
G01 X78.15 Y30.1 Z36 F40.00 
G01 X78.05 Y30.1 Z168 F33.70 
G01 X77.95 Y30.1 Z251 F20.63 
G01 X75.65 Y30.1 Z255 F20.00 
G01 X75.55 Y30.1 Z250 F20.79 
G01 X75.45 Y30.1 Z154 F35.91 
G01 X75.35 Y30.1 Z22 F40.00 
G01 X59.05 Y30.1 Z0 F80.00 
G01 X58.95 Y30.1 Z76 F40.00 
G01 X58.85 Y30.1 Z232 F23.62 
G01 X57.65 Y30.1 Z255 F20.00 
G01 X57.55 Y30.1 Z221 F25.35 
G01 X57.45 Y30.1 Z52 F40.00 
G01 X57.15 Y30.1 Z0 F80.00 
G01 X57.05 Y30.1 Z80 F40.00 
G01 X56.95 Y30.1 Z248 F21.10 
G01 X55.65 Y30.1 Z255 F20.00 
G01 X55.55 Y30.1 Z144 F37.48 
G01 X55.45 Y30.1 Z4 F80.00 
G01 X55.35 Y30.1 Z0 F80.00 
G01 X55.25 Y30.1 Z86 F40.00 
G01 X55.15 Y30.1 Z244 F21.73 
G01 X53.75 Y30.1 Z255 F20.00 
G01 X53.65 Y30.1 Z243 F21.89 
G01 X53.55 Y30.1 Z88 F40.00 
G01 X18.55 Y30.1 Z0 F80.00 
G01 X18.45 Y30.1 Z20 F40.00 
G01 X18.35 Y30.1 Z230 F23.94 
G01 X16.55 Y30.1 Z255 F20.00 
G01 X16.45 Y30.1 Z247 F21.26 
G01 X16.35 Y30.1 Z65 F40.00 
G01 X16.3 Y30.1 Z0 F80.00 
G00 X16.3 Y30.2 Z0 F80.00 
G01 X16.45 Y30.2 Z0 F80.00 
G01 X16.55 Y30.2 Z199 F28.82 
G01 X18.35 Y30.2 Z255 F20.00 
G01 X18.45 Y30.2 Z245 F21.57 
G01 X18.55 Y30.2 Z37 F40.00 
G01 X53.55 Y30.2 Z0 F80.00 
G01 X53.65 Y30.2 Z72 F40.00 
G01 X53.75 Y30.2 Z237 F22.83 
G01 X55.15 Y30.2 Z255 F20.00 
G01 X55.25 Y30.2 Z248 F21.10 
G01 X55.35 Y30.2 Z101 F40.00 
G01 X55.45 Y30.2 Z0 F80.00 
G01 X55.55 Y30.2 Z3 F80.00 
G01 X55.65 Y30.2 Z137 F38.58 
G01 X57.05 Y30.2 Z255 F20.00 
G01 X57.15 Y30.2 Z104 F40.00 
G01 X57.45 Y30.2 Z0 F80.00 
G01 X57.55 Y30.2 Z54 F40.00 
G01 X57.65 Y30.2 Z221 F25.35 
G01 X58.85 Y30.2 Z255 F20.00 
G01 X58.95 Y30.2 Z253 F20.31 
G01 X59.05 Y30.2 Z110 F40.00 
G01 X75.25 Y30.2 Z0 F80.00 
G01 X75.35 Y30.2 Z2 F80.00 
G01 X75.45 Y30.2 Z72 F40.00 
G01 X75.55 Y30.2 Z215 F26.30 
G01 X77.95 Y30.2 Z255 F20.00 
G01 X78.05 Y30.2 Z247 F21.26 
G01 X78.15 Y30.2 Z156 F35.59 
G01 X78.25 Y30.2 Z30 F40.00 
G01 X79.55 Y30.2 Z0 F80.00 
G01 X79.65 Y30.2 Z2 F80.00 
G01 X79.75 Y30.2 Z88 F40.00 
G01 X79.85 Y30.2 Z243 F21.89 
G01 X80.45 Y30.2 Z255 F20.00 
G01 X80.5 Y30.2 Z0 F80.00 
G00 X80.5 Y30.3 Z0 F80.00 
G01 X80.55 Y30.3 Z0 F80.00 
G01 X80.45 Y30.3 Z165 F34.17 
G01 X79.75 Y30.3 Z255 F20.00 
G01 X79.65 Y30.3 Z191 F30.08 
G01 X79.55 Y30.3 Z24 F40.00 
G01 X78.25 Y30.3 Z0 F80.00 
G01 X78.15 Y30.3 Z21 F40.00 
G01 X78.05 Y30.3 Z147 F37.01 
G01 X77.95 Y30.3 Z246 F21.42 
G01 X75.55 Y30.3 Z255 F20.00 
G01 X75.45 Y30.3 Z249 F20.94 
G01 X75.35 Y30.3 Z144 F37.48 
G01 X75.25 Y30.3 Z20 F40.00 
G01 X59.15 Y30.3 Z0 F80.00 
G01 X59.05 Y30.3 Z6 F80.00 
G01 X58.95 Y30.3 Z138 F38.43 
G01 X57.65 Y30.3 Z255 F20.00 
G01 X57.55 Y30.3 Z227 F24.41 
G01 X57.45 Y30.3 Z63 F40.00 
G01 X57.25 Y30.3 Z0 F80.00 
G01 X57.15 Y30.3 Z2 F80.00 
G01 X57.05 Y30.3 Z126 F40.00 
G01 X55.65 Y30.3 Z255 F20.00 
G01 X55.55 Y30.3 Z129 F39.84 
G01 X55.45 Y30.3 Z3 F80.00 
G01 X55.35 Y30.3 Z0 F80.00 
G01 X55.25 Y30.3 Z108 F40.00 
G01 X55.15 Y30.3 Z249 F20.94 
G01 X53.75 Y30.3 Z255 F20.00 
G01 X53.65 Y30.3 Z231 F23.78 
G01 X53.55 Y30.3 Z59 F40.00 
G01 X18.55 Y30.3 Z0 F80.00 
G01 X18.45 Y30.3 Z74 F40.00 
G01 X18.35 Y30.3 Z252 F20.47 
G01 X16.65 Y30.3 Z255 F20.00 
G01 X16.55 Y30.3 Z251 F20.63 
G01 X16.45 Y30.3 Z92 F40.00 
G01 X16.4 Y30.3 Z0 F80.00 
G00 X16.4 Y30.4 Z0 F80.00 
G01 X16.45 Y30.4 Z0 F80.00 
G01 X16.55 Y30.4 Z13 F40.00 
G01 X16.65 Y30.4 Z215 F26.30 
G01 X18.35 Y30.4 Z255 F20.00 
G01 X18.45 Y30.4 Z254 F20.16 
G01 X18.55 Y30.4 Z134 F39.06 
G01 X53.55 Y30.4 Z0 F80.00 
G01 X53.65 Y30.4 Z44 F40.00 
G01 X53.75 Y30.4 Z225 F24.72 
G01 X55.15 Y30.4 Z255 F20.00 
G01 X55.25 Y30.4 Z251 F20.63 
G01 X55.35 Y30.4 Z114 F40.00 
G01 X55.45 Y30.4 Z0 F80.00 
G01 X55.55 Y30.4 Z2 F80.00 
G01 X55.65 Y30.4 Z125 F40.00 
G01 X57.05 Y30.4 Z255 F20.00 
G01 X57.15 Y30.4 Z149 F36.69 
G01 X57.25 Y30.4 Z6 F80.00 
G01 X57.45 Y30.4 Z0 F80.00 
G01 X57.55 Y30.4 Z77 F40.00 
G01 X57.65 Y30.4 Z232 F23.62 
G01 X58.95 Y30.4 Z255 F20.00 
G01 X59.05 Y30.4 Z177 F32.28 
G01 X59.15 Y30.4 Z12 F40.00 
G01 X75.15 Y30.4 Z0 F80.00 
G01 X75.25 Y30.4 Z2 F80.00 
G01 X75.35 Y30.4 Z60 F40.00 
G01 X75.45 Y30.4 Z211 F26.93 
G01 X77.95 Y30.4 Z255 F20.00 
G01 X78.05 Y30.4 Z247 F21.26 
G01 X78.15 Y30.4 Z142 F37.80 
G01 X78.25 Y30.4 Z15 F40.00 
G01 X79.45 Y30.4 Z0 F80.00 
G01 X79.55 Y30.4 Z2 F80.00 
G01 X79.65 Y30.4 Z107 F40.00 
G01 X79.75 Y30.4 Z248 F21.10 
G01 X80.45 Y30.4 Z255 F20.00 
G01 X80.55 Y30.4 Z169 F33.54 
G01 X80.6 Y30.4 Z0 F80.00 
G00 X80.6 Y30.5 Z0 F80.00 
G01 X80.55 Y30.5 Z0 F80.00 
G01 X80.45 Y30.5 Z167 F33.86 
G01 X79.65 Y30.5 Z255 F20.00 
G01 X79.55 Y30.5 Z209 F27.24 
G01 X79.45 Y30.5 Z36 F40.00 
G01 X78.25 Y30.5 Z0 F80.00 
G01 X78.15 Y30.5 Z16 F40.00 
G01 X78.05 Y30.5 Z146 F37.17 
G01 X77.95 Y30.5 Z249 F20.94 
G01 X75.45 Y30.5 Z255 F20.00 
G01 X75.35 Y30.5 Z244 F21.73 
G01 X75.25 Y30.5 Z129 F39.84 
G01 X75.15 Y30.5 Z15 F40.00 
G01 X59.15 Y30.5 Z0 F80.00 
G01 X59.05 Y30.5 Z20 F40.00 
G01 X58.95 Y30.5 Z197 F29.13 
G01 X57.65 Y30.5 Z255 F20.00 
G01 X57.55 Y30.5 Z236 F22.99 
G01 X57.45 Y30.5 Z86 F40.00 
G01 X57.25 Y30.5 Z0 F80.00 
G01 X57.15 Y30.5 Z9 F80.00 
G01 X57.05 Y30.5 Z165 F34.17 
G01 X55.65 Y30.5 Z255 F20.00 
G01 X55.55 Y30.5 Z125 F40.00 
G01 X55.45 Y30.5 Z2 F80.00 
G01 X55.35 Y30.5 Z0 F80.00 
G01 X55.25 Y30.5 Z113 F40.00 
G01 X55.15 Y30.5 Z250 F20.79 
G01 X53.75 Y30.5 Z255 F20.00 
G01 X53.65 Y30.5 Z221 F25.35 
G01 X53.55 Y30.5 Z31 F40.00 
G01 X18.55 Y30.5 Z0 F80.00 
G01 X18.45 Y30.5 Z181 F31.65 
G01 X16.75 Y30.5 Z255 F20.00 
G01 X16.65 Y30.5 Z252 F20.47 
G01 X16.55 Y30.5 Z109 F40.00 
G01 X16.5 Y30.5 Z0 F80.00 
G00 X16.5 Y30.6 Z0 F80.00 
G01 X16.55 Y30.6 Z0 F80.00 
G01 X16.65 Y30.6 Z12 F40.00 
G01 X16.75 Y30.6 Z221 F25.35 
G01 X18.45 Y30.6 Z255 F20.00 
G01 X18.55 Y30.6 Z218 F25.83 
G01 X18.65 Y30.6 Z5 F80.00 
G01 X53.55 Y30.6 Z0 F80.00 
G01 X53.65 Y30.6 Z20 F40.00 
G01 X53.75 Y30.6 Z215 F26.30 
G01 X55.15 Y30.6 Z255 F20.00 
G01 X55.25 Y30.6 Z249 F20.94 
G01 X55.35 Y30.6 Z107 F40.00 
G01 X55.55 Y30.6 Z0 F80.00 
G01 X55.65 Y30.6 Z119 F40.00 
G01 X57.05 Y30.6 Z255 F20.00 
G01 X57.15 Y30.6 Z177 F32.28 
G01 X57.25 Y30.6 Z12 F40.00 
G01 X57.45 Y30.6 Z0 F80.00 
G01 X57.55 Y30.6 Z89 F40.00 
G01 X57.65 Y30.6 Z237 F22.83 
G01 X58.95 Y30.6 Z255 F20.00 
G01 X59.05 Y30.6 Z209 F27.24 
G01 X59.15 Y30.6 Z42 F40.00 
G01 X75.05 Y30.6 Z0 F80.00 
G01 X75.15 Y30.6 Z2 F80.00 
G01 X75.25 Y30.6 Z54 F40.00 
G01 X75.35 Y30.6 Z201 F28.50 
G01 X77.95 Y30.6 Z255 F20.00 
G01 X78.05 Y30.6 Z243 F21.89 
G01 X78.15 Y30.6 Z132 F39.37 
G01 X78.25 Y30.6 Z15 F40.00 
G01 X79.35 Y30.6 Z0 F80.00 
G01 X79.45 Y30.6 Z3 F80.00 
G01 X79.55 Y30.6 Z135 F38.90 
G01 X79.65 Y30.6 Z252 F20.47 
G01 X80.45 Y30.6 Z255 F20.00 
G01 X80.5 Y30.6 Z0 F80.00 
G00 X80.5 Y30.7 Z0 F80.00 
G01 X80.45 Y30.7 Z0 F80.00 
G01 X79.55 Y30.7 Z255 F20.00 
G01 X79.45 Y30.7 Z227 F24.41 
G01 X79.35 Y30.7 Z61 F40.00 
G01 X78.25 Y30.7 Z0 F80.00 
G01 X78.15 Y30.7 Z9 F80.00 
G01 X78.05 Y30.7 Z104 F40.00 
G01 X77.95 Y30.7 Z230 F23.94 
G01 X75.35 Y30.7 Z255 F20.00 
G01 X75.25 Y30.7 Z243 F21.89 
G01 X75.15 Y30.7 Z127 F40.00 
G01 X75.05 Y30.7 Z13 F40.00 
G01 X59.15 Y30.7 Z0 F80.00 
G01 X59.05 Y30.7 Z62 F40.00 
G01 X58.95 Y30.7 Z230 F23.94 
G01 X57.65 Y30.7 Z255 F20.00 
G01 X57.55 Y30.7 Z238 F22.68 
G01 X57.45 Y30.7 Z98 F40.00 
G01 X57.35 Y30.7 Z2 F80.00 
G01 X57.25 Y30.7 Z0 F80.00 
G01 X57.15 Y30.7 Z13 F40.00 
G01 X57.05 Y30.7 Z189 F30.39 
G01 X55.65 Y30.7 Z255 F20.00 
G01 X55.55 Y30.7 Z118 F40.00 
G01 X55.35 Y30.7 Z0 F80.00 
G01 X55.25 Y30.7 Z100 F40.00 
G01 X55.15 Y30.7 Z247 F21.26 
G01 X53.75 Y30.7 Z255 F20.00 
G01 X53.65 Y30.7 Z209 F27.24 
G01 X53.55 Y30.7 Z12 F40.00 
G01 X18.65 Y30.7 Z0 F80.00 
G01 X18.55 Y30.7 Z42 F40.00 
G01 X18.45 Y30.7 Z240 F22.36 
G01 X16.85 Y30.7 Z255 F20.00 
G01 X16.75 Y30.7 Z253 F20.31 
G01 X16.65 Y30.7 Z111 F40.00 
G01 X16.6 Y30.7 Z0 F80.00 
G00 X16.6 Y30.8 Z0 F80.00 
G01 X16.65 Y30.8 Z0 F80.00 
G01 X16.75 Y30.8 Z18 F40.00 
G01 X16.85 Y30.8 Z216 F26.14 
G01 X18.45 Y30.8 Z255 F20.00 
G01 X18.55 Y30.8 Z252 F20.47 
G01 X18.65 Y30.8 Z87 F40.00 
G01 X53.55 Y30.8 Z0 F80.00 
G01 X53.65 Y30.8 Z11 F40.00 
G01 X53.75 Y30.8 Z198 F28.98 
G01 X55.15 Y30.8 Z255 F20.00 
G01 X55.25 Y30.8 Z245 F21.57 
G01 X55.35 Y30.8 Z89 F40.00 
G01 X55.55 Y30.8 Z0 F80.00 
G01 X55.65 Y30.8 Z118 F40.00 
G01 X57.05 Y30.8 Z255 F20.00 
G01 X57.15 Y30.8 Z195 F29.45 
G01 X57.25 Y30.8 Z15 F40.00 
G01 X57.35 Y30.8 Z0 F80.00 
G01 X57.45 Y30.8 Z3 F80.00 
G01 X57.55 Y30.8 Z109 F40.00 
G01 X57.65 Y30.8 Z243 F21.89 
G01 X58.95 Y30.8 Z255 F20.00 
G01 X59.05 Y30.8 Z235 F23.15 
G01 X59.15 Y30.8 Z68 F40.00 
G01 X75.05 Y30.8 Z0 F80.00 
G01 X75.15 Y30.8 Z53 F40.00 
G01 X75.25 Y30.8 Z197 F29.13 
G01 X77.95 Y30.8 Z255 F20.00 
G01 X78.05 Y30.8 Z223 F25.04 
G01 X78.15 Y30.8 Z78 F40.00 
G01 X78.25 Y30.8 Z2 F80.00 
G01 X79.25 Y30.8 Z0 F80.00 
G01 X79.35 Y30.8 Z15 F40.00 
G01 X79.45 Y30.8 Z169 F33.54 
G01 X80.45 Y30.8 Z255 F20.00 
G01 X80.5 Y30.8 Z0 F80.00 
G00 X80.5 Y30.9 Z0 F80.00 
G01 X80.45 Y30.9 Z0 F80.00 
G01 X80.35 Y30.9 Z254 F20.16 
G01 X79.45 Y30.9 Z255 F20.00 
G01 X79.35 Y30.9 Z244 F21.73 
G01 X79.25 Y30.9 Z98 F40.00 
G01 X78.15 Y30.9 Z0 F80.00 
G01 X78.05 Y30.9 Z66 F40.00 
G01 X77.95 Y30.9 Z217 F25.98 
G01 X75.25 Y30.9 Z255 F20.00 
G01 X75.15 Y30.9 Z244 F21.73 
G01 X75.05 Y30.9 Z131 F39.53 
G01 X74.95 Y30.9 Z15 F40.00 
G01 X59.15 Y30.9 Z0 F80.00 
G01 X59.05 Y30.9 Z83 F40.00 
G01 X58.95 Y30.9 Z239 F22.52 
G01 X57.65 Y30.9 Z255 F20.00 
G01 X57.55 Y30.9 Z244 F21.73 
G01 X57.45 Y30.9 Z118 F40.00 
G01 X57.35 Y30.9 Z4 F80.00 
G01 X57.25 Y30.9 Z0 F80.00 
G01 X57.15 Y30.9 Z15 F40.00 
G01 X57.05 Y30.9 Z199 F28.82 
G01 X55.65 Y30.9 Z255 F20.00 
G01 X55.55 Y30.9 Z123 F40.00 
G01 X55.45 Y30.9 Z2 F80.00 
G01 X55.35 Y30.9 Z0 F80.00 
G01 X55.25 Y30.9 Z72 F40.00 
G01 X55.15 Y30.9 Z241 F22.20 
G01 X53.75 Y30.9 Z255 F20.00 
G01 X53.65 Y30.9 Z187 F30.71 
G01 X53.55 Y30.9 Z9 F80.00 
G01 X18.65 Y30.9 Z0 F80.00 
G01 X18.55 Y30.9 Z146 F37.17 
G01 X16.95 Y30.9 Z255 F20.00 
G01 X16.85 Y30.9 Z251 F20.63 
G01 X16.75 Y30.9 Z96 F40.00 
G01 X16.7 Y30.9 Z0 F80.00 
G00 X16.7 Y31.0 Z0 F80.00 
G01 X16.85 Y31.0 Z0 F80.00 
G01 X16.95 Y31.0 Z198 F28.98 
G01 X18.55 Y31.0 Z255 F20.00 
G01 X18.65 Y31.0 Z207 F27.56 
G01 X18.75 Y31.0 Z3 F80.00 
G01 X53.55 Y31.0 Z0 F80.00 
G01 X53.65 Y31.0 Z7 F80.00 
G01 X53.75 Y31.0 Z178 F32.13 
G01 X55.15 Y31.0 Z255 F20.00 
G01 X55.25 Y31.0 Z236 F22.99 
G01 X55.35 Y31.0 Z51 F40.00 
G01 X55.45 Y31.0 Z0 F80.00 
G01 X55.55 Y31.0 Z2 F80.00 
G01 X55.65 Y31.0 Z125 F40.00 
G01 X57.05 Y31.0 Z255 F20.00 
G01 X57.15 Y31.0 Z201 F28.50 
G01 X57.25 Y31.0 Z15 F40.00 
G01 X57.35 Y31.0 Z0 F80.00 
G01 X57.45 Y31.0 Z6 F80.00 
G01 X57.55 Y31.0 Z127 F40.00 
G01 X57.65 Y31.0 Z246 F21.42 
G01 X58.95 Y31.0 Z255 F20.00 
G01 X59.05 Y31.0 Z244 F21.73 
G01 X59.15 Y31.0 Z98 F40.00 
G01 X74.85 Y31.0 Z0 F80.00 
G01 X74.95 Y31.0 Z2 F80.00 
G01 X75.05 Y31.0 Z63 F40.00 
G01 X75.15 Y31.0 Z210 F27.09 
G01 X77.85 Y31.0 Z255 F20.00 
G01 X77.95 Y31.0 Z254 F20.16 
G01 X78.05 Y31.0 Z192 F29.92 
G01 X78.15 Y31.0 Z52 F40.00 
G01 X79.15 Y31.0 Z0 F80.00 
G01 X79.25 Y31.0 Z35 F40.00 
G01 X79.35 Y31.0 Z204 F28.03 
G01 X80.35 Y31.0 Z255 F20.00 
G01 X80.45 Y31.0 Z247 F21.26 
G01 X80.5 Y31.0 Z0 F80.00 
G00 X80.5 Y31.1 Z0 F80.00 
G01 X80.45 Y31.1 Z0 F80.00 
G01 X80.35 Y31.1 Z238 F22.68 
G01 X79.35 Y31.1 Z255 F20.00 
G01 X79.25 Y31.1 Z253 F20.31 
G01 X79.15 Y31.1 Z130 F39.69 
G01 X79.05 Y31.1 Z4 F80.00 
G01 X78.15 Y31.1 Z0 F80.00 
G01 X78.05 Y31.1 Z26 F40.00 
G01 X77.95 Y31.1 Z163 F34.49 
G01 X77.85 Y31.1 Z252 F20.47 
G01 X75.15 Y31.1 Z255 F20.00 
G01 X75.05 Y31.1 Z248 F21.10 
G01 X74.95 Y31.1 Z144 F37.48 
G01 X74.85 Y31.1 Z20 F40.00 
G01 X59.15 Y31.1 Z0 F80.00 
G01 X59.05 Y31.1 Z104 F40.00 
G01 X58.95 Y31.1 Z248 F21.10 
G01 X57.65 Y31.1 Z255 F20.00 
G01 X57.55 Y31.1 Z250 F20.79 
G01 X57.45 Y31.1 Z137 F38.58 
G01 X57.35 Y31.1 Z7 F80.00 
G01 X57.25 Y31.1 Z0 F80.00 
G01 X57.15 Y31.1 Z15 F40.00 
G01 X57.05 Y31.1 Z199 F28.82 
G01 X55.65 Y31.1 Z255 F20.00 
G01 X55.55 Y31.1 Z129 F39.84 
G01 X55.45 Y31.1 Z2 F80.00 
G01 X55.35 Y31.1 Z0 F80.00 
G01 X55.25 Y31.1 Z31 F40.00 
G01 X55.15 Y31.1 Z230 F23.94 
G01 X53.75 Y31.1 Z255 F20.00 
G01 X53.65 Y31.1 Z170 F33.39 
G01 X53.55 Y31.1 Z7 F80.00 
G01 X18.75 Y31.1 Z0 F80.00 
G01 X18.65 Y31.1 Z27 F40.00 
G01 X18.55 Y31.1 Z243 F21.89 
G01 X17.05 Y31.1 Z255 F20.00 
G01 X16.95 Y31.1 Z246 F21.42 
G01 X16.85 Y31.1 Z68 F40.00 
G01 X16.8 Y31.1 Z0 F80.00 
G00 X16.8 Y31.2 Z0 F80.00 
G01 X16.95 Y31.2 Z0 F80.00 
G01 X17.05 Y31.2 Z167 F33.86 
G01 X17.15 Y31.2 Z254 F20.16 
G01 X18.55 Y31.2 Z255 F20.00 
G01 X18.65 Y31.2 Z252 F20.47 
G01 X18.75 Y31.2 Z103 F40.00 
G01 X53.55 Y31.2 Z0 F80.00 
G01 X53.65 Y31.2 Z6 F80.00 
G01 X53.75 Y31.2 Z165 F34.17 
G01 X55.15 Y31.2 Z255 F20.00 
G01 X55.25 Y31.2 Z218 F25.83 
G01 X55.35 Y31.2 Z24 F40.00 
G01 X55.45 Y31.2 Z0 F80.00 
G01 X55.55 Y31.2 Z3 F80.00 
G01 X55.65 Y31.2 Z134 F39.06 
G01 X57.05 Y31.2 Z255 F20.00 
G01 X57.15 Y31.2 Z192 F29.92 
G01 X57.25 Y31.2 Z15 F40.00 
G01 X57.35 Y31.2 Z0 F80.00 
G01 X57.45 Y31.2 Z9 F80.00 
G01 X57.55 Y31.2 Z149 F36.69 
G01 X57.65 Y31.2 Z254 F20.16 
G01 X58.95 Y31.2 Z255 F20.00 
G01 X59.05 Y31.2 Z250 F20.79 
G01 X59.15 Y31.2 Z107 F40.00 
G01 X74.75 Y31.2 Z0 F80.00 
G01 X74.85 Y31.2 Z4 F80.00 
G01 X74.95 Y31.2 Z83 F40.00 
G01 X75.05 Y31.2 Z222 F25.20 
G01 X77.85 Y31.2 Z255 F20.00 
G01 X77.95 Y31.2 Z247 F21.26 
G01 X78.05 Y31.2 Z141 F37.95 
G01 X78.15 Y31.2 Z11 F40.00 
G01 X79.05 Y31.2 Z0 F80.00 
G01 X79.15 Y31.2 Z63 F40.00 
G01 X79.25 Y31.2 Z227 F24.41 
G01 X80.35 Y31.2 Z255 F20.00 
G01 X80.45 Y31.2 Z225 F24.72 
G01 X80.5 Y31.2 Z0 F80.00 
G00 X80.5 Y31.3 Z0 F80.00 
G01 X80.45 Y31.3 Z0 F80.00 
G01 X80.35 Y31.3 Z206 F27.72 
G01 X79.15 Y31.3 Z255 F20.00 
G01 X79.05 Y31.3 Z183 F31.34 
G01 X78.95 Y31.3 Z24 F40.00 
G01 X78.15 Y31.3 Z0 F80.00 
G01 X78.05 Y31.3 Z6 F80.00 
G01 X77.95 Y31.3 Z103 F40.00 
G01 X77.85 Y31.3 Z228 F24.25 
G01 X75.05 Y31.3 Z255 F20.00 
G01 X74.95 Y31.3 Z253 F20.31 
G01 X74.85 Y31.3 Z166 F34.02 
G01 X74.75 Y31.3 Z27 F40.00 
G01 X59.15 Y31.3 Z0 F80.00 
G01 X59.05 Y31.3 Z101 F40.00 
G01 X58.95 Y31.3 Z247 F21.26 
G01 X57.55 Y31.3 Z255 F20.00 
G01 X57.45 Y31.3 Z163 F34.49 
G01 X57.35 Y31.3 Z15 F40.00 
G01 X57.25 Y31.3 Z0 F80.00 
G01 X57.15 Y31.3 Z12 F40.00 
G01 X57.05 Y31.3 Z184 F31.18 
G01 X55.65 Y31.3 Z255 F20.00 
G01 X55.55 Y31.3 Z140 F38.11 
G01 X55.45 Y31.3 Z4 F80.00 
G01 X55.35 Y31.3 Z0 F80.00 
G01 X55.25 Y31.3 Z20 F40.00 
G01 X55.15 Y31.3 Z204 F28.03 
G01 X53.75 Y31.3 Z255 F20.00 
G01 X53.65 Y31.3 Z162 F34.65 
G01 X53.55 Y31.3 Z5 F80.00 
G01 X18.75 Y31.3 Z0 F80.00 
G01 X18.65 Y31.3 Z177 F32.28 
G01 X17.15 Y31.3 Z255 F20.00 
G01 X17.05 Y31.3 Z230 F23.94 
G01 X16.95 Y31.3 Z31 F40.00 
G01 X16.9 Y31.3 Z0 F80.00 
G00 X16.9 Y31.4 Z0 F80.00 
G01 X17.05 Y31.4 Z0 F80.00 
G01 X17.15 Y31.4 Z104 F40.00 
G01 X17.25 Y31.4 Z251 F20.63 
G01 X18.65 Y31.4 Z255 F20.00 
G01 X18.75 Y31.4 Z230 F23.94 
G01 X18.85 Y31.4 Z24 F40.00 
G01 X53.55 Y31.4 Z0 F80.00 
G01 X53.65 Y31.4 Z5 F80.00 
G01 X53.75 Y31.4 Z156 F35.59 
G01 X55.15 Y31.4 Z255 F20.00 
G01 X55.25 Y31.4 Z187 F30.71 
G01 X55.35 Y31.4 Z16 F40.00 
G01 X55.45 Y31.4 Z0 F80.00 
G01 X55.55 Y31.4 Z5 F80.00 
G01 X55.65 Y31.4 Z149 F36.69 
G01 X57.05 Y31.4 Z255 F20.00 
G01 X57.15 Y31.4 Z174 F32.76 
G01 X57.25 Y31.4 Z11 F40.00 
G01 X57.35 Y31.4 Z0 F80.00 
G01 X57.45 Y31.4 Z27 F40.00 
G01 X57.55 Y31.4 Z179 F31.97 
G01 X58.95 Y31.4 Z255 F20.00 
G01 X59.05 Y31.4 Z245 F21.57 
G01 X59.15 Y31.4 Z107 F40.00 
G01 X59.25 Y31.4 Z3 F80.00 
G01 X59.45 Y31.4 Z0 F80.00 
G01 X59.65 Y31.4 Z2 F80.00 
G01 X74.65 Y31.4 Z0 F80.00 
G01 X74.75 Y31.4 Z5 F80.00 
G01 X74.85 Y31.4 Z96 F40.00 
G01 X74.95 Y31.4 Z230 F23.94 
G01 X77.85 Y31.4 Z255 F20.00 
G01 X77.95 Y31.4 Z209 F27.24 
G01 X78.05 Y31.4 Z64 F40.00 
G01 X78.15 Y31.4 Z2 F80.00 
G01 X78.85 Y31.4 Z0 F80.00 
G01 X78.95 Y31.4 Z3 F80.00 
G01 X79.05 Y31.4 Z120 F40.00 
G01 X79.15 Y31.4 Z250 F20.79 
G01 X80.35 Y31.4 Z255 F20.00 
G01 X80.4 Y31.4 Z0 F80.00 
G00 X80.4 Y31.5 Z0 F80.00 
G01 X80.35 Y31.5 Z0 F80.00 
G01 X79.05 Y31.5 Z255 F20.00 
G01 X78.95 Y31.5 Z227 F24.41 
G01 X78.85 Y31.5 Z68 F40.00 
G01 X78.05 Y31.5 Z0 F80.00 
G01 X77.95 Y31.5 Z46 F40.00 
G01 X77.85 Y31.5 Z191 F30.08 
G01 X74.95 Y31.5 Z255 F20.00 
G01 X74.85 Y31.5 Z254 F20.16 
G01 X74.75 Y31.5 Z191 F30.08 
G01 X74.65 Y31.5 Z50 F40.00 
G01 X59.75 Y31.5 Z0 F80.00 
G01 X59.65 Y31.5 Z9 F80.00 
G01 X59.55 Y31.5 Z18 F40.00 
G01 X59.45 Y31.5 Z5 F80.00 
G01 X59.25 Y31.5 Z0 F80.00 
G01 X59.15 Y31.5 Z3 F80.00 
G01 X59.05 Y31.5 Z109 F40.00 
G01 X58.95 Y31.5 Z245 F21.57 
G01 X57.55 Y31.5 Z255 F20.00 
G01 X57.45 Y31.5 Z191 F30.08 
G01 X57.35 Y31.5 Z33 F40.00 
G01 X57.25 Y31.5 Z0 F80.00 
G01 X57.15 Y31.5 Z7 F80.00 
G01 X57.05 Y31.5 Z159 F35.12 
G01 X55.65 Y31.5 Z255 F20.00 
G01 X55.55 Y31.5 Z157 F35.43 
G01 X55.45 Y31.5 Z6 F80.00 
G01 X55.35 Y31.5 Z0 F80.00 
G01 X55.25 Y31.5 Z12 F40.00 
G01 X55.15 Y31.5 Z169 F33.54 
G01 X53.75 Y31.5 Z255 F20.00 
G01 X53.65 Y31.5 Z155 F35.75 
G01 X53.55 Y31.5 Z5 F80.00 
G01 X18.85 Y31.5 Z0 F80.00 
G01 X18.75 Y31.5 Z84 F40.00 
G01 X18.65 Y31.5 Z252 F20.47 
G01 X17.25 Y31.5 Z255 F20.00 
G01 X17.15 Y31.5 Z187 F30.71 
G01 X17.1 Y31.5 Z0 F80.00 
G00 X17.1 Y31.6 Z0 F80.00 
G01 X17.15 Y31.6 Z0 F80.00 
G01 X17.25 Y31.6 Z44 F40.00 
G01 X17.35 Y31.6 Z236 F22.99 
G01 X18.75 Y31.6 Z255 F20.00 
G01 X18.85 Y31.6 Z178 F32.13 
G01 X53.55 Y31.6 Z0 F80.00 
G01 X53.65 Y31.6 Z4 F80.00 
G01 X53.75 Y31.6 Z150 F36.54 
G01 X55.15 Y31.6 Z255 F20.00 
G01 X55.25 Y31.6 Z153 F36.06 
G01 X55.35 Y31.6 Z7 F80.00 
G01 X55.45 Y31.6 Z0 F80.00 
G01 X55.55 Y31.6 Z9 F80.00 
G01 X55.65 Y31.6 Z167 F33.86 
G01 X57.05 Y31.6 Z255 F20.00 
G01 X57.15 Y31.6 Z144 F37.48 
G01 X57.25 Y31.6 Z5 F80.00 
G01 X57.35 Y31.6 Z0 F80.00 
G01 X57.45 Y31.6 Z40 F40.00 
G01 X57.55 Y31.6 Z204 F28.03 
G01 X58.95 Y31.6 Z255 F20.00 
G01 X59.05 Y31.6 Z245 F21.57 
G01 X59.15 Y31.6 Z105 F40.00 
G01 X59.25 Y31.6 Z2 F80.00 
G01 X59.45 Y31.6 Z0 F80.00 
G01 X59.55 Y31.6 Z20 F40.00 
G01 X59.65 Y31.6 Z89 F40.00 
G01 X59.75 Y31.6 Z62 F40.00 
G01 X59.85 Y31.6 Z5 F80.00 
G01 X74.55 Y31.6 Z0 F80.00 
G01 X74.65 Y31.6 Z13 F40.00 
G01 X74.75 Y31.6 Z129 F39.84 
G01 X74.85 Y31.6 Z245 F21.57 
G01 X77.75 Y31.6 Z255 F20.00 
G01 X77.85 Y31.6 Z247 F21.26 
G01 X77.95 Y31.6 Z150 F36.54 
G01 X78.05 Y31.6 Z26 F40.00 
G01 X78.75 Y31.6 Z0 F80.00 
G01 X78.85 Y31.6 Z45 F40.00 
G01 X78.95 Y31.6 Z201 F28.50 
G01 X80.25 Y31.6 Z255 F20.00 
G01 X80.35 Y31.6 Z238 F22.68 
G01 X80.4 Y31.6 Z0 F80.00 
G00 X80.4 Y31.7 Z0 F80.00 
G01 X80.35 Y31.7 Z0 F80.00 
G01 X80.25 Y31.7 Z195 F29.45 
G01 X78.95 Y31.7 Z255 F20.00 
G01 X78.85 Y31.7 Z254 F20.16 
G01 X78.75 Y31.7 Z182 F31.50 
G01 X78.65 Y31.7 Z30 F40.00 
G01 X78.05 Y31.7 Z0 F80.00 
G01 X77.95 Y31.7 Z6 F80.00 
G01 X77.85 Y31.7 Z105 F40.00 
G01 X77.75 Y31.7 Z235 F23.15 
G01 X74.75 Y31.7 Z255 F20.00 
G01 X74.65 Y31.7 Z207 F27.56 
G01 X74.55 Y31.7 Z65 F40.00 
G01 X74.45 Y31.7 Z2 F80.00 
G01 X59.85 Y31.7 Z0 F80.00 
G01 X59.75 Y31.7 Z27 F40.00 
G01 X59.65 Y31.7 Z158 F35.28 
G01 X59.55 Y31.7 Z195 F29.45 
G01 X59.45 Y31.7 Z44 F40.00 
G01 X59.15 Y31.7 Z0 F80.00 
G01 X59.05 Y31.7 Z95 F40.00 
G01 X58.95 Y31.7 Z243 F21.89 
G01 X57.55 Y31.7 Z255 F20.00 
G01 X57.45 Y31.7 Z218 F25.83 
G01 X57.35 Y31.7 Z52 F40.00 
G01 X57.25 Y31.7 Z0 F80.00 
G01 X57.15 Y31.7 Z2 F80.00 
G01 X57.05 Y31.7 Z125 F40.00 
G01 X55.65 Y31.7 Z255 F20.00 
G01 X55.55 Y31.7 Z175 F32.60 
G01 X55.45 Y31.7 Z11 F40.00 
G01 X55.35 Y31.7 Z0 F80.00 
G01 X55.25 Y31.7 Z3 F80.00 
G01 X55.15 Y31.7 Z134 F39.06 
G01 X53.75 Y31.7 Z255 F20.00 
G01 X53.65 Y31.7 Z147 F37.01 
G01 X53.55 Y31.7 Z4 F80.00 
G01 X18.95 Y31.7 Z0 F80.00 
G01 X18.85 Y31.7 Z22 F40.00 
G01 X18.75 Y31.7 Z233 F23.46 
G01 X17.45 Y31.7 Z255 F20.00 
G01 X17.35 Y31.7 Z251 F20.63 
G01 X17.25 Y31.7 Z111 F40.00 
G01 X17.2 Y31.7 Z0 F80.00 
G00 X17.2 Y31.8 Z0 F80.00 
G01 X17.35 Y31.8 Z0 F80.00 
G01 X17.45 Y31.8 Z175 F32.60 
G01 X17.55 Y31.8 Z254 F20.16 
G01 X18.75 Y31.8 Z255 F20.00 
G01 X18.85 Y31.8 Z252 F20.47 
G01 X18.95 Y31.8 Z101 F40.00 
G01 X53.55 Y31.8 Z0 F80.00 
G01 X53.65 Y31.8 Z4 F80.00 
G01 X53.75 Y31.8 Z147 F37.01 
G01 X55.15 Y31.8 Z255 F20.00 
G01 X55.25 Y31.8 Z113 F40.00 
G01 X55.45 Y31.8 Z0 F80.00 
G01 X55.55 Y31.8 Z12 F40.00 
G01 X55.65 Y31.8 Z189 F30.39 
G01 X57.05 Y31.8 Z255 F20.00 
G01 X57.15 Y31.8 Z103 F40.00 
G01 X57.35 Y31.8 Z0 F80.00 
G01 X57.45 Y31.8 Z68 F40.00 
G01 X57.55 Y31.8 Z231 F23.78 
G01 X58.95 Y31.8 Z255 F20.00 
G01 X59.05 Y31.8 Z241 F22.20 
G01 X59.15 Y31.8 Z87 F40.00 
G01 X59.45 Y31.8 Z0 F80.00 
G01 X59.55 Y31.8 Z62 F40.00 
G01 X59.65 Y31.8 Z235 F23.15 
G01 X59.75 Y31.8 Z232 F23.62 
G01 X59.85 Y31.8 Z89 F40.00 
G01 X59.95 Y31.8 Z3 F80.00 
G01 X74.45 Y31.8 Z0 F80.00 
G01 X74.55 Y31.8 Z30 F40.00 
G01 X74.65 Y31.8 Z165 F34.17 
G01 X74.75 Y31.8 Z250 F20.79 
G01 X77.75 Y31.8 Z255 F20.00 
G01 X77.85 Y31.8 Z210 F27.09 
G01 X77.95 Y31.8 Z71 F40.00 
G01 X78.05 Y31.8 Z2 F80.00 
G01 X78.55 Y31.8 Z0 F80.00 
G01 X78.65 Y31.8 Z20 F40.00 
G01 X78.75 Y31.8 Z159 F35.12 
G01 X78.85 Y31.8 Z254 F20.16 
G01 X80.15 Y31.8 Z255 F20.00 
G01 X80.25 Y31.8 Z253 F20.31 
G01 X80.3 Y31.8 Z0 F80.00 
G00 X80.3 Y31.9 Z0 F80.00 
G01 X80.25 Y31.9 Z0 F80.00 
G01 X80.15 Y31.9 Z233 F23.46 
G01 X78.75 Y31.9 Z255 F20.00 
G01 X78.65 Y31.9 Z249 F20.94 
G01 X78.55 Y31.9 Z141 F37.95 
G01 X78.45 Y31.9 Z12 F40.00 
G01 X77.95 Y31.9 Z0 F80.00 
G01 X77.85 Y31.9 Z31 F40.00 
G01 X77.75 Y31.9 Z169 F33.54 
G01 X77.65 Y31.9 Z253 F20.31 
G01 X74.65 Y31.9 Z255 F20.00 
G01 X74.55 Y31.9 Z238 F22.68 
G01 X74.45 Y31.9 Z112 F40.00 
G01 X74.35 Y31.9 Z9 F80.00 
G01 X59.95 Y31.9 Z0 F80.00 
G01 X59.85 Y31.9 Z27 F40.00 
G01 X59.75 Y31.9 Z169 F33.54 
G01 X59.65 Y31.9 Z254 F20.16 
G01 X59.55 Y31.9 Z246 F21.42 
G01 X59.45 Y31.9 Z78 F40.00 
G01 X59.15 Y31.9 Z0 F80.00 
G01 X59.05 Y31.9 Z75 F40.00 
G01 X58.95 Y31.9 Z237 F22.83 
G01 X57.55 Y31.9 Z255 F20.00 
G01 X57.45 Y31.9 Z240 F22.36 
G01 X57.35 Y31.9 Z93 F40.00 
G01 X57.25 Y31.9 Z2 F80.00 
G01 X57.15 Y31.9 Z0 F80.00 
G01 X57.05 Y31.9 Z83 F40.00 
G01 X56.95 Y31.9 Z251 F20.63 
G01 X55.65 Y31.9 Z255 F20.00 
G01 X55.55 Y31.9 Z204 F28.03 
G01 X55.45 Y31.9 Z15 F40.00 
G01 X55.25 Y31.9 Z0 F80.00 
G01 X55.15 Y31.9 Z95 F40.00 
G01 X55.05 Y31.9 Z253 F20.31 
G01 X53.75 Y31.9 Z255 F20.00 
G01 X53.65 Y31.9 Z147 F37.01 
G01 X53.55 Y31.9 Z4 F80.00 
G01 X19.05 Y31.9 Z0 F80.00 
G01 X18.95 Y31.9 Z3 F80.00 
G01 X18.85 Y31.9 Z190 F30.24 
G01 X17.55 Y31.9 Z255 F20.00 
G01 X17.45 Y31.9 Z223 F25.04 
G01 X17.35 Y31.9 Z24 F40.00 
G01 X17.3 Y31.9 Z0 F80.00 
G00 X17.3 Y32.0 Z0 F80.00 
G01 X17.45 Y32.0 Z0 F80.00 
G01 X17.55 Y32.0 Z78 F40.00 
G01 X17.65 Y32.0 Z245 F21.57 
G01 X18.85 Y32.0 Z255 F20.00 
G01 X18.95 Y32.0 Z244 F21.73 
G01 X19.05 Y32.0 Z42 F40.00 
G01 X53.55 Y32.0 Z0 F80.00 
G01 X53.65 Y32.0 Z4 F80.00 
G01 X53.75 Y32.0 Z153 F36.06 
G01 X55.05 Y32.0 Z255 F20.00 
G01 X55.15 Y32.0 Z243 F21.89 
G01 X55.25 Y32.0 Z80 F40.00 
G01 X55.45 Y32.0 Z0 F80.00 
G01 X55.55 Y32.0 Z18 F40.00 
G01 X55.65 Y32.0 Z217 F25.98 
G01 X56.95 Y32.0 Z255 F20.00 
G01 X57.05 Y32.0 Z235 F23.15 
G01 X57.15 Y32.0 Z65 F40.00 
G01 X57.25 Y32.0 Z0 F80.00 
G01 X57.35 Y32.0 Z4 F80.00 
G01 X57.45 Y32.0 Z114 F40.00 
G01 X57.55 Y32.0 Z244 F21.73 
G01 X58.95 Y32.0 Z255 F20.00 
G01 X59.05 Y32.0 Z232 F23.62 
G01 X59.15 Y32.0 Z62 F40.00 
G01 X59.45 Y32.0 Z0 F80.00 
G01 X59.55 Y32.0 Z102 F40.00 
G01 X59.65 Y32.0 Z253 F20.31 
G01 X59.75 Y32.0 Z255 F20.00 
G01 X59.85 Y32.0 Z233 F23.46 
G01 X59.95 Y32.0 Z90 F40.00 
G01 X60.05 Y32.0 Z4 F80.00 
G01 X74.25 Y32.0 Z0 F80.00 
G01 X74.35 Y32.0 Z2 F80.00 
G01 X74.45 Y32.0 Z59 F40.00 
G01 X74.55 Y32.0 Z203 F28.19 
G01 X77.65 Y32.0 Z255 F20.00 
G01 X77.75 Y32.0 Z239 F22.52 
G01 X77.85 Y32.0 Z124 F40.00 
G01 X77.95 Y32.0 Z12 F40.00 
G01 X78.35 Y32.0 Z0 F80.00 
G01 X78.45 Y32.0 Z9 F80.00 
G01 X78.55 Y32.0 Z120 F40.00 
G01 X78.65 Y32.0 Z243 F21.89 
G01 X80.15 Y32.0 Z255 F20.00 
G01 X80.25 Y32.0 Z165 F34.17 
G01 X80.3 Y32.0 Z0 F80.00 
G00 X80.3 Y32.1 Z0 F80.00 
G01 X80.15 Y32.1 Z0 F80.00 
G01 X80.05 Y32.1 Z240 F22.36 
G01 X78.55 Y32.1 Z255 F20.00 
G01 X78.45 Y32.1 Z239 F22.52 
G01 X78.35 Y32.1 Z105 F40.00 
G01 X78.25 Y32.1 Z4 F80.00 
G01 X77.95 Y32.1 Z0 F80.00 
G01 X77.85 Y32.1 Z3 F80.00 
G01 X77.75 Y32.1 Z62 F40.00 
G01 X77.65 Y32.1 Z204 F28.03 
G01 X74.55 Y32.1 Z255 F20.00 
G01 X74.45 Y32.1 Z249 F20.94 
G01 X74.35 Y32.1 Z157 F35.43 
G01 X74.25 Y32.1 Z27 F40.00 
G01 X60.05 Y32.1 Z0 F80.00 
G01 X59.95 Y32.1 Z20 F40.00 
G01 X59.85 Y32.1 Z159 F35.12 
G01 X59.75 Y32.1 Z254 F20.16 
G01 X59.55 Y32.1 Z255 F20.00 
G01 X59.45 Y32.1 Z141 F37.95 
G01 X59.35 Y32.1 Z4 F80.00 
G01 X59.15 Y32.1 Z0 F80.00 
G01 X59.05 Y32.1 Z45 F40.00 
G01 X58.95 Y32.1 Z224 F24.88 
G01 X57.55 Y32.1 Z255 F20.00 
G01 X57.45 Y32.1 Z248 F21.10 
G01 X57.35 Y32.1 Z131 F39.53 
G01 X57.25 Y32.1 Z9 F80.00 
G01 X57.15 Y32.1 Z0 F80.00 
G01 X57.05 Y32.1 Z45 F40.00 
G01 X56.95 Y32.1 Z219 F25.67 
G01 X55.65 Y32.1 Z255 F20.00 
G01 X55.55 Y32.1 Z223 F25.04 
G01 X55.45 Y32.1 Z29 F40.00 
G01 X55.25 Y32.1 Z0 F80.00 
G01 X55.15 Y32.1 Z62 F40.00 
G01 X55.05 Y32.1 Z231 F23.78 
G01 X53.75 Y32.1 Z255 F20.00 
G01 X53.65 Y32.1 Z155 F35.75 
G01 X53.55 Y32.1 Z5 F80.00 
G01 X19.05 Y32.1 Z0 F80.00 
G01 X18.95 Y32.1 Z150 F36.54 
G01 X18.85 Y32.1 Z254 F20.16 
G01 X17.75 Y32.1 Z255 F20.00 
G01 X17.65 Y32.1 Z252 F20.47 
G01 X17.55 Y32.1 Z127 F40.00 
G01 X17.5 Y32.1 Z0 F80.00 
G00 X17.5 Y32.2 Z0 F80.00 
G01 X17.65 Y32.2 Z0 F80.00 
G01 X17.75 Y32.2 Z174 F32.76 
G01 X17.85 Y32.2 Z254 F20.16 
G01 X18.95 Y32.2 Z255 F20.00 
G01 X19.05 Y32.2 Z230 F23.94 
G01 X19.15 Y32.2 Z27 F40.00 
G01 X53.55 Y32.2 Z0 F80.00 
G01 X53.65 Y32.2 Z5 F80.00 
G01 X53.75 Y32.2 Z156 F35.59 
G01 X55.05 Y32.2 Z255 F20.00 
G01 X55.15 Y32.2 Z219 F25.67 
G01 X55.25 Y32.2 Z44 F40.00 
G01 X55.45 Y32.2 Z0 F80.00 
G01 X55.55 Y32.2 Z44 F40.00 
G01 X55.65 Y32.2 Z228 F24.25 
G01 X56.95 Y32.2 Z255 F20.00 
G01 X57.05 Y32.2 Z203 F28.19 
G01 X57.15 Y32.2 Z24 F40.00 
G01 X57.25 Y32.2 Z0 F80.00 
G01 X57.35 Y32.2 Z15 F40.00 
G01 X57.45 Y32.2 Z154 F35.91 
G01 X57.55 Y32.2 Z252 F20.47 
G01 X58.95 Y32.2 Z255 F20.00 
G01 X59.05 Y32.2 Z209 F27.24 
G01 X59.15 Y32.2 Z29 F40.00 
G01 X59.35 Y32.2 Z0 F80.00 
G01 X59.45 Y32.2 Z15 F40.00 
G01 X59.55 Y32.2 Z175 F32.60 
G01 X59.85 Y32.2 Z255 F20.00 
G01 X59.95 Y32.2 Z216 F26.14 
G01 X60.05 Y32.2 Z54 F40.00 
G01 X74.15 Y32.2 Z0 F80.00 
G01 X74.25 Y32.2 Z7 F80.00 
G01 X74.35 Y32.2 Z108 F40.00 
G01 X74.45 Y32.2 Z234 F23.31 
G01 X77.55 Y32.2 Z255 F20.00 
G01 X77.65 Y32.2 Z249 F20.94 
G01 X77.75 Y32.2 Z162 F34.65 
G01 X77.85 Y32.2 Z29 F40.00 
G01 X78.15 Y32.2 Z0 F80.00 
G01 X78.25 Y32.2 Z3 F80.00 
G01 X78.35 Y32.2 Z90 F40.00 
G01 X78.45 Y32.2 Z232 F23.62 
G01 X80.05 Y32.2 Z255 F20.00 
G01 X80.15 Y32.2 Z183 F31.34 
G01 X80.2 Y32.2 Z0 F80.00 
G00 X80.2 Y32.3 Z0 F80.00 
G01 X80.05 Y32.3 Z0 F80.00 
G01 X79.95 Y32.3 Z246 F21.42 
G01 X78.35 Y32.3 Z255 F20.00 
G01 X78.25 Y32.3 Z227 F24.41 
G01 X78.15 Y32.3 Z79 F40.00 
G01 X78.05 Y32.3 Z2 F80.00 
G01 X77.85 Y32.3 Z0 F80.00 
G01 X77.75 Y32.3 Z9 F80.00 
G01 X77.65 Y32.3 Z101 F40.00 
G01 X77.55 Y32.3 Z228 F24.25 
G01 X74.45 Y32.3 Z255 F20.00 
G01 X74.35 Y32.3 Z254 F20.16 
G01 X74.25 Y32.3 Z203 F28.19 
G01 X74.15 Y32.3 Z62 F40.00 
G01 X74.05 Y32.3 Z2 F80.00 
G01 X60.15 Y32.3 Z0 F80.00 
G01 X60.05 Y32.3 Z5 F80.00 
G01 X59.95 Y32.3 Z108 F40.00 
G01 X59.85 Y32.3 Z248 F21.10 
G01 X59.55 Y32.3 Z255 F20.00 
G01 X59.45 Y32.3 Z201 F28.50 
G01 X59.35 Y32.3 Z26 F40.00 
G01 X59.15 Y32.3 Z0 F80.00 
G01 X59.05 Y32.3 Z15 F40.00 
G01 X58.95 Y32.3 Z186 F30.87 
G01 X57.45 Y32.3 Z255 F20.00 
G01 X57.35 Y32.3 Z177 F32.28 
G01 X57.25 Y32.3 Z24 F40.00 
G01 X57.15 Y32.3 Z0 F80.00 
G01 X57.05 Y32.3 Z4 F80.00 
G01 X56.95 Y32.3 Z180 F31.81 
G01 X55.65 Y32.3 Z255 F20.00 
G01 X55.55 Y32.3 Z234 F23.31 
G01 X55.45 Y32.3 Z60 F40.00 
G01 X55.25 Y32.3 Z0 F80.00 
G01 X55.15 Y32.3 Z27 F40.00 
G01 X55.05 Y32.3 Z207 F27.56 
G01 X53.75 Y32.3 Z255 F20.00 
G01 X53.65 Y32.3 Z162 F34.65 
G01 X53.55 Y32.3 Z6 F80.00 
G01 X19.15 Y32.3 Z0 F80.00 
G01 X19.05 Y32.3 Z117 F40.00 
G01 X18.95 Y32.3 Z253 F20.31 
G01 X17.85 Y32.3 Z255 F20.00 
G01 X17.75 Y32.3 Z205 F27.87 
G01 X17.65 Y32.3 Z20 F40.00 
G01 X17.6 Y32.3 Z0 F80.00 
G00 X17.6 Y32.4 Z0 F80.00 
G01 X17.75 Y32.4 Z0 F80.00 
G01 X17.85 Y32.4 Z37 F40.00 
G01 X17.95 Y32.4 Z225 F24.72 
G01 X19.05 Y32.4 Z255 F20.00 
G01 X19.15 Y32.4 Z221 F25.35 
G01 X19.25 Y32.4 Z9 F80.00 
G01 X53.55 Y32.4 Z0 F80.00 
G01 X53.65 Y32.4 Z7 F80.00 
G01 X53.75 Y32.4 Z168 F33.70 
G01 X55.05 Y32.4 Z255 F20.00 
G01 X55.15 Y32.4 Z195 F29.45 
G01 X55.25 Y32.4 Z9 F80.00 
G01 X55.45 Y32.4 Z0 F80.00 
G01 X55.55 Y32.4 Z79 F40.00 
G01 X55.65 Y32.4 Z241 F22.20 
G01 X56.95 Y32.4 Z255 F20.00 
G01 X57.05 Y32.4 Z147 F37.01 
G01 X57.25 Y32.4 Z0 F80.00 
G01 X57.35 Y32.4 Z39 F40.00 
G01 X57.45 Y32.4 Z199 F28.82 
G01 X58.95 Y32.4 Z255 F20.00 
G01 X59.05 Y32.4 Z163 F34.49 
G01 X59.15 Y32.4 Z11 F40.00 
G01 X59.35 Y32.4 Z0 F80.00 
G01 X59.45 Y32.4 Z42 F40.00 
G01 X59.55 Y32.4 Z217 F25.98 
G01 X59.95 Y32.4 Z255 F20.00 
G01 X60.05 Y32.4 Z165 F34.17 
G01 X60.15 Y32.4 Z15 F40.00 
G01 X74.05 Y32.4 Z0 F80.00 
G01 X74.15 Y32.4 Z29 F40.00 
G01 X74.25 Y32.4 Z162 F34.65 
G01 X74.35 Y32.4 Z250 F20.79 
G01 X77.45 Y32.4 Z255 F20.00 
G01 X77.55 Y32.4 Z254 F20.16 
G01 X77.65 Y32.4 Z193 F29.76 
G01 X77.75 Y32.4 Z53 F40.00 
G01 X77.85 Y32.4 Z2 F80.00 
G01 X78.05 Y32.4 Z0 F80.00 
G01 X78.15 Y32.4 Z71 F40.00 
G01 X78.25 Y32.4 Z221 F25.35 
G01 X79.95 Y32.4 Z255 F20.00 
G01 X80.05 Y32.4 Z184 F31.18 
G01 X80.1 Y32.4 Z0 F80.00 
G00 X80.1 Y32.5 Z0 F80.00 
G01 X79.95 Y32.5 Z0 F80.00 
G01 X79.85 Y32.5 Z243 F21.89 
G01 X78.15 Y32.5 Z255 F20.00 
G01 X78.05 Y32.5 Z215 F26.30 
G01 X77.95 Y32.5 Z65 F40.00 
G01 X77.75 Y32.5 Z0 F80.00 
G01 X77.65 Y32.5 Z13 F40.00 
G01 X77.55 Y32.5 Z126 F40.00 
G01 X77.45 Y32.5 Z240 F22.36 
G01 X74.25 Y32.5 Z255 F20.00 
G01 X74.15 Y32.5 Z236 F22.99 
G01 X74.05 Y32.5 Z111 F40.00 
G01 X73.95 Y32.5 Z9 F80.00 
G01 X60.15 Y32.5 Z0 F80.00 
G01 X60.05 Y32.5 Z35 F40.00 
G01 X59.95 Y32.5 Z199 F28.82 
G01 X59.55 Y32.5 Z255 F20.00 
G01 X59.45 Y32.5 Z234 F23.31 
G01 X59.35 Y32.5 Z74 F40.00 
G01 X59.15 Y32.5 Z0 F80.00 
G01 X59.05 Y32.5 Z6 F80.00 
G01 X58.95 Y32.5 Z138 F38.43 
G01 X58.85 Y32.5 Z253 F20.31 
G01 X57.45 Y32.5 Z255 F20.00 
G01 X57.35 Y32.5 Z217 F25.98 
G01 X57.25 Y32.5 Z60 F40.00 
G01 X57.05 Y32.5 Z0 F80.00 
G01 X56.95 Y32.5 Z107 F40.00 
G01 X56.85 Y32.5 Z252 F20.47 
G01 X55.65 Y32.5 Z255 F20.00 
G01 X55.55 Y32.5 Z246 F21.42 
G01 X55.45 Y32.5 Z98 F40.00 
G01 X55.25 Y32.5 Z0 F80.00 
G01 X55.15 Y32.5 Z3 F80.00 
G01 X55.05 Y32.5 Z172 F33.07 
G01 X53.75 Y32.5 Z255 F20.00 
G01 X53.65 Y32.5 Z177 F32.28 
G01 X53.55 Y32.5 Z7 F80.00 
G01 X19.25 Y32.5 Z0 F80.00 
G01 X19.15 Y32.5 Z99 F40.00 
G01 X19.05 Y32.5 Z251 F20.63 
G01 X18.05 Y32.5 Z255 F20.00 
G01 X17.95 Y32.5 Z236 F22.99 
G01 X17.85 Y32.5 Z59 F40.00 
G01 X17.8 Y32.5 Z0 F80.00 
G00 X17.8 Y32.6 Z0 F80.00 
G01 X17.95 Y32.6 Z0 F80.00 
G01 X18.05 Y32.6 Z84 F40.00 
G01 X18.15 Y32.6 Z243 F21.89 
G01 X19.15 Y32.6 Z255 F20.00 
G01 X19.25 Y32.6 Z211 F26.93 
G01 X19.35 Y32.6 Z12 F40.00 
G01 X53.55 Y32.6 Z0 F80.00 
G01 X53.65 Y32.6 Z9 F80.00 
G01 X53.75 Y32.6 Z186 F30.87 
G01 X55.05 Y32.6 Z255 F20.00 
G01 X55.15 Y32.6 Z144 F37.48 
G01 X55.45 Y32.6 Z0 F80.00 
G01 X55.55 Y32.6 Z116 F40.00 
G01 X55.65 Y32.6 Z252 F20.47 
G01 X56.85 Y32.6 Z255 F20.00 
G01 X56.95 Y32.6 Z247 F21.26 
G01 X57.05 Y32.6 Z68 F40.00 
G01 X57.25 Y32.6 Z0 F80.00 
G01 X57.35 Y32.6 Z85 F40.00 
G01 X57.45 Y32.6 Z233 F23.46 
G01 X58.85 Y32.6 Z255 F20.00 
G01 X58.95 Y32.6 Z245 F21.57 
G01 X59.05 Y32.6 Z107 F40.00 
G01 X59.15 Y32.6 Z3 F80.00 
G01 X59.35 Y32.6 Z0 F80.00 
G01 X59.45 Y32.6 Z105 F40.00 
G01 X59.55 Y32.6 Z248 F21.10 
G01 X59.95 Y32.6 Z255 F20.00 
G01 X60.05 Y32.6 Z227 F24.41 
G01 X60.15 Y32.6 Z71 F40.00 
G01 X73.85 Y32.6 Z0 F80.00 
G01 X73.95 Y32.6 Z3 F80.00 
G01 X74.05 Y32.6 Z71 F40.00 
G01 X74.15 Y32.6 Z207 F27.56 
G01 X77.35 Y32.6 Z255 F20.00 
G01 X77.45 Y32.6 Z253 F20.31 
G01 X77.55 Y32.6 Z189 F30.39 
G01 X77.65 Y32.6 Z51 F40.00 
G01 X77.85 Y32.6 Z0 F80.00 
G01 X77.95 Y32.6 Z60 F40.00 
G01 X78.05 Y32.6 Z210 F27.09 
G01 X79.85 Y32.6 Z255 F20.00 
G01 X79.95 Y32.6 Z177 F32.28 
G01 X80.0 Y32.6 Z0 F80.00 
G00 X80.0 Y32.7 Z0 F80.00 
G01 X79.85 Y32.7 Z0 F80.00 
G01 X79.75 Y32.7 Z236 F22.99 
G01 X77.95 Y32.7 Z255 F20.00 
G01 X77.85 Y32.7 Z207 F27.56 
G01 X77.75 Y32.7 Z57 F40.00 
G01 X77.65 Y32.7 Z0 F80.00 
G01 X77.55 Y32.7 Z5 F80.00 
G01 X77.45 Y32.7 Z86 F40.00 
G01 X77.35 Y32.7 Z215 F26.30 
G01 X74.15 Y32.7 Z255 F20.00 
G01 X74.05 Y32.7 Z252 F20.47 
G01 X73.95 Y32.7 Z179 F31.97 
G01 X73.85 Y32.7 Z40 F40.00 
G01 X60.25 Y32.7 Z0 F80.00 
G01 X60.15 Y32.7 Z3 F80.00 
G01 X60.05 Y32.7 Z107 F40.00 
G01 X59.95 Y32.7 Z245 F21.57 
G01 X59.45 Y32.7 Z255 F20.00 
G01 X59.35 Y32.7 Z140 F38.11 
G01 X59.25 Y32.7 Z6 F80.00 
G01 X59.05 Y32.7 Z0 F80.00 
G01 X58.95 Y32.7 Z76 F40.00 
G01 X58.85 Y32.7 Z232 F23.62 
G01 X57.45 Y32.7 Z255 F20.00 
G01 X57.35 Y32.7 Z245 F21.57 
G01 X57.25 Y32.7 Z110 F40.00 
G01 X57.15 Y32.7 Z2 F80.00 
G01 X57.05 Y32.7 Z0 F80.00 
G01 X56.95 Y32.7 Z39 F40.00 
G01 X56.85 Y32.7 Z225 F24.72 
G01 X55.55 Y32.7 Z255 F20.00 
G01 X55.45 Y32.7 Z135 F38.90 
G01 X55.15 Y32.7 Z0 F80.00 
G01 X55.05 Y32.7 Z116 F40.00 
G01 X54.95 Y32.7 Z253 F20.31 
G01 X53.75 Y32.7 Z255 F20.00 
G01 X53.65 Y32.7 Z197 F29.13 
G01 X53.55 Y32.7 Z11 F40.00 
G01 X19.35 Y32.7 Z0 F80.00 
G01 X19.25 Y32.7 Z101 F40.00 
G01 X19.15 Y32.7 Z252 F20.47 
G01 X18.25 Y32.7 Z255 F20.00 
G01 X18.15 Y32.7 Z246 F21.42 
G01 X18.05 Y32.7 Z101 F40.00 
G01 X18.0 Y32.7 Z0 F80.00 
G00 X18.0 Y32.8 Z0 F80.00 
G01 X18.15 Y32.8 Z0 F80.00 
G01 X18.25 Y32.8 Z111 F40.00 
G01 X18.35 Y32.8 Z247 F21.26 
G01 X19.25 Y32.8 Z255 F20.00 
G01 X19.35 Y32.8 Z216 F26.14 
G01 X19.45 Y32.8 Z13 F40.00 
G01 X53.55 Y32.8 Z0 F80.00 
G01 X53.65 Y32.8 Z12 F40.00 
G01 X53.75 Y32.8 Z207 F27.56 
G01 X54.95 Y32.8 Z255 F20.00 
G01 X55.05 Y32.8 Z252 F20.47 
G01 X55.15 Y32.8 Z87 F40.00 
G01 X55.35 Y32.8 Z0 F80.00 
G01 X55.45 Y32.8 Z5 F80.00 
G01 X55.55 Y32.8 Z156 F35.59 
G01 X56.85 Y32.8 Z255 F20.00 
G01 X56.95 Y32.8 Z187 F30.71 
G01 X57.05 Y32.8 Z20 F40.00 
G01 X57.15 Y32.8 Z0 F80.00 
G01 X57.25 Y32.8 Z6 F80.00 
G01 X57.35 Y32.8 Z135 F38.90 
G01 X57.45 Y32.8 Z251 F20.63 
G01 X58.85 Y32.8 Z255 F20.00 
G01 X58.95 Y32.8 Z213 F26.61 
G01 X59.05 Y32.8 Z48 F40.00 
G01 X59.25 Y32.8 Z0 F80.00 
G01 X59.35 Y32.8 Z20 F40.00 
G01 X59.45 Y32.8 Z174 F32.76 
G01 X59.95 Y32.8 Z255 F20.00 
G01 X60.05 Y32.8 Z253 F20.31 
G01 X60.15 Y32.8 Z129 F39.84 
G01 X60.25 Y32.8 Z7 F80.00 
G01 X73.75 Y32.8 Z0 F80.00 
G01 X73.85 Y32.8 Z16 F40.00 
G01 X73.95 Y32.8 Z135 F38.90 
G01 X74.05 Y32.8 Z244 F21.73 
G01 X77.25 Y32.8 Z255 F20.00 
G01 X77.35 Y32.8 Z222 F25.20 
G01 X77.45 Y32.8 Z105 F40.00 
G01 X77.55 Y32.8 Z13 F40.00 
G01 X77.65 Y32.8 Z0 F80.00 
G01 X77.75 Y32.8 Z59 F40.00 
G01 X77.85 Y32.8 Z206 F27.72 
G01 X79.75 Y32.8 Z255 F20.00 
G01 X79.8 Y32.8 Z0 F80.00 
G00 X79.8 Y32.9 Z0 F80.00 
G01 X79.75 Y32.9 Z0 F80.00 
G01 X79.65 Y32.9 Z219 F25.67 
G01 X77.75 Y32.9 Z255 F20.00 
G01 X77.65 Y32.9 Z207 F27.56 
G01 X77.55 Y32.9 Z59 F40.00 
G01 X77.45 Y32.9 Z0 F80.00 
G01 X77.35 Y32.9 Z18 F40.00 
G01 X77.25 Y32.9 Z122 F40.00 
G01 X77.15 Y32.9 Z234 F23.31 
G01 X73.95 Y32.9 Z255 F20.00 
G01 X73.85 Y32.9 Z223 F25.04 
G01 X73.75 Y32.9 Z89 F40.00 
G01 X73.65 Y32.9 Z5 F80.00 
G01 X60.25 Y32.9 Z0 F80.00 
G01 X60.15 Y32.9 Z13 F40.00 
G01 X60.05 Y32.9 Z150 F36.54 
G01 X59.45 Y32.9 Z255 F20.00 
G01 X59.35 Y32.9 Z207 F27.56 
G01 X59.25 Y32.9 Z37 F40.00 
G01 X59.05 Y32.9 Z0 F80.00 
G01 X58.95 Y32.9 Z24 F40.00 
G01 X58.85 Y32.9 Z184 F31.18 
G01 X57.45 Y32.9 Z255 F20.00 
G01 X57.35 Y32.9 Z254 F20.16 
G01 X57.25 Y32.9 Z165 F34.17 
G01 X57.15 Y32.9 Z13 F40.00 
G01 X57.05 Y32.9 Z0 F80.00 
G01 X56.95 Y32.9 Z3 F80.00 
G01 X56.85 Y32.9 Z147 F37.01 
G01 X55.55 Y32.9 Z255 F20.00 
G01 X55.45 Y32.9 Z177 F32.28 
G01 X55.35 Y32.9 Z15 F40.00 
G01 X55.15 Y32.9 Z0 F80.00 
G01 X55.05 Y32.9 Z61 F40.00 
G01 X54.95 Y32.9 Z247 F21.26 
G01 X53.75 Y32.9 Z255 F20.00 
G01 X53.65 Y32.9 Z215 F26.30 
G01 X53.55 Y32.9 Z18 F40.00 
G01 X19.45 Y32.9 Z0 F80.00 
G01 X19.35 Y32.9 Z117 F40.00 
G01 X19.25 Y32.9 Z253 F20.31 
G01 X18.45 Y32.9 Z255 F20.00 
G01 X18.35 Y32.9 Z248 F21.10 
G01 X18.25 Y32.9 Z122 F40.00 
G01 X18.2 Y32.9 Z0 F80.00 
G00 X18.2 Y33.0 Z0 F80.00 
G01 X18.35 Y33.0 Z0 F80.00 
G01 X18.45 Y33.0 Z119 F40.00 
G01 X18.55 Y33.0 Z247 F21.26 
G01 X19.35 Y33.0 Z255 F20.00 
G01 X19.45 Y33.0 Z230 F23.94 
G01 X19.55 Y33.0 Z24 F40.00 
G01 X53.55 Y33.0 Z0 F80.00 
G01 X53.65 Y33.0 Z28 F40.00 
G01 X53.75 Y33.0 Z218 F25.83 
G01 X54.95 Y33.0 Z255 F20.00 
G01 X55.05 Y33.0 Z230 F23.94 
G01 X55.15 Y33.0 Z44 F40.00 
G01 X55.35 Y33.0 Z0 F80.00 
G01 X55.45 Y33.0 Z27 F40.00 
G01 X55.55 Y33.0 Z198 F28.98 
G01 X56.75 Y33.0 Z255 F20.00 
G01 X56.85 Y33.0 Z251 F20.63 
G01 X56.95 Y33.0 Z109 F40.00 
G01 X57.15 Y33.0 Z0 F80.00 
G01 X57.25 Y33.0 Z26 F40.00 
G01 X57.35 Y33.0 Z192 F29.92 
G01 X58.75 Y33.0 Z255 F20.00 
G01 X58.85 Y33.0 Z254 F20.16 
G01 X58.95 Y33.0 Z150 F36.54 
G01 X59.05 Y33.0 Z6 F80.00 
G01 X59.25 Y33.0 Z0 F80.00 
G01 X59.35 Y33.0 Z62 F40.00 
G01 X59.45 Y33.0 Z233 F23.46 
G01 X60.05 Y33.0 Z255 F20.00 
G01 X60.15 Y33.0 Z170 F33.39 
G01 X60.25 Y33.0 Z21 F40.00 
G01 X73.55 Y33.0 Z0 F80.00 
G01 X73.65 Y33.0 Z2 F80.00 
G01 X73.75 Y33.0 Z59 F40.00 
G01 X73.85 Y33.0 Z195 F29.45 
G01 X73.95 Y33.0 Z254 F20.16 
G01 X77.05 Y33.0 Z255 F20.00 
G01 X77.15 Y33.0 Z239 F22.52 
G01 X77.25 Y33.0 Z140 F38.11 
G01 X77.35 Y33.0 Z24 F40.00 
G01 X77.45 Y33.0 Z0 F80.00 
G01 X77.55 Y33.0 Z60 F40.00 
G01 X77.65 Y33.0 Z206 F27.72 
G01 X79.55 Y33.0 Z255 F20.00 
G01 X79.65 Y33.0 Z249 F20.94 
G01 X79.7 Y33.0 Z0 F80.00 
G00 X79.7 Y33.1 Z0 F80.00 
G01 X79.65 Y33.1 Z0 F80.00 
G01 X79.55 Y33.1 Z195 F29.45 
G01 X77.55 Y33.1 Z255 F20.00 
G01 X77.45 Y33.1 Z211 F26.93 
G01 X77.35 Y33.1 Z69 F40.00 
G01 X77.25 Y33.1 Z2 F80.00 
G01 X77.15 Y33.1 Z30 F40.00 
G01 X77.05 Y33.1 Z149 F36.69 
G01 X76.95 Y33.1 Z243 F21.89 
G01 X73.85 Y33.1 Z255 F20.00 
G01 X73.75 Y33.1 Z248 F21.10 
G01 X73.65 Y33.1 Z162 F34.65 
G01 X73.55 Y33.1 Z33 F40.00 
G01 X60.25 Y33.1 Z0 F80.00 
G01 X60.15 Y33.1 Z28 F40.00 
G01 X60.05 Y33.1 Z186 F30.87 
G01 X59.45 Y33.1 Z255 F20.00 
G01 X59.35 Y33.1 Z248 F21.10 
G01 X59.25 Y33.1 Z108 F40.00 
G01 X59.15 Y33.1 Z3 F80.00 
G01 X59.05 Y33.1 Z0 F80.00 
G01 X58.95 Y33.1 Z3 F80.00 
G01 X58.85 Y33.1 Z116 F40.00 
G01 X58.75 Y33.1 Z251 F20.63 
G01 X57.35 Y33.1 Z255 F20.00 
G01 X57.25 Y33.1 Z210 F27.09 
G01 X57.15 Y33.1 Z42 F40.00 
G01 X56.95 Y33.1 Z0 F80.00 
G01 X56.85 Y33.1 Z70 F40.00 
G01 X56.75 Y33.1 Z236 F22.99 
G01 X55.55 Y33.1 Z255 F20.00 
G01 X55.45 Y33.1 Z218 F25.83 
G01 X55.35 Y33.1 Z37 F40.00 
G01 X55.15 Y33.1 Z0 F80.00 
G01 X55.05 Y33.1 Z31 F40.00 
G01 X54.95 Y33.1 Z205 F27.87 
G01 X53.75 Y33.1 Z255 F20.00 
G01 X53.65 Y33.1 Z224 F24.88 
G01 X53.55 Y33.1 Z40 F40.00 
G01 X19.65 Y33.1 Z0 F80.00 
G01 X19.55 Y33.1 Z3 F80.00 
G01 X19.45 Y33.1 Z152 F36.22 
G01 X19.35 Y33.1 Z254 F20.16 
G01 X18.65 Y33.1 Z255 F20.00 
G01 X18.55 Y33.1 Z245 F21.57 
G01 X18.45 Y33.1 Z109 F40.00 
G01 X18.4 Y33.1 Z0 F80.00 
G00 X18.4 Y33.2 Z0 F80.00 
G01 X18.55 Y33.2 Z0 F80.00 
G01 X18.65 Y33.2 Z99 F40.00 
G01 X18.75 Y33.2 Z243 F21.89 
G01 X19.45 Y33.2 Z255 F20.00 
G01 X19.55 Y33.2 Z243 F21.89 
G01 X19.65 Y33.2 Z53 F40.00 
G01 X53.55 Y33.2 Z0 F80.00 
G01 X53.65 Y33.2 Z54 F40.00 
G01 X53.75 Y33.2 Z230 F23.94 
G01 X54.95 Y33.2 Z255 F20.00 
G01 X55.05 Y33.2 Z180 F31.81 
G01 X55.15 Y33.2 Z16 F40.00 
G01 X55.35 Y33.2 Z0 F80.00 
G01 X55.45 Y33.2 Z50 F40.00 
G01 X55.55 Y33.2 Z239 F22.52 
G01 X56.75 Y33.2 Z255 F20.00 
G01 X56.85 Y33.2 Z218 F25.83 
G01 X56.95 Y33.2 Z29 F40.00 
G01 X57.15 Y33.2 Z0 F80.00 
G01 X57.25 Y33.2 Z63 F40.00 
G01 X57.35 Y33.2 Z224 F24.88 
G01 X58.75 Y33.2 Z255 F20.00 
G01 X58.85 Y33.2 Z243 F21.89 
G01 X58.95 Y33.2 Z81 F40.00 
