/#############################################################/ 
/###########Gcode generated with PathImg.py V0.4##############/ 
/######written by Nick Sidney Lemberger aka Holysocks#########/ 
/#############################################################/ 

/Pegelwandler/ 
/laser_engraver(diode, 445nm)/ 



G00 X0 Y0 Z0 
G00 X2.032 Y1.905 Z0

G01 X2.20133333333 Y1.778 Z255 F150.00 
G01 X2.24366666667 Y1.73566666667 Z255 F150.00 
G01 X2.286 Y1.73566666667 Z255 F150.00 
G01 X4.953 Y1.778 Z255 F150.00 
G01 X4.99533333333 Y1.778 Z255 F150.00 
G01 X5.03766666667 Y1.82033333333 Z255 F150.00 
G01 X6.26533333333 Y3.00566666667 Z255 F150.00 
G01 X7.95866666667 Y2.96333333333 Z255 F150.00 
G01 X8.42433333333 Y2.54 Z255 F150.00 
G01 X9.017 Y2.58233333333 Z255 F150.00 
G01 X9.398 Y3.00566666667 Z255 F150.00 
G01 X9.35566666667 Y3.59833333333 Z255 F150.00 
G01 X8.93233333333 Y3.97933333333 Z255 F150.00 
G01 X8.33966666667 Y3.937 Z255 F150.00 
G01 X7.95866666667 Y3.51366666667 Z255 F150.00 
G01 X7.91633333333 Y3.47133333333 Z255 F150.00 
G01 X7.95866666667 Y3.47133333333 Z255 F150.00 
G01 X7.95866666667 Y3.47133333333 Z255 F150.00 
G00 X7.83166666667 Y3.47133333333 Z0

G01 X6.01133333333 Y3.429 Z255 F150.00 
G01 X5.969 Y3.429 Z255 F150.00 
G01 X5.92666666667 Y3.38666666667 Z255 F150.00 
G01 X4.699 Y2.20133333333 Z255 F150.00 
G01 X2.37066666667 Y2.24366666667 Z255 F150.00 
G01 X1.27 Y3.38666666667 Z255 F150.00 
G01 X1.31233333333 Y5.54566666667 Z255 F150.00 
G01 X1.35466666667 Y5.54566666667 Z255 F150.00 
G01 X7.95866666667 Y5.50333333333 Z255 F150.00 
G01 X8.42433333333 Y5.08 Z255 F150.00 
G01 X9.017 Y5.12233333333 Z255 F150.00 
G01 X9.398 Y5.54566666667 Z255 F150.00 
G01 X9.35566666667 Y6.13833333333 Z255 F150.00 
G01 X8.93233333333 Y6.51933333333 Z255 F150.00 
G01 X8.33966666667 Y6.477 Z255 F150.00 
G01 X7.95866666667 Y6.05366666667 Z255 F150.00 
G01 X7.91633333333 Y6.01133333333 Z255 F150.00 
G01 X7.95866666667 Y6.01133333333 Z255 F150.00 
G01 X7.95866666667 Y6.01133333333 Z255 F150.00 
G00 X7.83166666667 Y6.01133333333 Z0

G01 X1.27 Y6.05366666667 Z255 F150.00 
G01 X1.27 Y6.096 Z255 F150.00 
G01 X1.31233333333 Y8.08566666667 Z255 F150.00 
G01 X1.35466666667 Y8.08566666667 Z255 F150.00 
G01 X7.95866666667 Y8.04333333333 Z255 F150.00 
G01 X8.42433333333 Y7.62 Z255 F150.00 
G01 X9.017 Y7.66233333333 Z255 F150.00 
G01 X9.398 Y8.08566666667 Z255 F150.00 
G01 X9.35566666667 Y8.67833333333 Z255 F150.00 
G01 X8.93233333333 Y9.05933333333 Z255 F150.00 
G01 X8.33966666667 Y9.017 Z255 F150.00 
G01 X7.95866666667 Y8.59366666667 Z255 F150.00 
G01 X7.91633333333 Y8.55133333333 Z255 F150.00 
G01 X7.95866666667 Y8.55133333333 Z255 F150.00 
G01 X7.95866666667 Y8.55133333333 Z255 F150.00 
G00 X7.83166666667 Y8.55133333333 Z0

G01 X1.27 Y8.59366666667 Z255 F150.00 
G01 X1.27 Y8.636 Z255 F150.00 
G01 X1.31233333333 Y10.6256666667 Z255 F150.00 
G01 X1.35466666667 Y10.6256666667 Z255 F150.00 
G01 X7.95866666667 Y10.5833333333 Z255 F150.00 
G01 X8.42433333333 Y10.16 Z255 F150.00 
G01 X9.017 Y10.2023333333 Z255 F150.00 
G01 X9.398 Y10.6256666667 Z255 F150.00 
G01 X9.35566666667 Y11.2183333333 Z255 F150.00 
G01 X8.93233333333 Y11.5993333333 Z255 F150.00 
G01 X8.33966666667 Y11.557 Z255 F150.00 
G01 X7.95866666667 Y11.1336666667 Z255 F150.00 
G01 X7.91633333333 Y11.0913333333 Z255 F150.00 
G01 X7.95866666667 Y11.0913333333 Z255 F150.00 
G01 X7.95866666667 Y11.0913333333 Z255 F150.00 
G00 X7.83166666667 Y11.0913333333 Z0

G01 X1.27 Y11.1336666667 Z255 F150.00 
G01 X1.27 Y11.176 Z255 F150.00 
G01 X1.31233333333 Y13.1656666667 Z255 F150.00 
G01 X1.35466666667 Y13.1656666667 Z255 F150.00 
G01 X7.95866666667 Y13.1233333333 Z255 F150.00 
G01 X8.42433333333 Y12.7 Z255 F150.00 
G01 X9.017 Y12.7423333333 Z255 F150.00 
G01 X9.398 Y13.1656666667 Z255 F150.00 
G01 X9.35566666667 Y13.7583333333 Z255 F150.00 
G01 X8.93233333333 Y14.1393333333 Z255 F150.00 
G01 X8.33966666667 Y14.097 Z255 F150.00 
G01 X7.95866666667 Y13.6736666667 Z255 F150.00 
G01 X7.91633333333 Y13.6313333333 Z255 F150.00 
G01 X7.95866666667 Y13.6313333333 Z255 F150.00 
G01 X7.95866666667 Y13.6313333333 Z255 F150.00 
G00 X7.83166666667 Y13.6313333333 Z0

G01 X1.27 Y13.6736666667 Z255 F150.00 
G01 X1.27 Y13.716 Z255 F150.00 
G01 X1.31233333333 Y15.7056666667 Z255 F150.00 
G01 X1.35466666667 Y15.7056666667 Z255 F150.00 
G01 X7.95866666667 Y15.6633333333 Z255 F150.00 
G01 X8.42433333333 Y15.24 Z255 F150.00 
G01 X9.017 Y15.2823333333 Z255 F150.00 
G01 X9.398 Y15.7056666667 Z255 F150.00 
G01 X9.35566666667 Y16.2983333333 Z255 F150.00 
G01 X8.93233333333 Y16.6793333333 Z255 F150.00 
G01 X8.33966666667 Y16.637 Z255 F150.00 
G01 X7.95866666667 Y16.2136666667 Z255 F150.00 
G01 X7.91633333333 Y16.1713333333 Z255 F150.00 
G01 X7.95866666667 Y16.1713333333 Z255 F150.00 
G01 X7.95866666667 Y16.1713333333 Z255 F150.00 
G00 X7.83166666667 Y16.1713333333 Z0

G01 X1.27 Y16.2136666667 Z255 F150.00 
G01 X1.27 Y16.256 Z255 F150.00 
G01 X1.31233333333 Y18.2456666667 Z255 F150.00 
G01 X1.35466666667 Y18.2456666667 Z255 F150.00 
G01 X7.95866666667 Y18.2033333333 Z255 F150.00 
G01 X8.42433333333 Y17.78 Z255 F150.00 
G01 X9.017 Y17.8223333333 Z255 F150.00 
G01 X9.398 Y18.2456666667 Z255 F150.00 
G01 X9.35566666667 Y18.8383333333 Z255 F150.00 
G01 X8.93233333333 Y19.2193333333 Z255 F150.00 
G01 X8.33966666667 Y19.177 Z255 F150.00 
G01 X7.95866666667 Y18.7536666667 Z255 F150.00 
G01 X7.91633333333 Y18.7113333333 Z255 F150.00 
G01 X7.95866666667 Y18.7113333333 Z255 F150.00 
G01 X7.95866666667 Y18.7113333333 Z255 F150.00 
G00 X7.83166666667 Y18.7113333333 Z0

G01 X1.27 Y18.7536666667 Z255 F150.00 
G01 X1.27 Y18.796 Z255 F150.00 
G01 X1.31233333333 Y20.7856666667 Z255 F150.00 
G01 X1.35466666667 Y20.7856666667 Z255 F150.00 
G01 X7.95866666667 Y20.7433333333 Z255 F150.00 
G01 X8.42433333333 Y20.32 Z255 F150.00 
G01 X9.017 Y20.3623333333 Z255 F150.00 
G01 X9.398 Y20.7856666667 Z255 F150.00 
G01 X9.35566666667 Y21.3783333333 Z255 F150.00 
G01 X8.93233333333 Y21.7593333333 Z255 F150.00 
G01 X8.33966666667 Y21.717 Z255 F150.00 
G01 X7.95866666667 Y21.2936666667 Z255 F150.00 
G01 X7.91633333333 Y21.2513333333 Z255 F150.00 
G01 X7.95866666667 Y21.2513333333 Z255 F150.00 
G01 X7.95866666667 Y21.2513333333 Z255 F150.00 
G00 X7.83166666667 Y21.2513333333 Z0

G01 X1.27 Y21.2936666667 Z255 F150.00 
G01 X1.27 Y21.336 Z255 F150.00 
G01 X1.31233333333 Y25.8656666667 Z255 F150.00 
G01 X1.35466666667 Y25.8656666667 Z255 F150.00 
G01 X6.223 Y25.908 Z255 F150.00 
G01 X6.26533333333 Y25.908 Z255 F150.00 
G01 X6.30766666667 Y25.9503333333 Z255 F150.00 
G01 X7.53533333333 Y27.1356666667 Z255 F150.00 
G01 X7.95866666667 Y27.0933333333 Z255 F150.00 
G01 X8.42433333333 Y26.67 Z255 F150.00 
G01 X9.017 Y26.7123333333 Z255 F150.00 
G01 X9.398 Y27.1356666667 Z255 F150.00 
G01 X9.35566666667 Y27.7283333333 Z255 F150.00 
G01 X8.93233333333 Y28.1093333333 Z255 F150.00 
G01 X8.33966666667 Y28.067 Z255 F150.00 
G01 X7.95866666667 Y27.6436666667 Z255 F150.00 
G01 X7.91633333333 Y27.6013333333 Z255 F150.00 
G01 X7.95866666667 Y27.6013333333 Z255 F150.00 
G01 X7.95866666667 Y27.6013333333 Z255 F150.00 
G00 X7.83166666667 Y27.6013333333 Z0

G01 X7.28133333333 Y27.559 Z255 F150.00 
G01 X7.239 Y27.559 Z255 F150.00 
G01 X7.19666666667 Y27.5166666667 Z255 F150.00 
G01 X5.969 Y26.3313333333 Z255 F150.00 
G01 X1.27 Y26.3736666667 Z255 F150.00 
G01 X1.27 Y26.416 Z255 F150.00 
G01 X1.31233333333 Y28.4056666667 Z255 F150.00 
G01 X1.35466666667 Y28.4056666667 Z255 F150.00 
G01 X6.223 Y28.448 Z255 F150.00 
G01 X6.26533333333 Y28.448 Z255 F150.00 
G01 X6.30766666667 Y28.4903333333 Z255 F150.00 
G01 X7.53533333333 Y29.6756666667 Z255 F150.00 
G01 X7.95866666667 Y29.6333333333 Z255 F150.00 
G01 X8.42433333333 Y29.21 Z255 F150.00 
G01 X9.017 Y29.2523333333 Z255 F150.00 
G01 X9.398 Y29.6756666667 Z255 F150.00 
G01 X9.35566666667 Y30.2683333333 Z255 F150.00 
G01 X8.93233333333 Y30.6493333333 Z255 F150.00 
G01 X8.33966666667 Y30.607 Z255 F150.00 
G01 X7.95866666667 Y30.1836666667 Z255 F150.00 
G01 X7.91633333333 Y30.1413333333 Z255 F150.00 
G01 X7.95866666667 Y30.1413333333 Z255 F150.00 
G01 X7.95866666667 Y30.1413333333 Z255 F150.00 
G00 X7.83166666667 Y30.1413333333 Z0

G01 X7.28133333333 Y30.099 Z255 F150.00 
G01 X7.239 Y30.099 Z255 F150.00 
G01 X7.19666666667 Y30.0566666667 Z255 F150.00 
G01 X5.969 Y28.8713333333 Z255 F150.00 
G01 X1.27 Y28.9136666667 Z255 F150.00 
G01 X1.27 Y28.956 Z255 F150.00 
G01 X1.31233333333 Y30.9456666667 Z255 F150.00 
G01 X1.35466666667 Y30.9456666667 Z255 F150.00 
G01 X6.223 Y30.988 Z255 F150.00 
G01 X6.26533333333 Y30.988 Z255 F150.00 
G01 X6.30766666667 Y31.0303333333 Z255 F150.00 
G01 X7.53533333333 Y32.2156666667 Z255 F150.00 
G01 X7.95866666667 Y32.1733333333 Z255 F150.00 
G01 X8.42433333333 Y31.75 Z255 F150.00 
G01 X9.017 Y31.7923333333 Z255 F150.00 
G01 X9.398 Y32.2156666667 Z255 F150.00 
G01 X9.35566666667 Y32.8083333333 Z255 F150.00 
G01 X8.93233333333 Y33.1893333333 Z255 F150.00 
G01 X8.33966666667 Y33.147 Z255 F150.00 
G01 X7.95866666667 Y32.7236666667 Z255 F150.00 
G01 X7.91633333333 Y32.6813333333 Z255 F150.00 
G01 X7.95866666667 Y32.6813333333 Z255 F150.00 
G01 X7.95866666667 Y32.6813333333 Z255 F150.00 
G00 X7.83166666667 Y32.6813333333 Z0

G01 X7.28133333333 Y32.639 Z255 F150.00 
G01 X7.239 Y32.639 Z255 F150.00 
G01 X7.19666666667 Y32.5966666667 Z255 F150.00 
G01 X5.969 Y31.4113333333 Z255 F150.00 
G01 X1.27 Y31.4536666667 Z255 F150.00 
G01 X1.27 Y31.496 Z255 F150.00 
G01 X1.31233333333 Y33.4856666667 Z255 F150.00 
G01 X1.35466666667 Y33.4856666667 Z255 F150.00 
G01 X6.223 Y33.528 Z255 F150.00 
G01 X6.26533333333 Y33.528 Z255 F150.00 
G01 X6.30766666667 Y33.5703333333 Z255 F150.00 
G01 X7.53533333333 Y34.7556666667 Z255 F150.00 
G01 X7.95866666667 Y34.7133333333 Z255 F150.00 
G01 X8.42433333333 Y34.29 Z255 F150.00 
G01 X9.017 Y34.3323333333 Z255 F150.00 
G01 X9.398 Y34.7556666667 Z255 F150.00 
G01 X9.35566666667 Y35.3483333333 Z255 F150.00 
G01 X8.93233333333 Y35.7293333333 Z255 F150.00 
G01 X8.33966666667 Y35.687 Z255 F150.00 
G01 X7.95866666667 Y35.2636666667 Z255 F150.00 
G01 X7.91633333333 Y35.2213333333 Z255 F150.00 
G01 X7.95866666667 Y35.2213333333 Z255 F150.00 
G01 X7.95866666667 Y35.2213333333 Z255 F150.00 
G00 X7.83166666667 Y35.2213333333 Z0

G01 X7.28133333333 Y35.179 Z255 F150.00 
G01 X7.239 Y35.179 Z255 F150.00 
G01 X7.19666666667 Y35.1366666667 Z255 F150.00 
G01 X5.969 Y33.9513333333 Z255 F150.00 
G01 X1.27 Y33.9936666667 Z255 F150.00 
G01 X1.27 Y34.036 Z255 F150.00 
G01 X1.31233333333 Y36.0256666667 Z255 F150.00 
G01 X1.35466666667 Y36.0256666667 Z255 F150.00 
G01 X6.223 Y36.068 Z255 F150.00 
G01 X6.26533333333 Y36.068 Z255 F150.00 
G01 X6.30766666667 Y36.1103333333 Z255 F150.00 
G01 X7.53533333333 Y37.2956666667 Z255 F150.00 
G01 X7.95866666667 Y37.2533333333 Z255 F150.00 
G01 X8.42433333333 Y36.83 Z255 F150.00 
G01 X9.017 Y36.8723333333 Z255 F150.00 
G01 X9.398 Y37.2956666667 Z255 F150.00 
G01 X9.35566666667 Y37.8883333333 Z255 F150.00 
G01 X8.93233333333 Y38.2693333333 Z255 F150.00 
G01 X8.33966666667 Y38.227 Z255 F150.00 
G01 X7.95866666667 Y37.8036666667 Z255 F150.00 
G01 X7.91633333333 Y37.7613333333 Z255 F150.00 
G01 X7.95866666667 Y37.7613333333 Z255 F150.00 
G01 X7.95866666667 Y37.7613333333 Z255 F150.00 
G00 X7.83166666667 Y37.7613333333 Z0

G01 X7.28133333333 Y37.719 Z255 F150.00 
G01 X7.239 Y37.719 Z255 F150.00 
G01 X7.19666666667 Y37.6766666667 Z255 F150.00 
G01 X5.969 Y36.4913333333 Z255 F150.00 
G01 X1.27 Y36.5336666667 Z255 F150.00 
G01 X1.27 Y36.576 Z255 F150.00 
G01 X1.31233333333 Y38.5656666667 Z255 F150.00 
G01 X1.35466666667 Y38.5656666667 Z255 F150.00 
G01 X6.223 Y38.608 Z255 F150.00 
G01 X6.26533333333 Y38.608 Z255 F150.00 
G01 X6.30766666667 Y38.6503333333 Z255 F150.00 
G01 X7.53533333333 Y39.8356666667 Z255 F150.00 
G01 X7.95866666667 Y39.7933333333 Z255 F150.00 
G01 X8.42433333333 Y39.37 Z255 F150.00 
G01 X9.017 Y39.4123333333 Z255 F150.00 
G01 X9.398 Y39.8356666667 Z255 F150.00 
G01 X9.35566666667 Y40.4283333333 Z255 F150.00 
G01 X8.93233333333 Y40.8093333333 Z255 F150.00 
G01 X8.33966666667 Y40.767 Z255 F150.00 
G01 X7.95866666667 Y40.3436666667 Z255 F150.00 
G01 X7.91633333333 Y40.3013333333 Z255 F150.00 
G01 X7.95866666667 Y40.3013333333 Z255 F150.00 
G01 X7.95866666667 Y40.3013333333 Z255 F150.00 
G00 X7.83166666667 Y40.3013333333 Z0

G01 X7.28133333333 Y40.259 Z255 F150.00 
G01 X7.239 Y40.259 Z255 F150.00 
G01 X7.19666666667 Y40.2166666667 Z255 F150.00 
G01 X5.969 Y39.0313333333 Z255 F150.00 
G01 X1.27 Y39.0736666667 Z255 F150.00 
G01 X1.27 Y39.116 Z255 F150.00 
G01 X1.31233333333 Y41.1056666667 Z255 F150.00 
G01 X1.35466666667 Y41.1056666667 Z255 F150.00 
G01 X6.223 Y41.148 Z255 F150.00 
G01 X6.26533333333 Y41.148 Z255 F150.00 
G01 X6.30766666667 Y41.1903333333 Z255 F150.00 
G01 X7.53533333333 Y42.3756666667 Z255 F150.00 
G01 X7.95866666667 Y42.3333333333 Z255 F150.00 
G01 X8.42433333333 Y41.91 Z255 F150.00 
G01 X9.017 Y41.9523333333 Z255 F150.00 
G01 X9.398 Y42.3756666667 Z255 F150.00 
G01 X9.35566666667 Y42.9683333333 Z255 F150.00 
G01 X8.93233333333 Y43.3493333333 Z255 F150.00 
G01 X8.33966666667 Y43.307 Z255 F150.00 
G01 X7.95866666667 Y42.8836666667 Z255 F150.00 
G01 X7.91633333333 Y42.8413333333 Z255 F150.00 
G01 X7.95866666667 Y42.8413333333 Z255 F150.00 
G01 X7.95866666667 Y42.8413333333 Z255 F150.00 
G00 X7.83166666667 Y42.8413333333 Z0

G01 X7.28133333333 Y42.799 Z255 F150.00 
G01 X7.239 Y42.799 Z255 F150.00 
G01 X7.19666666667 Y42.7566666667 Z255 F150.00 
G01 X5.969 Y41.5713333333 Z255 F150.00 
G01 X1.27 Y41.6136666667 Z255 F150.00 
G01 X1.27 Y41.656 Z255 F150.00 
G01 X1.31233333333 Y43.815 Z255 F150.00 
G01 X2.45533333333 Y44.9156666667 Z255 F150.00 
G01 X7.95866666667 Y44.8733333333 Z255 F150.00 
G01 X8.42433333333 Y44.45 Z255 F150.00 
G01 X9.017 Y44.4923333333 Z255 F150.00 
G01 X9.398 Y44.9156666667 Z255 F150.00 
G01 X9.35566666667 Y45.5083333333 Z255 F150.00 
G01 X8.93233333333 Y45.8893333333 Z255 F150.00 
G01 X8.33966666667 Y45.847 Z255 F150.00 
G01 X7.95866666667 Y45.4236666667 Z255 F150.00 
G01 X7.91633333333 Y45.3813333333 Z255 F150.00 
G01 X7.95866666667 Y45.3813333333 Z255 F150.00 
G01 X7.95866666667 Y45.3813333333 Z255 F150.00 
G00 X7.83166666667 Y45.3813333333 Z0

G01 X3.81 Y45.4236666667 Z255 F150.00 
G01 X3.81 Y45.466 Z255 F150.00 
G01 X3.85233333333 Y46.9053333333 Z255 F150.00 
G01 X3.89466666667 Y46.9053333333 Z255 F150.00 
G01 X4.52966666667 Y46.9476666667 Z255 F150.00 
G01 X4.572 Y46.9476666667 Z255 F150.00 
G01 X4.65666666667 Y46.99 Z255 F150.00 
G01 X4.699 Y46.99 Z255 F150.00 
G01 X4.74133333333 Y47.0323333333 Z255 F150.00 
G01 X4.78366666667 Y47.0323333333 Z255 F150.00 
G01 X4.826 Y47.0746666667 Z255 F150.00 
G01 X4.99533333333 Y47.2863333333 Z255 F150.00 
G01 X5.03766666667 Y47.3286666667 Z255 F150.00 
G01 X5.03766666667 Y47.371 Z255 F150.00 
G01 X5.08 Y47.4133333333 Z255 F150.00 
G01 X5.08 Y47.4556666667 Z255 F150.00 
G01 X5.12233333333 Y47.5403333333 Z255 F150.00 
G01 X5.12233333333 Y47.5826666667 Z255 F150.00 
G01 X5.08 Y47.879 Z255 F150.00 
G01 X5.08 Y47.9213333333 Z255 F150.00 
G01 X5.03766666667 Y48.006 Z255 F150.00 
G01 X5.03766666667 Y48.0483333333 Z255 F150.00 
G01 X4.99533333333 Y48.0906666667 Z255 F150.00 
G01 X4.99533333333 Y48.133 Z255 F150.00 
G01 X4.953 Y48.1753333333 Z255 F150.00 
G01 X4.74133333333 Y48.3446666667 Z255 F150.00 
G01 X4.699 Y48.387 Z255 F150.00 
G01 X4.65666666667 Y48.387 Z255 F150.00 
G01 X4.61433333333 Y48.4293333333 Z255 F150.00 
G01 X4.572 Y48.4293333333 Z255 F150.00 
G01 X4.48733333333 Y48.4716666667 Z255 F150.00 
G01 X4.445 Y48.4716666667 Z255 F150.00 
G01 X2.62466666667 Y48.4293333333 Z255 F150.00 
G01 X2.58233333333 Y48.4293333333 Z255 F150.00 
G01 X2.49766666667 Y48.387 Z255 F150.00 
G01 X2.45533333333 Y48.387 Z255 F150.00 
G01 X2.413 Y48.3446666667 Z255 F150.00 
G01 X2.37066666667 Y48.3446666667 Z255 F150.00 
G01 X2.32833333333 Y48.3023333333 Z255 F150.00 
G01 X2.159 Y48.0906666667 Z255 F150.00 
G01 X2.11666666667 Y48.0483333333 Z255 F150.00 
G01 X2.11666666667 Y48.006 Z255 F150.00 
G01 X2.07433333333 Y47.9636666667 Z255 F150.00 
G01 X2.07433333333 Y47.9213333333 Z255 F150.00 
G01 X2.032 Y47.8366666667 Z255 F150.00 
G01 X2.032 Y47.7943333333 Z255 F150.00 
G01 X2.07433333333 Y47.498 Z255 F150.00 
G01 X2.07433333333 Y47.4556666667 Z255 F150.00 
G01 X2.11666666667 Y47.371 Z255 F150.00 
G01 X2.11666666667 Y47.3286666667 Z255 F150.00 
G01 X2.159 Y47.2863333333 Z255 F150.00 
G01 X2.159 Y47.244 Z255 F150.00 
G01 X2.20133333333 Y47.2016666667 Z255 F150.00 
G01 X2.413 Y47.0323333333 Z255 F150.00 
G01 X2.45533333333 Y46.99 Z255 F150.00 
G01 X2.49766666667 Y46.99 Z255 F150.00 
G01 X2.54 Y46.9476666667 Z255 F150.00 
G01 X2.58233333333 Y46.9476666667 Z255 F150.00 
G01 X2.667 Y46.9053333333 Z255 F150.00 
G01 X2.70933333333 Y46.9053333333 Z255 F150.00 
G01 X3.34433333333 Y46.863 Z255 F150.00 
G01 X3.34433333333 Y46.9053333333 Z255 F150.00 
G01 X3.34433333333 Y46.9053333333 Z255 F150.00 
G00 X3.34433333333 Y46.7783333333 Z0

G01 X3.302 Y45.3813333333 Z255 F150.00 
G01 X3.34433333333 Y45.3813333333 Z255 F150.00 
G01 X3.34433333333 Y45.3813333333 Z255 F150.00 
G00 X3.21733333333 Y45.3813333333 Z0

G01 X2.20133333333 Y45.339 Z255 F150.00 
G01 X2.159 Y45.339 Z255 F150.00 
G01 X2.11666666667 Y45.2966666667 Z255 F150.00 
G01 X0.846666666667 Y43.9843333333 Z255 F150.00 
G01 X0.804333333333 Y43.942 Z255 F150.00 
G01 X0.804333333333 Y43.8996666667 Z255 F150.00 
G01 X0.846666666667 Y3.13266666667 Z255 F150.00 
G01 X0.846666666667 Y3.09033333333 Z255 F150.00 
G01 X0.889 Y3.048 Z255 F150.00 
G01 X1.94733333333 Y1.98966666667 Z255 F150.00 
G00 X2.49766666667 Y3.81 Z0

G01 X2.45533333333 Y3.81 Z255 F150.00 
G01 X2.413 Y3.85233333333 Z255 F150.00 
G01 X2.37066666667 Y3.85233333333 Z255 F150.00 
G01 X2.32833333333 Y3.89466666667 Z255 F150.00 
G01 X2.159 Y4.10633333333 Z255 F150.00 
G01 X2.11666666667 Y4.14866666667 Z255 F150.00 
G01 X2.11666666667 Y4.191 Z255 F150.00 
G01 X2.07433333333 Y4.23333333333 Z255 F150.00 
G01 X2.07433333333 Y4.27566666667 Z255 F150.00 
G01 X2.032 Y4.36033333333 Z255 F150.00 
G01 X2.032 Y4.40266666667 Z255 F150.00 
G01 X2.07433333333 Y4.699 Z255 F150.00 
G01 X2.07433333333 Y4.74133333333 Z255 F150.00 
G01 X2.11666666667 Y4.826 Z255 F150.00 
G01 X2.11666666667 Y4.86833333333 Z255 F150.00 
G01 X2.159 Y4.91066666667 Z255 F150.00 
G01 X2.159 Y4.953 Z255 F150.00 
G01 X2.20133333333 Y4.99533333333 Z255 F150.00 
G01 X2.413 Y5.16466666667 Z255 F150.00 
G01 X2.45533333333 Y5.207 Z255 F150.00 
G01 X2.49766666667 Y5.207 Z255 F150.00 
G01 X2.54 Y5.24933333333 Z255 F150.00 
G01 X2.58233333333 Y5.24933333333 Z255 F150.00 
G01 X2.667 Y5.29166666667 Z255 F150.00 
G01 X2.70933333333 Y5.29166666667 Z255 F150.00 
G01 X4.52966666667 Y5.24933333333 Z255 F150.00 
G01 X4.572 Y5.24933333333 Z255 F150.00 
G01 X4.65666666667 Y5.207 Z255 F150.00 
G01 X4.699 Y5.207 Z255 F150.00 
G01 X4.74133333333 Y5.16466666667 Z255 F150.00 
G01 X4.78366666667 Y5.16466666667 Z255 F150.00 
G01 X4.826 Y5.12233333333 Z255 F150.00 
G01 X4.99533333333 Y4.91066666667 Z255 F150.00 
G01 X5.03766666667 Y4.86833333333 Z255 F150.00 
G01 X5.03766666667 Y4.826 Z255 F150.00 
G01 X5.08 Y4.78366666667 Z255 F150.00 
G01 X5.16466666667 Y4.74133333333 Z255 F150.00 
G01 X10.033 Y4.699 Z255 F150.00 
G01 X10.0753333333 Y4.699 Z255 F150.00 
G01 X10.1176666667 Y4.65666666667 Z255 F150.00 
G01 X10.8796666667 Y3.937 Z255 F150.00 
G01 X10.922 Y3.97933333333 Z255 F150.00 
G01 X10.9643333333 Y3.97933333333 Z255 F150.00 
G01 X11.557 Y3.937 Z255 F150.00 
G01 X11.938 Y3.51366666667 Z255 F150.00 
G01 X11.9803333333 Y3.47133333333 Z255 F150.00 
G01 X12.0226666667 Y3.47133333333 Z255 F150.00 
G01 X13.6736666667 Y3.51366666667 Z255 F150.00 
G01 X13.716 Y3.59833333333 Z255 F150.00 
G01 X13.7583333333 Y3.64066666667 Z255 F150.00 
G01 X14.0123333333 Y3.85233333333 Z255 F150.00 
G01 X14.0546666667 Y3.89466666667 Z255 F150.00 
G01 X14.097 Y3.89466666667 Z255 F150.00 
G01 X14.1816666667 Y3.937 Z255 F150.00 
G01 X14.224 Y3.937 Z255 F150.00 
G01 X15.8326666667 Y3.89466666667 Z255 F150.00 
G01 X15.875 Y3.89466666667 Z255 F150.00 
G01 X15.9596666667 Y3.85233333333 Z255 F150.00 
G01 X16.002 Y3.85233333333 Z255 F150.00 
G01 X16.0443333333 Y3.81 Z255 F150.00 
G01 X16.256 Y3.556 Z255 F150.00 
G01 X16.2983333333 Y3.51366666667 Z255 F150.00 
G01 X16.2983333333 Y3.47133333333 Z255 F150.00 
G01 X16.3406666667 Y3.38666666667 Z255 F150.00 
G01 X16.3406666667 Y3.34433333333 Z255 F150.00 
G01 X16.2983333333 Y3.048 Z255 F150.00 
G01 X16.2983333333 Y3.00566666667 Z255 F150.00 
G01 X16.256 Y2.921 Z255 F150.00 
G01 X16.256 Y2.87866666667 Z255 F150.00 
G01 X16.2136666667 Y2.83633333333 Z255 F150.00 
G01 X15.9596666667 Y2.62466666667 Z255 F150.00 
G01 X15.9173333333 Y2.58233333333 Z255 F150.00 
G01 X15.875 Y2.58233333333 Z255 F150.00 
G01 X15.7903333333 Y2.54 Z255 F150.00 
G01 X15.748 Y2.54 Z255 F150.00 
G01 X14.1393333333 Y2.58233333333 Z255 F150.00 
G01 X14.097 Y2.58233333333 Z255 F150.00 
G01 X14.0123333333 Y2.62466666667 Z255 F150.00 
G01 X13.97 Y2.62466666667 Z255 F150.00 
G01 X13.9276666667 Y2.667 Z255 F150.00 
G01 X13.716 Y2.921 Z255 F150.00 
G01 X13.6736666667 Y2.96333333333 Z255 F150.00 
G01 X13.6736666667 Y3.00566666667 Z255 F150.00 
G01 X13.6736666667 Y3.00566666667 Z255 F150.00 
G00 X13.5466666667 Y3.00566666667 Z0

G01 X11.938 Y2.96333333333 Z255 F150.00 
G01 X11.4723333333 Y2.54 Z255 F150.00 
G01 X10.8796666667 Y2.58233333333 Z255 F150.00 
G01 X10.4986666667 Y3.00566666667 Z255 F150.00 
G01 X10.4563333333 Y3.64066666667 Z255 F150.00 
G01 X9.779 Y4.27566666667 Z255 F150.00 
G01 X5.08 Y4.23333333333 Z255 F150.00 
G01 X5.03766666667 Y4.14866666667 Z255 F150.00 
G01 X4.99533333333 Y4.10633333333 Z255 F150.00 
G01 X4.99533333333 Y4.064 Z255 F150.00 
G01 X4.953 Y4.02166666667 Z255 F150.00 
G01 X4.74133333333 Y3.85233333333 Z255 F150.00 
G01 X4.699 Y3.81 Z255 F150.00 
G01 X4.65666666667 Y3.81 Z255 F150.00 
G01 X4.61433333333 Y3.76766666667 Z255 F150.00 
G01 X4.572 Y3.76766666667 Z255 F150.00 
G01 X4.48733333333 Y3.72533333333 Z255 F150.00 
G01 X4.445 Y3.72533333333 Z255 F150.00 
G01 X2.62466666667 Y3.76766666667 Z255 F150.00 
G01 X2.58233333333 Y3.76766666667 Z255 F150.00 
G01 X2.58233333333 Y3.76766666667 Z255 F150.00 
G00 X3.21733333333 Y4.27566666667 Z0

G01 X3.429 Y4.10633333333 Z255 F150.00 
G01 X3.47133333333 Y4.064 Z255 F150.00 
G01 X3.51366666667 Y4.064 Z255 F150.00 
G01 X3.76766666667 Y4.10633333333 Z255 F150.00 
G01 X3.81 Y4.10633333333 Z255 F150.00 
G01 X3.85233333333 Y4.14866666667 Z255 F150.00 
G01 X4.02166666667 Y4.36033333333 Z255 F150.00 
G01 X4.064 Y4.40266666667 Z255 F150.00 
G01 X4.064 Y4.445 Z255 F150.00 
G01 X4.02166666667 Y4.699 Z255 F150.00 
G01 X4.02166666667 Y4.74133333333 Z255 F150.00 
G01 X3.97933333333 Y4.78366666667 Z255 F150.00 
G01 X3.76766666667 Y4.953 Z255 F150.00 
G01 X3.72533333333 Y4.99533333333 Z255 F150.00 
G01 X3.683 Y4.99533333333 Z255 F150.00 
G01 X3.429 Y4.953 Z255 F150.00 
G01 X3.38666666667 Y4.953 Z255 F150.00 
G01 X3.34433333333 Y4.91066666667 Z255 F150.00 
G01 X3.175 Y4.699 Z255 F150.00 
G01 X3.13266666667 Y4.65666666667 Z255 F150.00 
G01 X3.13266666667 Y4.61433333333 Z255 F150.00 
G01 X3.175 Y4.36033333333 Z255 F150.00 
G01 X3.175 Y4.36033333333 Z255 F150.00 
G00 X3.21733333333 Y6.26533333333 Z0

G01 X4.52966666667 Y6.30766666667 Z255 F150.00 
G01 X4.572 Y6.30766666667 Z255 F150.00 
G01 X4.65666666667 Y6.35 Z255 F150.00 
G01 X4.699 Y6.35 Z255 F150.00 
G01 X4.74133333333 Y6.39233333333 Z255 F150.00 
G01 X4.78366666667 Y6.39233333333 Z255 F150.00 
G01 X4.826 Y6.43466666667 Z255 F150.00 
G01 X4.99533333333 Y6.64633333333 Z255 F150.00 
G01 X5.03766666667 Y6.68866666667 Z255 F150.00 
G01 X5.03766666667 Y6.731 Z255 F150.00 
G01 X5.08 Y6.77333333333 Z255 F150.00 
G01 X5.16466666667 Y6.81566666667 Z255 F150.00 
G01 X9.86366666667 Y6.77333333333 Z255 F150.00 
G01 X10.4986666667 Y6.096 Z255 F150.00 
G01 X10.541 Y5.461 Z255 F150.00 
G01 X10.9643333333 Y5.08 Z255 F150.00 
G01 X11.557 Y5.12233333333 Z255 F150.00 
G01 X12.0226666667 Y5.54566666667 Z255 F150.00 
G01 X13.6736666667 Y5.50333333333 Z255 F150.00 
G01 X13.716 Y5.41866666667 Z255 F150.00 
G01 X13.7583333333 Y5.37633333333 Z255 F150.00 
G01 X14.0123333333 Y5.16466666667 Z255 F150.00 
G01 X14.0546666667 Y5.12233333333 Z255 F150.00 
G01 X14.097 Y5.12233333333 Z255 F150.00 
G01 X14.1816666667 Y5.08 Z255 F150.00 
G01 X14.224 Y5.08 Z255 F150.00 
G01 X15.8326666667 Y5.12233333333 Z255 F150.00 
G01 X15.875 Y5.12233333333 Z255 F150.00 
G01 X15.9596666667 Y5.16466666667 Z255 F150.00 
G01 X16.002 Y5.16466666667 Z255 F150.00 
G01 X16.0443333333 Y5.207 Z255 F150.00 
G01 X16.256 Y5.461 Z255 F150.00 
G01 X16.2983333333 Y5.50333333333 Z255 F150.00 
G01 X16.2983333333 Y5.54566666667 Z255 F150.00 
G01 X16.3406666667 Y5.63033333333 Z255 F150.00 
G01 X16.3406666667 Y5.67266666667 Z255 F150.00 
G01 X16.2983333333 Y5.969 Z255 F150.00 
G01 X16.2983333333 Y6.01133333333 Z255 F150.00 
G01 X16.256 Y6.096 Z255 F150.00 
G01 X16.256 Y6.13833333333 Z255 F150.00 
G01 X16.2136666667 Y6.18066666667 Z255 F150.00 
G01 X15.9596666667 Y6.39233333333 Z255 F150.00 
G01 X15.9173333333 Y6.43466666667 Z255 F150.00 
G01 X15.875 Y6.43466666667 Z255 F150.00 
G01 X15.7903333333 Y6.477 Z255 F150.00 
G01 X15.748 Y6.477 Z255 F150.00 
G01 X14.1393333333 Y6.43466666667 Z255 F150.00 
G01 X14.097 Y6.43466666667 Z255 F150.00 
G01 X14.0123333333 Y6.39233333333 Z255 F150.00 
G01 X13.97 Y6.39233333333 Z255 F150.00 
G01 X13.9276666667 Y6.35 Z255 F150.00 
G01 X13.716 Y6.096 Z255 F150.00 
G01 X13.6736666667 Y6.05366666667 Z255 F150.00 
G01 X13.6736666667 Y6.01133333333 Z255 F150.00 
G01 X13.6736666667 Y6.01133333333 Z255 F150.00 
G00 X13.5466666667 Y6.01133333333 Z0

G01 X11.938 Y6.05366666667 Z255 F150.00 
G01 X11.938 Y6.096 Z255 F150.00 
G01 X11.8956666667 Y6.13833333333 Z255 F150.00 
G01 X11.4723333333 Y6.51933333333 Z255 F150.00 
G01 X10.8796666667 Y6.477 Z255 F150.00 
G01 X10.8373333333 Y6.477 Z255 F150.00 
G01 X10.795 Y6.51933333333 Z255 F150.00 
G01 X10.033 Y7.239 Z255 F150.00 
G01 X9.99066666667 Y7.28133333333 Z255 F150.00 
G01 X9.94833333333 Y7.28133333333 Z255 F150.00 
G01 X5.08 Y7.32366666667 Z255 F150.00 
G01 X5.03766666667 Y7.40833333333 Z255 F150.00 
G01 X4.99533333333 Y7.45066666667 Z255 F150.00 
G01 X4.99533333333 Y7.493 Z255 F150.00 
G01 X4.953 Y7.53533333333 Z255 F150.00 
G01 X4.74133333333 Y7.70466666667 Z255 F150.00 
G01 X4.699 Y7.747 Z255 F150.00 
G01 X4.65666666667 Y7.747 Z255 F150.00 
G01 X4.61433333333 Y7.78933333333 Z255 F150.00 
G01 X4.572 Y7.78933333333 Z255 F150.00 
G01 X4.48733333333 Y7.83166666667 Z255 F150.00 
G01 X4.445 Y7.83166666667 Z255 F150.00 
G01 X2.62466666667 Y7.78933333333 Z255 F150.00 
G01 X2.58233333333 Y7.78933333333 Z255 F150.00 
G01 X2.49766666667 Y7.747 Z255 F150.00 
G01 X2.45533333333 Y7.747 Z255 F150.00 
G01 X2.413 Y7.70466666667 Z255 F150.00 
G01 X2.37066666667 Y7.70466666667 Z255 F150.00 
G01 X2.32833333333 Y7.66233333333 Z255 F150.00 
G01 X2.159 Y7.45066666667 Z255 F150.00 
G01 X2.11666666667 Y7.40833333333 Z255 F150.00 
G01 X2.11666666667 Y7.366 Z255 F150.00 
G01 X2.07433333333 Y7.32366666667 Z255 F150.00 
G01 X2.07433333333 Y7.28133333333 Z255 F150.00 
G01 X2.032 Y7.19666666667 Z255 F150.00 
G01 X2.032 Y7.15433333333 Z255 F150.00 
G01 X2.07433333333 Y6.858 Z255 F150.00 
G01 X2.07433333333 Y6.81566666667 Z255 F150.00 
G01 X2.11666666667 Y6.731 Z255 F150.00 
G01 X2.11666666667 Y6.68866666667 Z255 F150.00 
G01 X2.159 Y6.64633333333 Z255 F150.00 
G01 X2.159 Y6.604 Z255 F150.00 
G01 X2.20133333333 Y6.56166666667 Z255 F150.00 
G01 X2.413 Y6.39233333333 Z255 F150.00 
G01 X2.45533333333 Y6.35 Z255 F150.00 
G01 X2.49766666667 Y6.35 Z255 F150.00 
G01 X2.54 Y6.30766666667 Z255 F150.00 
G01 X2.58233333333 Y6.30766666667 Z255 F150.00 
G01 X2.667 Y6.26533333333 Z255 F150.00 
G01 X2.70933333333 Y6.26533333333 Z255 F150.00 
G01 X3.13266666667 Y6.26533333333 Z255 F150.00 
G00 X3.34433333333 Y6.68866666667 Z0

G01 X3.175 Y6.90033333333 Z255 F150.00 
G01 X3.13266666667 Y6.94266666667 Z255 F150.00 
G01 X3.13266666667 Y6.985 Z255 F150.00 
G01 X3.175 Y7.239 Z255 F150.00 
G01 X3.175 Y7.28133333333 Z255 F150.00 
G01 X3.21733333333 Y7.32366666667 Z255 F150.00 
G01 X3.429 Y7.493 Z255 F150.00 
G01 X3.47133333333 Y7.53533333333 Z255 F150.00 
G01 X3.51366666667 Y7.53533333333 Z255 F150.00 
G01 X3.76766666667 Y7.493 Z255 F150.00 
G01 X3.81 Y7.493 Z255 F150.00 
G01 X3.85233333333 Y7.45066666667 Z255 F150.00 
G01 X4.02166666667 Y7.239 Z255 F150.00 
G01 X4.064 Y7.19666666667 Z255 F150.00 
G01 X4.064 Y7.15433333333 Z255 F150.00 
G01 X4.02166666667 Y6.90033333333 Z255 F150.00 
G01 X4.02166666667 Y6.858 Z255 F150.00 
G01 X3.97933333333 Y6.81566666667 Z255 F150.00 
G01 X3.76766666667 Y6.64633333333 Z255 F150.00 
G01 X3.72533333333 Y6.604 Z255 F150.00 
G01 X3.683 Y6.604 Z255 F150.00 
G01 X3.429 Y6.64633333333 Z255 F150.00 
G01 X3.429 Y6.64633333333 Z255 F150.00 
G00 X4.65666666667 Y8.89 Z0

G01 X4.699 Y8.89 Z255 F150.00 
G01 X4.74133333333 Y8.93233333333 Z255 F150.00 
G01 X4.78366666667 Y8.93233333333 Z255 F150.00 
G01 X4.826 Y8.97466666667 Z255 F150.00 
G01 X4.99533333333 Y9.18633333333 Z255 F150.00 
G01 X5.03766666667 Y9.22866666667 Z255 F150.00 
G01 X5.03766666667 Y9.271 Z255 F150.00 
G01 X5.08 Y9.31333333333 Z255 F150.00 
G01 X5.16466666667 Y9.35566666667 Z255 F150.00 
G01 X9.86366666667 Y9.31333333333 Z255 F150.00 
G01 X10.4986666667 Y8.636 Z255 F150.00 
G01 X10.541 Y8.001 Z255 F150.00 
G01 X10.9643333333 Y7.62 Z255 F150.00 
G01 X11.557 Y7.66233333333 Z255 F150.00 
G01 X12.0226666667 Y8.08566666667 Z255 F150.00 
G01 X13.6736666667 Y8.04333333333 Z255 F150.00 
G01 X13.716 Y7.95866666667 Z255 F150.00 
G01 X13.7583333333 Y7.91633333333 Z255 F150.00 
G01 X14.0123333333 Y7.70466666667 Z255 F150.00 
G01 X14.0546666667 Y7.66233333333 Z255 F150.00 
G01 X14.097 Y7.66233333333 Z255 F150.00 
G01 X14.1816666667 Y7.62 Z255 F150.00 
G01 X14.224 Y7.62 Z255 F150.00 
G01 X15.8326666667 Y7.66233333333 Z255 F150.00 
G01 X15.875 Y7.66233333333 Z255 F150.00 
G01 X15.9596666667 Y7.70466666667 Z255 F150.00 
G01 X16.002 Y7.70466666667 Z255 F150.00 
G01 X16.0443333333 Y7.747 Z255 F150.00 
G01 X16.256 Y8.001 Z255 F150.00 
G01 X16.2983333333 Y8.04333333333 Z255 F150.00 
G01 X16.2983333333 Y8.08566666667 Z255 F150.00 
G01 X16.3406666667 Y8.17033333333 Z255 F150.00 
G01 X16.3406666667 Y8.21266666667 Z255 F150.00 
G01 X16.2983333333 Y8.509 Z255 F150.00 
G01 X16.2983333333 Y8.55133333333 Z255 F150.00 
G01 X16.256 Y8.636 Z255 F150.00 
G01 X16.256 Y8.67833333333 Z255 F150.00 
G01 X16.2136666667 Y8.72066666667 Z255 F150.00 
G01 X15.9596666667 Y8.93233333333 Z255 F150.00 
G01 X15.9173333333 Y8.97466666667 Z255 F150.00 
G01 X15.875 Y8.97466666667 Z255 F150.00 
G01 X15.7903333333 Y9.017 Z255 F150.00 
G01 X15.748 Y9.017 Z255 F150.00 
G01 X14.1393333333 Y8.97466666667 Z255 F150.00 
G01 X14.097 Y8.97466666667 Z255 F150.00 
G01 X14.0123333333 Y8.93233333333 Z255 F150.00 
G01 X13.97 Y8.93233333333 Z255 F150.00 
G01 X13.9276666667 Y8.89 Z255 F150.00 
G01 X13.716 Y8.636 Z255 F150.00 
G01 X13.6736666667 Y8.59366666667 Z255 F150.00 
G01 X13.6736666667 Y8.55133333333 Z255 F150.00 
G01 X13.6736666667 Y8.55133333333 Z255 F150.00 
G00 X13.5466666667 Y8.55133333333 Z0

G01 X11.938 Y8.59366666667 Z255 F150.00 
G01 X11.938 Y8.636 Z255 F150.00 
G01 X11.8956666667 Y8.67833333333 Z255 F150.00 
G01 X11.4723333333 Y9.05933333333 Z255 F150.00 
G01 X10.8796666667 Y9.017 Z255 F150.00 
G01 X10.8373333333 Y9.017 Z255 F150.00 
G01 X10.795 Y9.05933333333 Z255 F150.00 
G01 X10.033 Y9.779 Z255 F150.00 
G01 X9.99066666667 Y9.82133333333 Z255 F150.00 
G01 X9.94833333333 Y9.82133333333 Z255 F150.00 
G01 X5.08 Y9.86366666667 Z255 F150.00 
G01 X5.03766666667 Y9.94833333333 Z255 F150.00 
G01 X4.99533333333 Y9.99066666667 Z255 F150.00 
G01 X4.99533333333 Y10.033 Z255 F150.00 
G01 X4.953 Y10.0753333333 Z255 F150.00 
G01 X4.74133333333 Y10.2446666667 Z255 F150.00 
G01 X4.699 Y10.287 Z255 F150.00 
G01 X4.65666666667 Y10.287 Z255 F150.00 
G01 X4.61433333333 Y10.3293333333 Z255 F150.00 
G01 X4.572 Y10.3293333333 Z255 F150.00 
G01 X4.48733333333 Y10.3716666667 Z255 F150.00 
G01 X4.445 Y10.3716666667 Z255 F150.00 
G01 X2.62466666667 Y10.3293333333 Z255 F150.00 
G01 X2.58233333333 Y10.3293333333 Z255 F150.00 
G01 X2.49766666667 Y10.287 Z255 F150.00 
G01 X2.45533333333 Y10.287 Z255 F150.00 
G01 X2.413 Y10.2446666667 Z255 F150.00 
G01 X2.37066666667 Y10.2446666667 Z255 F150.00 
G01 X2.32833333333 Y10.2023333333 Z255 F150.00 
G01 X2.159 Y9.99066666667 Z255 F150.00 
G01 X2.11666666667 Y9.94833333333 Z255 F150.00 
G01 X2.11666666667 Y9.906 Z255 F150.00 
G01 X2.07433333333 Y9.86366666667 Z255 F150.00 
G01 X2.07433333333 Y9.82133333333 Z255 F150.00 
G01 X2.032 Y9.73666666667 Z255 F150.00 
G01 X2.032 Y9.69433333333 Z255 F150.00 
G01 X2.07433333333 Y9.398 Z255 F150.00 
G01 X2.07433333333 Y9.35566666667 Z255 F150.00 
G01 X2.11666666667 Y9.271 Z255 F150.00 
G01 X2.11666666667 Y9.22866666667 Z255 F150.00 
G01 X2.159 Y9.18633333333 Z255 F150.00 
G01 X2.159 Y9.144 Z255 F150.00 
G01 X2.20133333333 Y9.10166666667 Z255 F150.00 
G01 X2.413 Y8.93233333333 Z255 F150.00 
G01 X2.45533333333 Y8.89 Z255 F150.00 
G01 X2.49766666667 Y8.89 Z255 F150.00 
G01 X2.54 Y8.84766666667 Z255 F150.00 
G01 X2.58233333333 Y8.84766666667 Z255 F150.00 
G01 X2.667 Y8.80533333333 Z255 F150.00 
G01 X2.70933333333 Y8.80533333333 Z255 F150.00 
G01 X4.52966666667 Y8.84766666667 Z255 F150.00 
G01 X4.572 Y8.84766666667 Z255 F150.00 
G01 X4.572 Y8.84766666667 Z255 F150.00 
G00 X4.02166666667 Y9.779 Z0

G01 X4.02166666667 Y9.82133333333 Z255 F150.00 
G01 X3.97933333333 Y9.86366666667 Z255 F150.00 
G01 X3.76766666667 Y10.033 Z255 F150.00 
G01 X3.72533333333 Y10.0753333333 Z255 F150.00 
G01 X3.683 Y10.0753333333 Z255 F150.00 
G01 X3.429 Y10.033 Z255 F150.00 
G01 X3.38666666667 Y10.033 Z255 F150.00 
G01 X3.34433333333 Y9.99066666667 Z255 F150.00 
G01 X3.175 Y9.779 Z255 F150.00 
G01 X3.13266666667 Y9.73666666667 Z255 F150.00 
G01 X3.13266666667 Y9.69433333333 Z255 F150.00 
G01 X3.175 Y9.44033333333 Z255 F150.00 
G01 X3.175 Y9.398 Z255 F150.00 
G01 X3.21733333333 Y9.35566666667 Z255 F150.00 
G01 X3.429 Y9.18633333333 Z255 F150.00 
G01 X3.47133333333 Y9.144 Z255 F150.00 
G01 X3.51366666667 Y9.144 Z255 F150.00 
G01 X3.76766666667 Y9.18633333333 Z255 F150.00 
G01 X3.81 Y9.18633333333 Z255 F150.00 
G01 X3.85233333333 Y9.22866666667 Z255 F150.00 
G01 X4.02166666667 Y9.44033333333 Z255 F150.00 
G01 X4.064 Y9.48266666667 Z255 F150.00 
G01 X4.064 Y9.525 Z255 F150.00 
G01 X4.064 Y9.69433333333 Z255 F150.00 
G00 X4.10633333333 Y11.3453333333 Z0

G01 X4.52966666667 Y11.3876666667 Z255 F150.00 
G01 X4.572 Y11.3876666667 Z255 F150.00 
G01 X4.65666666667 Y11.43 Z255 F150.00 
G01 X4.699 Y11.43 Z255 F150.00 
G01 X4.74133333333 Y11.4723333333 Z255 F150.00 
G01 X4.78366666667 Y11.4723333333 Z255 F150.00 
G01 X4.826 Y11.5146666667 Z255 F150.00 
G01 X4.99533333333 Y11.7263333333 Z255 F150.00 
G01 X5.03766666667 Y11.7686666667 Z255 F150.00 
G01 X5.03766666667 Y11.811 Z255 F150.00 
G01 X5.08 Y11.8533333333 Z255 F150.00 
G01 X5.16466666667 Y11.8956666667 Z255 F150.00 
G01 X9.86366666667 Y11.8533333333 Z255 F150.00 
G01 X10.4986666667 Y11.176 Z255 F150.00 
G01 X10.541 Y10.541 Z255 F150.00 
G01 X10.9643333333 Y10.16 Z255 F150.00 
G01 X11.557 Y10.2023333333 Z255 F150.00 
G01 X12.0226666667 Y10.6256666667 Z255 F150.00 
G01 X13.6736666667 Y10.5833333333 Z255 F150.00 
G01 X13.716 Y10.4986666667 Z255 F150.00 
G01 X13.7583333333 Y10.4563333333 Z255 F150.00 
G01 X14.0123333333 Y10.2446666667 Z255 F150.00 
G01 X14.0546666667 Y10.2023333333 Z255 F150.00 
G01 X14.097 Y10.2023333333 Z255 F150.00 
G01 X14.1816666667 Y10.16 Z255 F150.00 
G01 X14.224 Y10.16 Z255 F150.00 
G01 X15.8326666667 Y10.2023333333 Z255 F150.00 
G01 X15.875 Y10.2023333333 Z255 F150.00 
G01 X15.9596666667 Y10.2446666667 Z255 F150.00 
G01 X16.002 Y10.2446666667 Z255 F150.00 
G01 X16.0443333333 Y10.287 Z255 F150.00 
G01 X16.256 Y10.541 Z255 F150.00 
G01 X16.2983333333 Y10.5833333333 Z255 F150.00 
G01 X16.2983333333 Y10.6256666667 Z255 F150.00 
G01 X16.3406666667 Y10.7103333333 Z255 F150.00 
G01 X16.3406666667 Y10.7526666667 Z255 F150.00 
G01 X16.2983333333 Y11.049 Z255 F150.00 
G01 X16.2983333333 Y11.0913333333 Z255 F150.00 
G01 X16.256 Y11.176 Z255 F150.00 
G01 X16.256 Y11.2183333333 Z255 F150.00 
G01 X16.2136666667 Y11.2606666667 Z255 F150.00 
G01 X15.9596666667 Y11.4723333333 Z255 F150.00 
G01 X15.9173333333 Y11.5146666667 Z255 F150.00 
G01 X15.875 Y11.5146666667 Z255 F150.00 
G01 X15.7903333333 Y11.557 Z255 F150.00 
G01 X15.748 Y11.557 Z255 F150.00 
G01 X14.1393333333 Y11.5146666667 Z255 F150.00 
G01 X14.097 Y11.5146666667 Z255 F150.00 
G01 X14.0123333333 Y11.4723333333 Z255 F150.00 
G01 X13.97 Y11.4723333333 Z255 F150.00 
G01 X13.9276666667 Y11.43 Z255 F150.00 
G01 X13.716 Y11.176 Z255 F150.00 
G01 X13.6736666667 Y11.1336666667 Z255 F150.00 
G01 X13.6736666667 Y11.0913333333 Z255 F150.00 
G01 X13.6736666667 Y11.0913333333 Z255 F150.00 
G00 X13.5466666667 Y11.0913333333 Z0

G01 X11.938 Y11.1336666667 Z255 F150.00 
G01 X11.938 Y11.176 Z255 F150.00 
G01 X11.8956666667 Y11.2183333333 Z255 F150.00 
G01 X11.4723333333 Y11.5993333333 Z255 F150.00 
G01 X10.8796666667 Y11.557 Z255 F150.00 
G01 X10.8373333333 Y11.557 Z255 F150.00 
G01 X10.795 Y11.5993333333 Z255 F150.00 
G01 X10.033 Y12.319 Z255 F150.00 
G01 X9.99066666667 Y12.3613333333 Z255 F150.00 
G01 X9.94833333333 Y12.3613333333 Z255 F150.00 
G01 X5.08 Y12.4036666667 Z255 F150.00 
G01 X5.03766666667 Y12.4883333333 Z255 F150.00 
G01 X4.99533333333 Y12.5306666667 Z255 F150.00 
G01 X4.99533333333 Y12.573 Z255 F150.00 
G01 X4.953 Y12.6153333333 Z255 F150.00 
G01 X4.74133333333 Y12.7846666667 Z255 F150.00 
G01 X4.699 Y12.827 Z255 F150.00 
G01 X4.65666666667 Y12.827 Z255 F150.00 
G01 X4.61433333333 Y12.8693333333 Z255 F150.00 
G01 X4.572 Y12.8693333333 Z255 F150.00 
G01 X4.48733333333 Y12.9116666667 Z255 F150.00 
G01 X4.445 Y12.9116666667 Z255 F150.00 
G01 X2.62466666667 Y12.8693333333 Z255 F150.00 
G01 X2.58233333333 Y12.8693333333 Z255 F150.00 
G01 X2.49766666667 Y12.827 Z255 F150.00 
G01 X2.45533333333 Y12.827 Z255 F150.00 
G01 X2.413 Y12.7846666667 Z255 F150.00 
G01 X2.37066666667 Y12.7846666667 Z255 F150.00 
G01 X2.32833333333 Y12.7423333333 Z255 F150.00 
G01 X2.159 Y12.5306666667 Z255 F150.00 
G01 X2.11666666667 Y12.4883333333 Z255 F150.00 
G01 X2.11666666667 Y12.446 Z255 F150.00 
G01 X2.07433333333 Y12.4036666667 Z255 F150.00 
G01 X2.07433333333 Y12.3613333333 Z255 F150.00 
G01 X2.032 Y12.2766666667 Z255 F150.00 
G01 X2.032 Y12.2343333333 Z255 F150.00 
G01 X2.07433333333 Y11.938 Z255 F150.00 
G01 X2.07433333333 Y11.8956666667 Z255 F150.00 
G01 X2.11666666667 Y11.811 Z255 F150.00 
G01 X2.11666666667 Y11.7686666667 Z255 F150.00 
G01 X2.159 Y11.7263333333 Z255 F150.00 
G01 X2.159 Y11.684 Z255 F150.00 
G01 X2.20133333333 Y11.6416666667 Z255 F150.00 
G01 X2.413 Y11.4723333333 Z255 F150.00 
G01 X2.45533333333 Y11.43 Z255 F150.00 
G01 X2.49766666667 Y11.43 Z255 F150.00 
G01 X2.54 Y11.3876666667 Z255 F150.00 
G01 X2.58233333333 Y11.3876666667 Z255 F150.00 
G01 X2.667 Y11.3453333333 Z255 F150.00 
G01 X2.70933333333 Y11.3453333333 Z255 F150.00 
G01 X4.02166666667 Y11.3453333333 Z255 F150.00 
G00 X3.85233333333 Y11.7686666667 Z0

G01 X4.02166666667 Y11.9803333333 Z255 F150.00 
G01 X4.064 Y12.0226666667 Z255 F150.00 
G01 X4.064 Y12.065 Z255 F150.00 
G01 X4.02166666667 Y12.319 Z255 F150.00 
G01 X4.02166666667 Y12.3613333333 Z255 F150.00 
G01 X3.97933333333 Y12.4036666667 Z255 F150.00 
G01 X3.76766666667 Y12.573 Z255 F150.00 
G01 X3.72533333333 Y12.6153333333 Z255 F150.00 
G01 X3.683 Y12.6153333333 Z255 F150.00 
G01 X3.429 Y12.573 Z255 F150.00 
G01 X3.38666666667 Y12.573 Z255 F150.00 
G01 X3.34433333333 Y12.5306666667 Z255 F150.00 
G01 X3.175 Y12.319 Z255 F150.00 
G01 X3.13266666667 Y12.2766666667 Z255 F150.00 
G01 X3.13266666667 Y12.2343333333 Z255 F150.00 
G01 X3.175 Y11.9803333333 Z255 F150.00 
G01 X3.175 Y11.938 Z255 F150.00 
G01 X3.21733333333 Y11.8956666667 Z255 F150.00 
G01 X3.429 Y11.7263333333 Z255 F150.00 
G01 X3.47133333333 Y11.684 Z255 F150.00 
G01 X3.51366666667 Y11.684 Z255 F150.00 
G01 X3.76766666667 Y11.7263333333 Z255 F150.00 
G01 X3.76766666667 Y11.7263333333 Z255 F150.00 
G00 X4.65666666667 Y13.97 Z0

G01 X4.699 Y13.97 Z255 F150.00 
G01 X4.74133333333 Y14.0123333333 Z255 F150.00 
G01 X4.78366666667 Y14.0123333333 Z255 F150.00 
G01 X4.826 Y14.0546666667 Z255 F150.00 
G01 X4.99533333333 Y14.2663333333 Z255 F150.00 
G01 X5.03766666667 Y14.3086666667 Z255 F150.00 
G01 X5.03766666667 Y14.351 Z255 F150.00 
G01 X5.08 Y14.3933333333 Z255 F150.00 
G01 X5.16466666667 Y14.4356666667 Z255 F150.00 
G01 X9.86366666667 Y14.3933333333 Z255 F150.00 
G01 X10.4986666667 Y13.716 Z255 F150.00 
G01 X10.541 Y13.081 Z255 F150.00 
G01 X10.9643333333 Y12.7 Z255 F150.00 
G01 X11.557 Y12.7423333333 Z255 F150.00 
G01 X12.0226666667 Y13.1656666667 Z255 F150.00 
G01 X13.6736666667 Y13.1233333333 Z255 F150.00 
G01 X13.716 Y13.0386666667 Z255 F150.00 
G01 X13.7583333333 Y12.9963333333 Z255 F150.00 
G01 X14.0123333333 Y12.7846666667 Z255 F150.00 
G01 X14.0546666667 Y12.7423333333 Z255 F150.00 
G01 X14.097 Y12.7423333333 Z255 F150.00 
G01 X14.1816666667 Y12.7 Z255 F150.00 
G01 X14.224 Y12.7 Z255 F150.00 
G01 X15.8326666667 Y12.7423333333 Z255 F150.00 
G01 X15.875 Y12.7423333333 Z255 F150.00 
G01 X15.9596666667 Y12.7846666667 Z255 F150.00 
G01 X16.002 Y12.7846666667 Z255 F150.00 
G01 X16.0443333333 Y12.827 Z255 F150.00 
G01 X16.256 Y13.081 Z255 F150.00 
G01 X16.2983333333 Y13.1233333333 Z255 F150.00 
G01 X16.2983333333 Y13.1656666667 Z255 F150.00 
G01 X16.3406666667 Y13.2503333333 Z255 F150.00 
G01 X16.3406666667 Y13.2926666667 Z255 F150.00 
G01 X16.2983333333 Y13.589 Z255 F150.00 
G01 X16.2983333333 Y13.6313333333 Z255 F150.00 
G01 X16.256 Y13.716 Z255 F150.00 
G01 X16.256 Y13.7583333333 Z255 F150.00 
G01 X16.2136666667 Y13.8006666667 Z255 F150.00 
G01 X15.9596666667 Y14.0123333333 Z255 F150.00 
G01 X15.9173333333 Y14.0546666667 Z255 F150.00 
G01 X15.875 Y14.0546666667 Z255 F150.00 
G01 X15.7903333333 Y14.097 Z255 F150.00 
G01 X15.748 Y14.097 Z255 F150.00 
G01 X14.1393333333 Y14.0546666667 Z255 F150.00 
G01 X14.097 Y14.0546666667 Z255 F150.00 
G01 X14.0123333333 Y14.0123333333 Z255 F150.00 
G01 X13.97 Y14.0123333333 Z255 F150.00 
G01 X13.9276666667 Y13.97 Z255 F150.00 
G01 X13.716 Y13.716 Z255 F150.00 
G01 X13.6736666667 Y13.6736666667 Z255 F150.00 
G01 X13.6736666667 Y13.6313333333 Z255 F150.00 
G01 X13.6736666667 Y13.6313333333 Z255 F150.00 
G00 X13.5466666667 Y13.6313333333 Z0

G01 X11.938 Y13.6736666667 Z255 F150.00 
G01 X11.938 Y13.716 Z255 F150.00 
G01 X11.8956666667 Y13.7583333333 Z255 F150.00 
G01 X11.4723333333 Y14.1393333333 Z255 F150.00 
G01 X10.8796666667 Y14.097 Z255 F150.00 
G01 X10.8373333333 Y14.097 Z255 F150.00 
G01 X10.795 Y14.1393333333 Z255 F150.00 
G01 X10.033 Y14.859 Z255 F150.00 
G01 X9.99066666667 Y14.9013333333 Z255 F150.00 
G01 X9.94833333333 Y14.9013333333 Z255 F150.00 
G01 X5.08 Y14.9436666667 Z255 F150.00 
G01 X5.03766666667 Y15.0283333333 Z255 F150.00 
G01 X4.99533333333 Y15.0706666667 Z255 F150.00 
G01 X4.99533333333 Y15.113 Z255 F150.00 
G01 X4.953 Y15.1553333333 Z255 F150.00 
G01 X4.74133333333 Y15.3246666667 Z255 F150.00 
G01 X4.699 Y15.367 Z255 F150.00 
G01 X4.65666666667 Y15.367 Z255 F150.00 
G01 X4.61433333333 Y15.4093333333 Z255 F150.00 
G01 X4.572 Y15.4093333333 Z255 F150.00 
G01 X4.48733333333 Y15.4516666667 Z255 F150.00 
G01 X4.445 Y15.4516666667 Z255 F150.00 
G01 X2.62466666667 Y15.4093333333 Z255 F150.00 
G01 X2.58233333333 Y15.4093333333 Z255 F150.00 
G01 X2.49766666667 Y15.367 Z255 F150.00 
G01 X2.45533333333 Y15.367 Z255 F150.00 
G01 X2.413 Y15.3246666667 Z255 F150.00 
G01 X2.37066666667 Y15.3246666667 Z255 F150.00 
G01 X2.32833333333 Y15.2823333333 Z255 F150.00 
G01 X2.159 Y15.0706666667 Z255 F150.00 
G01 X2.11666666667 Y15.0283333333 Z255 F150.00 
G01 X2.11666666667 Y14.986 Z255 F150.00 
G01 X2.07433333333 Y14.9436666667 Z255 F150.00 
G01 X2.07433333333 Y14.9013333333 Z255 F150.00 
G01 X2.032 Y14.8166666667 Z255 F150.00 
G01 X2.032 Y14.7743333333 Z255 F150.00 
G01 X2.07433333333 Y14.478 Z255 F150.00 
G01 X2.07433333333 Y14.4356666667 Z255 F150.00 
G01 X2.11666666667 Y14.351 Z255 F150.00 
G01 X2.11666666667 Y14.3086666667 Z255 F150.00 
G01 X2.159 Y14.2663333333 Z255 F150.00 
G01 X2.159 Y14.224 Z255 F150.00 
G01 X2.20133333333 Y14.1816666667 Z255 F150.00 
G01 X2.413 Y14.0123333333 Z255 F150.00 
G01 X2.45533333333 Y13.97 Z255 F150.00 
G01 X2.49766666667 Y13.97 Z255 F150.00 
G01 X2.54 Y13.9276666667 Z255 F150.00 
G01 X2.58233333333 Y13.9276666667 Z255 F150.00 
G01 X2.667 Y13.8853333333 Z255 F150.00 
G01 X2.70933333333 Y13.8853333333 Z255 F150.00 
G01 X4.52966666667 Y13.9276666667 Z255 F150.00 
G01 X4.572 Y13.9276666667 Z255 F150.00 
G01 X4.572 Y13.9276666667 Z255 F150.00 
G00 X4.02166666667 Y14.859 Z0

G01 X4.02166666667 Y14.9013333333 Z255 F150.00 
G01 X3.97933333333 Y14.9436666667 Z255 F150.00 
G01 X3.76766666667 Y15.113 Z255 F150.00 
G01 X3.72533333333 Y15.1553333333 Z255 F150.00 
G01 X3.683 Y15.1553333333 Z255 F150.00 
G01 X3.429 Y15.113 Z255 F150.00 
G01 X3.38666666667 Y15.113 Z255 F150.00 
G01 X3.34433333333 Y15.0706666667 Z255 F150.00 
G01 X3.175 Y14.859 Z255 F150.00 
G01 X3.13266666667 Y14.8166666667 Z255 F150.00 
G01 X3.13266666667 Y14.7743333333 Z255 F150.00 
G01 X3.175 Y14.5203333333 Z255 F150.00 
G01 X3.175 Y14.478 Z255 F150.00 
G01 X3.21733333333 Y14.4356666667 Z255 F150.00 
G01 X3.429 Y14.2663333333 Z255 F150.00 
G01 X3.47133333333 Y14.224 Z255 F150.00 
G01 X3.51366666667 Y14.224 Z255 F150.00 
G01 X3.76766666667 Y14.2663333333 Z255 F150.00 
G01 X3.81 Y14.2663333333 Z255 F150.00 
G01 X3.85233333333 Y14.3086666667 Z255 F150.00 
G01 X4.02166666667 Y14.5203333333 Z255 F150.00 
G01 X4.064 Y14.5626666667 Z255 F150.00 
G01 X4.064 Y14.605 Z255 F150.00 
G01 X4.064 Y14.7743333333 Z255 F150.00 
G00 X4.10633333333 Y16.4253333333 Z0

G01 X4.52966666667 Y16.4676666667 Z255 F150.00 
G01 X4.572 Y16.4676666667 Z255 F150.00 
G01 X4.65666666667 Y16.51 Z255 F150.00 
G01 X4.699 Y16.51 Z255 F150.00 
G01 X4.74133333333 Y16.5523333333 Z255 F150.00 
G01 X4.78366666667 Y16.5523333333 Z255 F150.00 
G01 X4.826 Y16.5946666667 Z255 F150.00 
G01 X4.99533333333 Y16.8063333333 Z255 F150.00 
G01 X5.03766666667 Y16.8486666667 Z255 F150.00 
G01 X5.03766666667 Y16.891 Z255 F150.00 
G01 X5.08 Y16.9333333333 Z255 F150.00 
G01 X5.16466666667 Y16.9756666667 Z255 F150.00 
G01 X9.86366666667 Y16.9333333333 Z255 F150.00 
G01 X10.4986666667 Y16.256 Z255 F150.00 
G01 X10.541 Y15.621 Z255 F150.00 
G01 X10.9643333333 Y15.24 Z255 F150.00 
G01 X11.557 Y15.2823333333 Z255 F150.00 
G01 X12.0226666667 Y15.7056666667 Z255 F150.00 
G01 X13.6736666667 Y15.6633333333 Z255 F150.00 
G01 X13.716 Y15.5786666667 Z255 F150.00 
G01 X13.7583333333 Y15.5363333333 Z255 F150.00 
G01 X14.0123333333 Y15.3246666667 Z255 F150.00 
G01 X14.0546666667 Y15.2823333333 Z255 F150.00 
G01 X14.097 Y15.2823333333 Z255 F150.00 
G01 X14.1816666667 Y15.24 Z255 F150.00 
G01 X14.224 Y15.24 Z255 F150.00 
G01 X15.8326666667 Y15.2823333333 Z255 F150.00 
G01 X15.875 Y15.2823333333 Z255 F150.00 
G01 X15.9596666667 Y15.3246666667 Z255 F150.00 
G01 X16.002 Y15.3246666667 Z255 F150.00 
G01 X16.0443333333 Y15.367 Z255 F150.00 
G01 X16.256 Y15.621 Z255 F150.00 
G01 X16.2983333333 Y15.6633333333 Z255 F150.00 
G01 X16.2983333333 Y15.7056666667 Z255 F150.00 
G01 X16.3406666667 Y15.7903333333 Z255 F150.00 
G01 X16.3406666667 Y15.8326666667 Z255 F150.00 
G01 X16.2983333333 Y16.129 Z255 F150.00 
G01 X16.2983333333 Y16.1713333333 Z255 F150.00 
G01 X16.256 Y16.256 Z255 F150.00 
G01 X16.256 Y16.2983333333 Z255 F150.00 
G01 X16.2136666667 Y16.3406666667 Z255 F150.00 
G01 X15.9596666667 Y16.5523333333 Z255 F150.00 
G01 X15.9173333333 Y16.5946666667 Z255 F150.00 
G01 X15.875 Y16.5946666667 Z255 F150.00 
G01 X15.7903333333 Y16.637 Z255 F150.00 
G01 X15.748 Y16.637 Z255 F150.00 
G01 X14.1393333333 Y16.5946666667 Z255 F150.00 
G01 X14.097 Y16.5946666667 Z255 F150.00 
G01 X14.0123333333 Y16.5523333333 Z255 F150.00 
G01 X13.97 Y16.5523333333 Z255 F150.00 
G01 X13.9276666667 Y16.51 Z255 F150.00 
G01 X13.716 Y16.256 Z255 F150.00 
G01 X13.6736666667 Y16.2136666667 Z255 F150.00 
G01 X13.6736666667 Y16.1713333333 Z255 F150.00 
G01 X13.6736666667 Y16.1713333333 Z255 F150.00 
G00 X13.5466666667 Y16.1713333333 Z0

G01 X11.938 Y16.2136666667 Z255 F150.00 
G01 X11.938 Y16.256 Z255 F150.00 
G01 X11.8956666667 Y16.2983333333 Z255 F150.00 
G01 X11.4723333333 Y16.6793333333 Z255 F150.00 
G01 X10.8796666667 Y16.637 Z255 F150.00 
G01 X10.8373333333 Y16.637 Z255 F150.00 
G01 X10.795 Y16.6793333333 Z255 F150.00 
G01 X10.033 Y17.399 Z255 F150.00 
G01 X9.99066666667 Y17.4413333333 Z255 F150.00 
G01 X9.94833333333 Y17.4413333333 Z255 F150.00 
G01 X5.08 Y17.4836666667 Z255 F150.00 
G01 X5.03766666667 Y17.5683333333 Z255 F150.00 
G01 X4.99533333333 Y17.6106666667 Z255 F150.00 
G01 X4.99533333333 Y17.653 Z255 F150.00 
G01 X4.953 Y17.6953333333 Z255 F150.00 
G01 X4.74133333333 Y17.8646666667 Z255 F150.00 
G01 X4.699 Y17.907 Z255 F150.00 
G01 X4.65666666667 Y17.907 Z255 F150.00 
G01 X4.61433333333 Y17.9493333333 Z255 F150.00 
G01 X4.572 Y17.9493333333 Z255 F150.00 
G01 X4.48733333333 Y17.9916666667 Z255 F150.00 
G01 X4.445 Y17.9916666667 Z255 F150.00 
G01 X2.62466666667 Y17.9493333333 Z255 F150.00 
G01 X2.58233333333 Y17.9493333333 Z255 F150.00 
G01 X2.49766666667 Y17.907 Z255 F150.00 
G01 X2.45533333333 Y17.907 Z255 F150.00 
G01 X2.413 Y17.8646666667 Z255 F150.00 
G01 X2.37066666667 Y17.8646666667 Z255 F150.00 
G01 X2.32833333333 Y17.8223333333 Z255 F150.00 
G01 X2.159 Y17.6106666667 Z255 F150.00 
G01 X2.11666666667 Y17.5683333333 Z255 F150.00 
G01 X2.11666666667 Y17.526 Z255 F150.00 
G01 X2.07433333333 Y17.4836666667 Z255 F150.00 
G01 X2.07433333333 Y17.4413333333 Z255 F150.00 
G01 X2.032 Y17.3566666667 Z255 F150.00 
G01 X2.032 Y17.3143333333 Z255 F150.00 
G01 X2.07433333333 Y17.018 Z255 F150.00 
G01 X2.07433333333 Y16.9756666667 Z255 F150.00 
G01 X2.11666666667 Y16.891 Z255 F150.00 
G01 X2.11666666667 Y16.8486666667 Z255 F150.00 
G01 X2.159 Y16.8063333333 Z255 F150.00 
G01 X2.159 Y16.764 Z255 F150.00 
G01 X2.20133333333 Y16.7216666667 Z255 F150.00 
G01 X2.413 Y16.5523333333 Z255 F150.00 
G01 X2.45533333333 Y16.51 Z255 F150.00 
G01 X2.49766666667 Y16.51 Z255 F150.00 
G01 X2.54 Y16.4676666667 Z255 F150.00 
G01 X2.58233333333 Y16.4676666667 Z255 F150.00 
G01 X2.667 Y16.4253333333 Z255 F150.00 
G01 X2.70933333333 Y16.4253333333 Z255 F150.00 
G01 X4.02166666667 Y16.4253333333 Z255 F150.00 
G00 X3.85233333333 Y16.8486666667 Z0

G01 X4.02166666667 Y17.0603333333 Z255 F150.00 
G01 X4.064 Y17.1026666667 Z255 F150.00 
G01 X4.064 Y17.145 Z255 F150.00 
G01 X4.02166666667 Y17.399 Z255 F150.00 
G01 X4.02166666667 Y17.4413333333 Z255 F150.00 
G01 X3.97933333333 Y17.4836666667 Z255 F150.00 
G01 X3.76766666667 Y17.653 Z255 F150.00 
G01 X3.72533333333 Y17.6953333333 Z255 F150.00 
G01 X3.683 Y17.6953333333 Z255 F150.00 
G01 X3.429 Y17.653 Z255 F150.00 
G01 X3.38666666667 Y17.653 Z255 F150.00 
G01 X3.34433333333 Y17.6106666667 Z255 F150.00 
G01 X3.175 Y17.399 Z255 F150.00 
G01 X3.13266666667 Y17.3566666667 Z255 F150.00 
G01 X3.13266666667 Y17.3143333333 Z255 F150.00 
G01 X3.175 Y17.0603333333 Z255 F150.00 
G01 X3.175 Y17.018 Z255 F150.00 
G01 X3.21733333333 Y16.9756666667 Z255 F150.00 
G01 X3.429 Y16.8063333333 Z255 F150.00 
G01 X3.47133333333 Y16.764 Z255 F150.00 
G01 X3.51366666667 Y16.764 Z255 F150.00 
G01 X3.76766666667 Y16.8063333333 Z255 F150.00 
G01 X3.76766666667 Y16.8063333333 Z255 F150.00 
G00 X4.65666666667 Y19.05 Z0

G01 X4.699 Y19.05 Z255 F150.00 
G01 X4.74133333333 Y19.0923333333 Z255 F150.00 
G01 X4.78366666667 Y19.0923333333 Z255 F150.00 
G01 X4.826 Y19.1346666667 Z255 F150.00 
G01 X4.99533333333 Y19.3463333333 Z255 F150.00 
G01 X5.03766666667 Y19.3886666667 Z255 F150.00 
G01 X5.03766666667 Y19.431 Z255 F150.00 
G01 X5.08 Y19.4733333333 Z255 F150.00 
G01 X5.16466666667 Y19.5156666667 Z255 F150.00 
G01 X9.86366666667 Y19.4733333333 Z255 F150.00 
G01 X10.4986666667 Y18.796 Z255 F150.00 
G01 X10.541 Y18.161 Z255 F150.00 
G01 X10.9643333333 Y17.78 Z255 F150.00 
G01 X11.557 Y17.8223333333 Z255 F150.00 
G01 X12.0226666667 Y18.2456666667 Z255 F150.00 
G01 X13.6736666667 Y18.2033333333 Z255 F150.00 
G01 X13.716 Y18.1186666667 Z255 F150.00 
G01 X13.7583333333 Y18.0763333333 Z255 F150.00 
G01 X14.0123333333 Y17.8646666667 Z255 F150.00 
G01 X14.0546666667 Y17.8223333333 Z255 F150.00 
G01 X14.097 Y17.8223333333 Z255 F150.00 
G01 X14.1816666667 Y17.78 Z255 F150.00 
G01 X14.224 Y17.78 Z255 F150.00 
G01 X15.8326666667 Y17.8223333333 Z255 F150.00 
G01 X15.875 Y17.8223333333 Z255 F150.00 
G01 X15.9596666667 Y17.8646666667 Z255 F150.00 
G01 X16.002 Y17.8646666667 Z255 F150.00 
G01 X16.0443333333 Y17.907 Z255 F150.00 
G01 X16.256 Y18.161 Z255 F150.00 
G01 X16.2983333333 Y18.2033333333 Z255 F150.00 
G01 X16.2983333333 Y18.2456666667 Z255 F150.00 
G01 X16.3406666667 Y18.3303333333 Z255 F150.00 
G01 X16.3406666667 Y18.3726666667 Z255 F150.00 
G01 X16.2983333333 Y18.669 Z255 F150.00 
G01 X16.2983333333 Y18.7113333333 Z255 F150.00 
G01 X16.256 Y18.796 Z255 F150.00 
G01 X16.256 Y18.8383333333 Z255 F150.00 
G01 X16.2136666667 Y18.8806666667 Z255 F150.00 
G01 X15.9596666667 Y19.0923333333 Z255 F150.00 
G01 X15.9173333333 Y19.1346666667 Z255 F150.00 
G01 X15.875 Y19.1346666667 Z255 F150.00 
G01 X15.7903333333 Y19.177 Z255 F150.00 
G01 X15.748 Y19.177 Z255 F150.00 
G01 X14.1393333333 Y19.1346666667 Z255 F150.00 
G01 X14.097 Y19.1346666667 Z255 F150.00 
G01 X14.0123333333 Y19.0923333333 Z255 F150.00 
G01 X13.97 Y19.0923333333 Z255 F150.00 
G01 X13.9276666667 Y19.05 Z255 F150.00 
G01 X13.716 Y18.796 Z255 F150.00 
G01 X13.6736666667 Y18.7536666667 Z255 F150.00 
G01 X13.6736666667 Y18.7113333333 Z255 F150.00 
G01 X13.6736666667 Y18.7113333333 Z255 F150.00 
G00 X13.5466666667 Y18.7113333333 Z0

G01 X11.938 Y18.7536666667 Z255 F150.00 
G01 X11.938 Y18.796 Z255 F150.00 
G01 X11.8956666667 Y18.8383333333 Z255 F150.00 
G01 X11.4723333333 Y19.2193333333 Z255 F150.00 
G01 X10.8796666667 Y19.177 Z255 F150.00 
G01 X10.8373333333 Y19.177 Z255 F150.00 
G01 X10.795 Y19.2193333333 Z255 F150.00 
G01 X10.033 Y19.939 Z255 F150.00 
G01 X9.99066666667 Y19.9813333333 Z255 F150.00 
G01 X9.94833333333 Y19.9813333333 Z255 F150.00 
G01 X5.08 Y20.0236666667 Z255 F150.00 
G01 X5.03766666667 Y20.1083333333 Z255 F150.00 
G01 X4.99533333333 Y20.1506666667 Z255 F150.00 
G01 X4.99533333333 Y20.193 Z255 F150.00 
G01 X4.953 Y20.2353333333 Z255 F150.00 
G01 X4.74133333333 Y20.4046666667 Z255 F150.00 
G01 X4.699 Y20.447 Z255 F150.00 
G01 X4.65666666667 Y20.447 Z255 F150.00 
G01 X4.61433333333 Y20.4893333333 Z255 F150.00 
G01 X4.572 Y20.4893333333 Z255 F150.00 
G01 X4.48733333333 Y20.5316666667 Z255 F150.00 
G01 X4.445 Y20.5316666667 Z255 F150.00 
G01 X2.62466666667 Y20.4893333333 Z255 F150.00 
G01 X2.58233333333 Y20.4893333333 Z255 F150.00 
G01 X2.49766666667 Y20.447 Z255 F150.00 
G01 X2.45533333333 Y20.447 Z255 F150.00 
G01 X2.413 Y20.4046666667 Z255 F150.00 
G01 X2.37066666667 Y20.4046666667 Z255 F150.00 
G01 X2.32833333333 Y20.3623333333 Z255 F150.00 
G01 X2.159 Y20.1506666667 Z255 F150.00 
G01 X2.11666666667 Y20.1083333333 Z255 F150.00 
G01 X2.11666666667 Y20.066 Z255 F150.00 
G01 X2.07433333333 Y20.0236666667 Z255 F150.00 
G01 X2.07433333333 Y19.9813333333 Z255 F150.00 
G01 X2.032 Y19.8966666667 Z255 F150.00 
G01 X2.032 Y19.8543333333 Z255 F150.00 
G01 X2.07433333333 Y19.558 Z255 F150.00 
G01 X2.07433333333 Y19.5156666667 Z255 F150.00 
G01 X2.11666666667 Y19.431 Z255 F150.00 
G01 X2.11666666667 Y19.3886666667 Z255 F150.00 
G01 X2.159 Y19.3463333333 Z255 F150.00 
G01 X2.159 Y19.304 Z255 F150.00 
G01 X2.20133333333 Y19.2616666667 Z255 F150.00 
G01 X2.413 Y19.0923333333 Z255 F150.00 
G01 X2.45533333333 Y19.05 Z255 F150.00 
G01 X2.49766666667 Y19.05 Z255 F150.00 
G01 X2.54 Y19.0076666667 Z255 F150.00 
G01 X2.58233333333 Y19.0076666667 Z255 F150.00 
G01 X2.667 Y18.9653333333 Z255 F150.00 
G01 X2.70933333333 Y18.9653333333 Z255 F150.00 
G01 X4.52966666667 Y19.0076666667 Z255 F150.00 
G01 X4.572 Y19.0076666667 Z255 F150.00 
G01 X4.572 Y19.0076666667 Z255 F150.00 
G00 X4.02166666667 Y19.939 Z0

G01 X4.02166666667 Y19.9813333333 Z255 F150.00 
G01 X3.97933333333 Y20.0236666667 Z255 F150.00 
G01 X3.76766666667 Y20.193 Z255 F150.00 
G01 X3.72533333333 Y20.2353333333 Z255 F150.00 
G01 X3.683 Y20.2353333333 Z255 F150.00 
G01 X3.429 Y20.193 Z255 F150.00 
G01 X3.38666666667 Y20.193 Z255 F150.00 
G01 X3.34433333333 Y20.1506666667 Z255 F150.00 
G01 X3.175 Y19.939 Z255 F150.00 
G01 X3.13266666667 Y19.8966666667 Z255 F150.00 
G01 X3.13266666667 Y19.8543333333 Z255 F150.00 
G01 X3.175 Y19.6003333333 Z255 F150.00 
G01 X3.175 Y19.558 Z255 F150.00 
G01 X3.21733333333 Y19.5156666667 Z255 F150.00 
G01 X3.429 Y19.3463333333 Z255 F150.00 
G01 X3.47133333333 Y19.304 Z255 F150.00 
G01 X3.51366666667 Y19.304 Z255 F150.00 
G01 X3.76766666667 Y19.3463333333 Z255 F150.00 
G01 X3.81 Y19.3463333333 Z255 F150.00 
G01 X3.85233333333 Y19.3886666667 Z255 F150.00 
G01 X4.02166666667 Y19.6003333333 Z255 F150.00 
G01 X4.064 Y19.6426666667 Z255 F150.00 
G01 X4.064 Y19.685 Z255 F150.00 
G01 X4.064 Y19.8543333333 Z255 F150.00 
G00 X4.10633333333 Y21.5053333333 Z0

G01 X4.52966666667 Y21.5476666667 Z255 F150.00 
G01 X4.572 Y21.5476666667 Z255 F150.00 
G01 X4.65666666667 Y21.59 Z255 F150.00 
G01 X4.699 Y21.59 Z255 F150.00 
G01 X4.74133333333 Y21.6323333333 Z255 F150.00 
G01 X4.78366666667 Y21.6323333333 Z255 F150.00 
G01 X4.826 Y21.6746666667 Z255 F150.00 
G01 X4.99533333333 Y21.8863333333 Z255 F150.00 
G01 X5.03766666667 Y21.9286666667 Z255 F150.00 
G01 X5.03766666667 Y21.971 Z255 F150.00 
G01 X5.08 Y22.0133333333 Z255 F150.00 
G01 X5.16466666667 Y22.0556666667 Z255 F150.00 
G01 X9.86366666667 Y22.0133333333 Z255 F150.00 
G01 X10.4986666667 Y21.336 Z255 F150.00 
G01 X10.541 Y20.701 Z255 F150.00 
G01 X10.9643333333 Y20.32 Z255 F150.00 
G01 X11.557 Y20.3623333333 Z255 F150.00 
G01 X12.0226666667 Y20.7856666667 Z255 F150.00 
G01 X13.6736666667 Y20.7433333333 Z255 F150.00 
G01 X13.716 Y20.6586666667 Z255 F150.00 
G01 X13.7583333333 Y20.6163333333 Z255 F150.00 
G01 X14.0123333333 Y20.4046666667 Z255 F150.00 
G01 X14.0546666667 Y20.3623333333 Z255 F150.00 
G01 X14.097 Y20.3623333333 Z255 F150.00 
G01 X14.1816666667 Y20.32 Z255 F150.00 
G01 X14.224 Y20.32 Z255 F150.00 
G01 X15.8326666667 Y20.3623333333 Z255 F150.00 
G01 X15.875 Y20.3623333333 Z255 F150.00 
G01 X15.9596666667 Y20.4046666667 Z255 F150.00 
G01 X16.002 Y20.4046666667 Z255 F150.00 
G01 X16.0443333333 Y20.447 Z255 F150.00 
G01 X16.256 Y20.701 Z255 F150.00 
G01 X16.2983333333 Y20.7433333333 Z255 F150.00 
G01 X16.2983333333 Y20.7856666667 Z255 F150.00 
G01 X16.3406666667 Y20.8703333333 Z255 F150.00 
G01 X16.3406666667 Y20.9126666667 Z255 F150.00 
G01 X16.2983333333 Y21.209 Z255 F150.00 
G01 X16.2983333333 Y21.2513333333 Z255 F150.00 
G01 X16.256 Y21.336 Z255 F150.00 
G01 X16.256 Y21.3783333333 Z255 F150.00 
G01 X16.2136666667 Y21.4206666667 Z255 F150.00 
G01 X15.9596666667 Y21.6323333333 Z255 F150.00 
G01 X15.9173333333 Y21.6746666667 Z255 F150.00 
G01 X15.875 Y21.6746666667 Z255 F150.00 
G01 X15.7903333333 Y21.717 Z255 F150.00 
G01 X15.748 Y21.717 Z255 F150.00 
G01 X14.1393333333 Y21.6746666667 Z255 F150.00 
G01 X14.097 Y21.6746666667 Z255 F150.00 
G01 X14.0123333333 Y21.6323333333 Z255 F150.00 
G01 X13.97 Y21.6323333333 Z255 F150.00 
G01 X13.9276666667 Y21.59 Z255 F150.00 
G01 X13.716 Y21.336 Z255 F150.00 
G01 X13.6736666667 Y21.2936666667 Z255 F150.00 
G01 X13.6736666667 Y21.2513333333 Z255 F150.00 
G01 X13.6736666667 Y21.2513333333 Z255 F150.00 
G00 X13.5466666667 Y21.2513333333 Z0

G01 X11.938 Y21.2936666667 Z255 F150.00 
G01 X11.938 Y21.336 Z255 F150.00 
G01 X11.8956666667 Y21.3783333333 Z255 F150.00 
G01 X11.4723333333 Y21.7593333333 Z255 F150.00 
G01 X10.8796666667 Y21.717 Z255 F150.00 
G01 X10.8373333333 Y21.717 Z255 F150.00 
G01 X10.795 Y21.7593333333 Z255 F150.00 
G01 X10.033 Y22.479 Z255 F150.00 
G01 X9.99066666667 Y22.5213333333 Z255 F150.00 
G01 X9.94833333333 Y22.5213333333 Z255 F150.00 
G01 X5.08 Y22.5636666667 Z255 F150.00 
G01 X5.03766666667 Y22.6483333333 Z255 F150.00 
G01 X4.99533333333 Y22.6906666667 Z255 F150.00 
G01 X4.99533333333 Y22.733 Z255 F150.00 
G01 X4.953 Y22.7753333333 Z255 F150.00 
G01 X4.74133333333 Y22.9446666667 Z255 F150.00 
G01 X4.699 Y22.987 Z255 F150.00 
G01 X4.65666666667 Y22.987 Z255 F150.00 
G01 X4.61433333333 Y23.0293333333 Z255 F150.00 
G01 X4.572 Y23.0293333333 Z255 F150.00 
G01 X4.48733333333 Y23.0716666667 Z255 F150.00 
G01 X4.445 Y23.0716666667 Z255 F150.00 
G01 X2.62466666667 Y23.0293333333 Z255 F150.00 
G01 X2.58233333333 Y23.0293333333 Z255 F150.00 
G01 X2.49766666667 Y22.987 Z255 F150.00 
G01 X2.45533333333 Y22.987 Z255 F150.00 
G01 X2.413 Y22.9446666667 Z255 F150.00 
G01 X2.37066666667 Y22.9446666667 Z255 F150.00 
G01 X2.32833333333 Y22.9023333333 Z255 F150.00 
G01 X2.159 Y22.6906666667 Z255 F150.00 
G01 X2.11666666667 Y22.6483333333 Z255 F150.00 
G01 X2.11666666667 Y22.606 Z255 F150.00 
G01 X2.07433333333 Y22.5636666667 Z255 F150.00 
G01 X2.07433333333 Y22.5213333333 Z255 F150.00 
G01 X2.032 Y22.4366666667 Z255 F150.00 
G01 X2.032 Y22.3943333333 Z255 F150.00 
G01 X2.07433333333 Y22.098 Z255 F150.00 
G01 X2.07433333333 Y22.0556666667 Z255 F150.00 
G01 X2.11666666667 Y21.971 Z255 F150.00 
G01 X2.11666666667 Y21.9286666667 Z255 F150.00 
G01 X2.159 Y21.8863333333 Z255 F150.00 
G01 X2.159 Y21.844 Z255 F150.00 
G01 X2.20133333333 Y21.8016666667 Z255 F150.00 
G01 X2.413 Y21.6323333333 Z255 F150.00 
G01 X2.45533333333 Y21.59 Z255 F150.00 
G01 X2.49766666667 Y21.59 Z255 F150.00 
G01 X2.54 Y21.5476666667 Z255 F150.00 
G01 X2.58233333333 Y21.5476666667 Z255 F150.00 
G01 X2.667 Y21.5053333333 Z255 F150.00 
G01 X2.70933333333 Y21.5053333333 Z255 F150.00 
G01 X4.02166666667 Y21.5053333333 Z255 F150.00 
G00 X3.85233333333 Y21.9286666667 Z0

G01 X4.02166666667 Y22.1403333333 Z255 F150.00 
G01 X4.064 Y22.1826666667 Z255 F150.00 
G01 X4.064 Y22.225 Z255 F150.00 
G01 X4.02166666667 Y22.479 Z255 F150.00 
G01 X4.02166666667 Y22.5213333333 Z255 F150.00 
G01 X3.97933333333 Y22.5636666667 Z255 F150.00 
G01 X3.76766666667 Y22.733 Z255 F150.00 
G01 X3.72533333333 Y22.7753333333 Z255 F150.00 
G01 X3.683 Y22.7753333333 Z255 F150.00 
G01 X3.429 Y22.733 Z255 F150.00 
G01 X3.38666666667 Y22.733 Z255 F150.00 
G01 X3.34433333333 Y22.6906666667 Z255 F150.00 
G01 X3.175 Y22.479 Z255 F150.00 
G01 X3.13266666667 Y22.4366666667 Z255 F150.00 
G01 X3.13266666667 Y22.3943333333 Z255 F150.00 
G01 X3.175 Y22.1403333333 Z255 F150.00 
G01 X3.175 Y22.098 Z255 F150.00 
G01 X3.21733333333 Y22.0556666667 Z255 F150.00 
G01 X3.429 Y21.8863333333 Z255 F150.00 
G01 X3.47133333333 Y21.844 Z255 F150.00 
G01 X3.51366666667 Y21.844 Z255 F150.00 
G01 X3.76766666667 Y21.8863333333 Z255 F150.00 
G01 X3.76766666667 Y21.8863333333 Z255 F150.00 
G00 X4.65666666667 Y24.13 Z0

G01 X4.699 Y24.13 Z255 F150.00 
G01 X4.74133333333 Y24.1723333333 Z255 F150.00 
G01 X4.78366666667 Y24.1723333333 Z255 F150.00 
G01 X4.826 Y24.2146666667 Z255 F150.00 
G01 X4.99533333333 Y24.4263333333 Z255 F150.00 
G01 X5.03766666667 Y24.4686666667 Z255 F150.00 
G01 X5.03766666667 Y24.511 Z255 F150.00 
G01 X5.08 Y24.5533333333 Z255 F150.00 
G01 X5.16466666667 Y24.5956666667 Z255 F150.00 
G01 X8.763 Y24.638 Z255 F150.00 
G01 X8.80533333333 Y24.638 Z255 F150.00 
G01 X8.84766666667 Y24.6803333333 Z255 F150.00 
G01 X10.922 Y26.67 Z255 F150.00 
G01 X10.9643333333 Y26.67 Z255 F150.00 
G01 X11.557 Y26.7123333333 Z255 F150.00 
G01 X12.0226666667 Y27.1356666667 Z255 F150.00 
G01 X13.6736666667 Y27.0933333333 Z255 F150.00 
G01 X13.716 Y27.0086666667 Z255 F150.00 
G01 X13.7583333333 Y26.9663333333 Z255 F150.00 
G01 X14.0123333333 Y26.7546666667 Z255 F150.00 
G01 X14.0546666667 Y26.7123333333 Z255 F150.00 
G01 X14.097 Y26.7123333333 Z255 F150.00 
G01 X14.1816666667 Y26.67 Z255 F150.00 
G01 X14.224 Y26.67 Z255 F150.00 
G01 X15.8326666667 Y26.7123333333 Z255 F150.00 
G01 X15.875 Y26.7123333333 Z255 F150.00 
G01 X15.9596666667 Y26.7546666667 Z255 F150.00 
G01 X16.002 Y26.7546666667 Z255 F150.00 
G01 X16.0443333333 Y26.797 Z255 F150.00 
G01 X16.256 Y27.051 Z255 F150.00 
G01 X16.2983333333 Y27.0933333333 Z255 F150.00 
G01 X16.2983333333 Y27.1356666667 Z255 F150.00 
G01 X16.3406666667 Y27.2203333333 Z255 F150.00 
G01 X16.3406666667 Y27.2626666667 Z255 F150.00 
G01 X16.2983333333 Y27.559 Z255 F150.00 
G01 X16.2983333333 Y27.6013333333 Z255 F150.00 
G01 X16.256 Y27.686 Z255 F150.00 
G01 X16.256 Y27.7283333333 Z255 F150.00 
G01 X16.2136666667 Y27.7706666667 Z255 F150.00 
G01 X15.9596666667 Y27.9823333333 Z255 F150.00 
G01 X15.9173333333 Y28.0246666667 Z255 F150.00 
G01 X15.875 Y28.0246666667 Z255 F150.00 
G01 X15.7903333333 Y28.067 Z255 F150.00 
G01 X15.748 Y28.067 Z255 F150.00 
G01 X14.1393333333 Y28.0246666667 Z255 F150.00 
G01 X14.097 Y28.0246666667 Z255 F150.00 
G01 X14.0123333333 Y27.9823333333 Z255 F150.00 
G01 X13.97 Y27.9823333333 Z255 F150.00 
G01 X13.9276666667 Y27.94 Z255 F150.00 
G01 X13.716 Y27.686 Z255 F150.00 
G01 X13.6736666667 Y27.6436666667 Z255 F150.00 
G01 X13.6736666667 Y27.6013333333 Z255 F150.00 
G01 X13.6736666667 Y27.6013333333 Z255 F150.00 
G00 X13.5466666667 Y27.6013333333 Z0

G01 X11.938 Y27.6436666667 Z255 F150.00 
G01 X11.938 Y27.686 Z255 F150.00 
G01 X11.8956666667 Y27.7283333333 Z255 F150.00 
G01 X11.4723333333 Y28.1093333333 Z255 F150.00 
G01 X10.8796666667 Y28.067 Z255 F150.00 
G01 X10.4986666667 Y27.6436666667 Z255 F150.00 
G01 X10.541 Y27.051 Z255 F150.00 
G01 X10.4986666667 Y27.0086666667 Z255 F150.00 
G01 X8.509 Y25.0613333333 Z255 F150.00 
G01 X5.08 Y25.1036666667 Z255 F150.00 
G01 X5.03766666667 Y25.1883333333 Z255 F150.00 
G01 X4.99533333333 Y25.2306666667 Z255 F150.00 
G01 X4.99533333333 Y25.273 Z255 F150.00 
G01 X4.953 Y25.3153333333 Z255 F150.00 
G01 X4.74133333333 Y25.4846666667 Z255 F150.00 
G01 X4.699 Y25.527 Z255 F150.00 
G01 X4.65666666667 Y25.527 Z255 F150.00 
G01 X4.61433333333 Y25.5693333333 Z255 F150.00 
G01 X4.572 Y25.5693333333 Z255 F150.00 
G01 X4.48733333333 Y25.6116666667 Z255 F150.00 
G01 X4.445 Y25.6116666667 Z255 F150.00 
G01 X2.62466666667 Y25.5693333333 Z255 F150.00 
G01 X2.58233333333 Y25.5693333333 Z255 F150.00 
G01 X2.49766666667 Y25.527 Z255 F150.00 
G01 X2.45533333333 Y25.527 Z255 F150.00 
G01 X2.413 Y25.4846666667 Z255 F150.00 
G01 X2.37066666667 Y25.4846666667 Z255 F150.00 
G01 X2.32833333333 Y25.4423333333 Z255 F150.00 
G01 X2.159 Y25.2306666667 Z255 F150.00 
G01 X2.11666666667 Y25.1883333333 Z255 F150.00 
G01 X2.11666666667 Y25.146 Z255 F150.00 
G01 X2.07433333333 Y25.1036666667 Z255 F150.00 
G01 X2.07433333333 Y25.0613333333 Z255 F150.00 
G01 X2.032 Y24.9766666667 Z255 F150.00 
G01 X2.032 Y24.9343333333 Z255 F150.00 
G01 X2.07433333333 Y24.638 Z255 F150.00 
G01 X2.07433333333 Y24.5956666667 Z255 F150.00 
G01 X2.11666666667 Y24.511 Z255 F150.00 
G01 X2.11666666667 Y24.4686666667 Z255 F150.00 
G01 X2.159 Y24.4263333333 Z255 F150.00 
G01 X2.159 Y24.384 Z255 F150.00 
G01 X2.20133333333 Y24.3416666667 Z255 F150.00 
G01 X2.413 Y24.1723333333 Z255 F150.00 
G01 X2.45533333333 Y24.13 Z255 F150.00 
G01 X2.49766666667 Y24.13 Z255 F150.00 
G01 X2.54 Y24.0876666667 Z255 F150.00 
G01 X2.58233333333 Y24.0876666667 Z255 F150.00 
G01 X2.667 Y24.0453333333 Z255 F150.00 
G01 X2.70933333333 Y24.0453333333 Z255 F150.00 
G01 X4.52966666667 Y24.0876666667 Z255 F150.00 
G01 X4.572 Y24.0876666667 Z255 F150.00 
G01 X4.572 Y24.0876666667 Z255 F150.00 
G00 X4.02166666667 Y25.019 Z0

G01 X4.02166666667 Y25.0613333333 Z255 F150.00 
G01 X3.97933333333 Y25.1036666667 Z255 F150.00 
G01 X3.76766666667 Y25.273 Z255 F150.00 
G01 X3.72533333333 Y25.3153333333 Z255 F150.00 
G01 X3.683 Y25.3153333333 Z255 F150.00 
G01 X3.429 Y25.273 Z255 F150.00 
G01 X3.38666666667 Y25.273 Z255 F150.00 
G01 X3.34433333333 Y25.2306666667 Z255 F150.00 
G01 X3.175 Y25.019 Z255 F150.00 
G01 X3.13266666667 Y24.9766666667 Z255 F150.00 
G01 X3.13266666667 Y24.9343333333 Z255 F150.00 
G01 X3.175 Y24.6803333333 Z255 F150.00 
G01 X3.175 Y24.638 Z255 F150.00 
G01 X3.21733333333 Y24.5956666667 Z255 F150.00 
G01 X3.429 Y24.4263333333 Z255 F150.00 
G01 X3.47133333333 Y24.384 Z255 F150.00 
G01 X3.51366666667 Y24.384 Z255 F150.00 
G01 X3.76766666667 Y24.4263333333 Z255 F150.00 
G01 X3.81 Y24.4263333333 Z255 F150.00 
G01 X3.85233333333 Y24.4686666667 Z255 F150.00 
G01 X4.02166666667 Y24.6803333333 Z255 F150.00 
G01 X4.064 Y24.7226666667 Z255 F150.00 
G01 X4.064 Y24.765 Z255 F150.00 
G01 X4.064 Y24.9343333333 Z255 F150.00 
G00 X4.10633333333 Y26.5853333333 Z0

G01 X4.52966666667 Y26.6276666667 Z255 F150.00 
G01 X4.572 Y26.6276666667 Z255 F150.00 
G01 X4.65666666667 Y26.67 Z255 F150.00 
G01 X4.699 Y26.67 Z255 F150.00 
G01 X4.74133333333 Y26.7123333333 Z255 F150.00 
G01 X4.78366666667 Y26.7123333333 Z255 F150.00 
G01 X4.826 Y26.7546666667 Z255 F150.00 
G01 X4.99533333333 Y26.9663333333 Z255 F150.00 
G01 X5.03766666667 Y27.0086666667 Z255 F150.00 
G01 X5.03766666667 Y27.051 Z255 F150.00 
G01 X5.08 Y27.0933333333 Z255 F150.00 
G01 X5.16466666667 Y27.1356666667 Z255 F150.00 
G01 X6.223 Y27.178 Z255 F150.00 
G01 X6.26533333333 Y27.178 Z255 F150.00 
G01 X6.30766666667 Y27.2203333333 Z255 F150.00 
G01 X7.53533333333 Y28.4056666667 Z255 F150.00 
G01 X10.033 Y28.448 Z255 F150.00 
G01 X10.0753333333 Y28.448 Z255 F150.00 
G01 X10.1176666667 Y28.4903333333 Z255 F150.00 
G01 X10.922 Y29.21 Z255 F150.00 
G01 X10.9643333333 Y29.21 Z255 F150.00 
G01 X11.557 Y29.2523333333 Z255 F150.00 
G01 X12.0226666667 Y29.6756666667 Z255 F150.00 
G01 X13.6736666667 Y29.6333333333 Z255 F150.00 
G01 X13.716 Y29.5486666667 Z255 F150.00 
G01 X13.7583333333 Y29.5063333333 Z255 F150.00 
G01 X14.0123333333 Y29.2946666667 Z255 F150.00 
G01 X14.0546666667 Y29.2523333333 Z255 F150.00 
G01 X14.097 Y29.2523333333 Z255 F150.00 
G01 X14.1816666667 Y29.21 Z255 F150.00 
G01 X14.224 Y29.21 Z255 F150.00 
G01 X15.8326666667 Y29.2523333333 Z255 F150.00 
G01 X15.875 Y29.2523333333 Z255 F150.00 
G01 X15.9596666667 Y29.2946666667 Z255 F150.00 
G01 X16.002 Y29.2946666667 Z255 F150.00 
G01 X16.0443333333 Y29.337 Z255 F150.00 
G01 X16.256 Y29.591 Z255 F150.00 
G01 X16.2983333333 Y29.6333333333 Z255 F150.00 
G01 X16.2983333333 Y29.6756666667 Z255 F150.00 
G01 X16.3406666667 Y29.7603333333 Z255 F150.00 
G01 X16.3406666667 Y29.8026666667 Z255 F150.00 
G01 X16.2983333333 Y30.099 Z255 F150.00 
G01 X16.2983333333 Y30.1413333333 Z255 F150.00 
G01 X16.256 Y30.226 Z255 F150.00 
G01 X16.256 Y30.2683333333 Z255 F150.00 
G01 X16.2136666667 Y30.3106666667 Z255 F150.00 
G01 X15.9596666667 Y30.5223333333 Z255 F150.00 
G01 X15.9173333333 Y30.5646666667 Z255 F150.00 
G01 X15.875 Y30.5646666667 Z255 F150.00 
G01 X15.7903333333 Y30.607 Z255 F150.00 
G01 X15.748 Y30.607 Z255 F150.00 
G01 X14.1393333333 Y30.5646666667 Z255 F150.00 
G01 X14.097 Y30.5646666667 Z255 F150.00 
G01 X14.0123333333 Y30.5223333333 Z255 F150.00 
G01 X13.97 Y30.5223333333 Z255 F150.00 
G01 X13.9276666667 Y30.48 Z255 F150.00 
G01 X13.716 Y30.226 Z255 F150.00 
G01 X13.6736666667 Y30.1836666667 Z255 F150.00 
G01 X13.6736666667 Y30.1413333333 Z255 F150.00 
G01 X13.6736666667 Y30.1413333333 Z255 F150.00 
G00 X13.5466666667 Y30.1413333333 Z0

G01 X11.938 Y30.1836666667 Z255 F150.00 
G01 X11.938 Y30.226 Z255 F150.00 
G01 X11.8956666667 Y30.2683333333 Z255 F150.00 
G01 X11.4723333333 Y30.6493333333 Z255 F150.00 
G01 X10.8796666667 Y30.607 Z255 F150.00 
G01 X10.4986666667 Y30.1836666667 Z255 F150.00 
G01 X10.541 Y29.591 Z255 F150.00 
G01 X10.4986666667 Y29.5486666667 Z255 F150.00 
G01 X9.779 Y28.8713333333 Z255 F150.00 
G01 X7.28133333333 Y28.829 Z255 F150.00 
G01 X7.239 Y28.829 Z255 F150.00 
G01 X7.19666666667 Y28.7866666667 Z255 F150.00 
G01 X5.969 Y27.6013333333 Z255 F150.00 
G01 X5.08 Y27.6436666667 Z255 F150.00 
G01 X5.03766666667 Y27.7283333333 Z255 F150.00 
G01 X4.99533333333 Y27.7706666667 Z255 F150.00 
G01 X4.99533333333 Y27.813 Z255 F150.00 
G01 X4.953 Y27.8553333333 Z255 F150.00 
G01 X4.74133333333 Y28.0246666667 Z255 F150.00 
G01 X4.699 Y28.067 Z255 F150.00 
G01 X4.65666666667 Y28.067 Z255 F150.00 
G01 X4.61433333333 Y28.1093333333 Z255 F150.00 
G01 X4.572 Y28.1093333333 Z255 F150.00 
G01 X4.48733333333 Y28.1516666667 Z255 F150.00 
G01 X4.445 Y28.1516666667 Z255 F150.00 
G01 X2.62466666667 Y28.1093333333 Z255 F150.00 
G01 X2.58233333333 Y28.1093333333 Z255 F150.00 
G01 X2.49766666667 Y28.067 Z255 F150.00 
G01 X2.45533333333 Y28.067 Z255 F150.00 
G01 X2.413 Y28.0246666667 Z255 F150.00 
G01 X2.37066666667 Y28.0246666667 Z255 F150.00 
G01 X2.32833333333 Y27.9823333333 Z255 F150.00 
G01 X2.159 Y27.7706666667 Z255 F150.00 
G01 X2.11666666667 Y27.7283333333 Z255 F150.00 
G01 X2.11666666667 Y27.686 Z255 F150.00 
G01 X2.07433333333 Y27.6436666667 Z255 F150.00 
G01 X2.07433333333 Y27.6013333333 Z255 F150.00 
G01 X2.032 Y27.5166666667 Z255 F150.00 
G01 X2.032 Y27.4743333333 Z255 F150.00 
G01 X2.07433333333 Y27.178 Z255 F150.00 
G01 X2.07433333333 Y27.1356666667 Z255 F150.00 
G01 X2.11666666667 Y27.051 Z255 F150.00 
G01 X2.11666666667 Y27.0086666667 Z255 F150.00 
G01 X2.159 Y26.9663333333 Z255 F150.00 
G01 X2.159 Y26.924 Z255 F150.00 
G01 X2.20133333333 Y26.8816666667 Z255 F150.00 
G01 X2.413 Y26.7123333333 Z255 F150.00 
G01 X2.45533333333 Y26.67 Z255 F150.00 
G01 X2.49766666667 Y26.67 Z255 F150.00 
G01 X2.54 Y26.6276666667 Z255 F150.00 
G01 X2.58233333333 Y26.6276666667 Z255 F150.00 
G01 X2.667 Y26.5853333333 Z255 F150.00 
G01 X2.70933333333 Y26.5853333333 Z255 F150.00 
G01 X4.02166666667 Y26.5853333333 Z255 F150.00 
G00 X3.85233333333 Y27.0086666667 Z0

G01 X4.02166666667 Y27.2203333333 Z255 F150.00 
G01 X4.064 Y27.2626666667 Z255 F150.00 
G01 X4.064 Y27.305 Z255 F150.00 
G01 X4.02166666667 Y27.559 Z255 F150.00 
G01 X4.02166666667 Y27.6013333333 Z255 F150.00 
G01 X3.97933333333 Y27.6436666667 Z255 F150.00 
G01 X3.76766666667 Y27.813 Z255 F150.00 
G01 X3.72533333333 Y27.8553333333 Z255 F150.00 
G01 X3.683 Y27.8553333333 Z255 F150.00 
G01 X3.429 Y27.813 Z255 F150.00 
G01 X3.38666666667 Y27.813 Z255 F150.00 
G01 X3.34433333333 Y27.7706666667 Z255 F150.00 
G01 X3.175 Y27.559 Z255 F150.00 
G01 X3.13266666667 Y27.5166666667 Z255 F150.00 
G01 X3.13266666667 Y27.4743333333 Z255 F150.00 
G01 X3.175 Y27.2203333333 Z255 F150.00 
G01 X3.175 Y27.178 Z255 F150.00 
G01 X3.21733333333 Y27.1356666667 Z255 F150.00 
G01 X3.429 Y26.9663333333 Z255 F150.00 
G01 X3.47133333333 Y26.924 Z255 F150.00 
G01 X3.51366666667 Y26.924 Z255 F150.00 
G01 X3.76766666667 Y26.9663333333 Z255 F150.00 
G01 X3.76766666667 Y26.9663333333 Z255 F150.00 
G00 X4.65666666667 Y29.21 Z0

G01 X4.699 Y29.21 Z255 F150.00 
G01 X4.74133333333 Y29.2523333333 Z255 F150.00 
G01 X4.78366666667 Y29.2523333333 Z255 F150.00 
G01 X4.826 Y29.2946666667 Z255 F150.00 
G01 X4.99533333333 Y29.5063333333 Z255 F150.00 
G01 X5.03766666667 Y29.5486666667 Z255 F150.00 
G01 X5.03766666667 Y29.591 Z255 F150.00 
G01 X5.08 Y29.6333333333 Z255 F150.00 
G01 X5.16466666667 Y29.6756666667 Z255 F150.00 
G01 X6.223 Y29.718 Z255 F150.00 
G01 X6.26533333333 Y29.718 Z255 F150.00 
G01 X6.30766666667 Y29.7603333333 Z255 F150.00 
G01 X7.53533333333 Y30.9456666667 Z255 F150.00 
G01 X10.033 Y30.988 Z255 F150.00 
G01 X10.0753333333 Y30.988 Z255 F150.00 
G01 X10.1176666667 Y31.0303333333 Z255 F150.00 
G01 X10.922 Y31.75 Z255 F150.00 
G01 X10.9643333333 Y31.75 Z255 F150.00 
G01 X11.557 Y31.7923333333 Z255 F150.00 
G01 X12.0226666667 Y32.2156666667 Z255 F150.00 
G01 X13.6736666667 Y32.1733333333 Z255 F150.00 
G01 X13.716 Y32.0886666667 Z255 F150.00 
G01 X13.7583333333 Y32.0463333333 Z255 F150.00 
G01 X14.0123333333 Y31.8346666667 Z255 F150.00 
G01 X14.0546666667 Y31.7923333333 Z255 F150.00 
G01 X14.097 Y31.7923333333 Z255 F150.00 
G01 X14.1816666667 Y31.75 Z255 F150.00 
G01 X14.224 Y31.75 Z255 F150.00 
G01 X15.8326666667 Y31.7923333333 Z255 F150.00 
G01 X15.875 Y31.7923333333 Z255 F150.00 
G01 X15.9596666667 Y31.8346666667 Z255 F150.00 
G01 X16.002 Y31.8346666667 Z255 F150.00 
G01 X16.0443333333 Y31.877 Z255 F150.00 
G01 X16.256 Y32.131 Z255 F150.00 
G01 X16.2983333333 Y32.1733333333 Z255 F150.00 
G01 X16.2983333333 Y32.2156666667 Z255 F150.00 
G01 X16.3406666667 Y32.3003333333 Z255 F150.00 
G01 X16.3406666667 Y32.3426666667 Z255 F150.00 
G01 X16.2983333333 Y32.639 Z255 F150.00 
G01 X16.2983333333 Y32.6813333333 Z255 F150.00 
G01 X16.256 Y32.766 Z255 F150.00 
G01 X16.256 Y32.8083333333 Z255 F150.00 
G01 X16.2136666667 Y32.8506666667 Z255 F150.00 
G01 X15.9596666667 Y33.0623333333 Z255 F150.00 
G01 X15.9173333333 Y33.1046666667 Z255 F150.00 
G01 X15.875 Y33.1046666667 Z255 F150.00 
G01 X15.7903333333 Y33.147 Z255 F150.00 
G01 X15.748 Y33.147 Z255 F150.00 
G01 X14.1393333333 Y33.1046666667 Z255 F150.00 
G01 X14.097 Y33.1046666667 Z255 F150.00 
G01 X14.0123333333 Y33.0623333333 Z255 F150.00 
G01 X13.97 Y33.0623333333 Z255 F150.00 
G01 X13.9276666667 Y33.02 Z255 F150.00 
G01 X13.716 Y32.766 Z255 F150.00 
G01 X13.6736666667 Y32.7236666667 Z255 F150.00 
G01 X13.6736666667 Y32.6813333333 Z255 F150.00 
G01 X13.6736666667 Y32.6813333333 Z255 F150.00 
G00 X13.5466666667 Y32.6813333333 Z0

G01 X11.938 Y32.7236666667 Z255 F150.00 
G01 X11.938 Y32.766 Z255 F150.00 
G01 X11.8956666667 Y32.8083333333 Z255 F150.00 
G01 X11.4723333333 Y33.1893333333 Z255 F150.00 
G01 X10.8796666667 Y33.147 Z255 F150.00 
G01 X10.4986666667 Y32.7236666667 Z255 F150.00 
G01 X10.541 Y32.131 Z255 F150.00 
G01 X10.4986666667 Y32.0886666667 Z255 F150.00 
G01 X9.779 Y31.4113333333 Z255 F150.00 
G01 X7.28133333333 Y31.369 Z255 F150.00 
G01 X7.239 Y31.369 Z255 F150.00 
G01 X7.19666666667 Y31.3266666667 Z255 F150.00 
G01 X5.969 Y30.1413333333 Z255 F150.00 
G01 X5.08 Y30.1836666667 Z255 F150.00 
G01 X5.03766666667 Y30.2683333333 Z255 F150.00 
G01 X4.99533333333 Y30.3106666667 Z255 F150.00 
G01 X4.99533333333 Y30.353 Z255 F150.00 
G01 X4.953 Y30.3953333333 Z255 F150.00 
G01 X4.74133333333 Y30.5646666667 Z255 F150.00 
G01 X4.699 Y30.607 Z255 F150.00 
G01 X4.65666666667 Y30.607 Z255 F150.00 
G01 X4.61433333333 Y30.6493333333 Z255 F150.00 
G01 X4.572 Y30.6493333333 Z255 F150.00 
G01 X4.48733333333 Y30.6916666667 Z255 F150.00 
G01 X4.445 Y30.6916666667 Z255 F150.00 
G01 X2.62466666667 Y30.6493333333 Z255 F150.00 
G01 X2.58233333333 Y30.6493333333 Z255 F150.00 
G01 X2.49766666667 Y30.607 Z255 F150.00 
G01 X2.45533333333 Y30.607 Z255 F150.00 
G01 X2.413 Y30.5646666667 Z255 F150.00 
G01 X2.37066666667 Y30.5646666667 Z255 F150.00 
G01 X2.32833333333 Y30.5223333333 Z255 F150.00 
G01 X2.159 Y30.3106666667 Z255 F150.00 
G01 X2.11666666667 Y30.2683333333 Z255 F150.00 
G01 X2.11666666667 Y30.226 Z255 F150.00 
G01 X2.07433333333 Y30.1836666667 Z255 F150.00 
G01 X2.07433333333 Y30.1413333333 Z255 F150.00 
G01 X2.032 Y30.0566666667 Z255 F150.00 
G01 X2.032 Y30.0143333333 Z255 F150.00 
G01 X2.07433333333 Y29.718 Z255 F150.00 
G01 X2.07433333333 Y29.6756666667 Z255 F150.00 
G01 X2.11666666667 Y29.591 Z255 F150.00 
G01 X2.11666666667 Y29.5486666667 Z255 F150.00 
G01 X2.159 Y29.5063333333 Z255 F150.00 
G01 X2.159 Y29.464 Z255 F150.00 
G01 X2.20133333333 Y29.4216666667 Z255 F150.00 
G01 X2.413 Y29.2523333333 Z255 F150.00 
G01 X2.45533333333 Y29.21 Z255 F150.00 
G01 X2.49766666667 Y29.21 Z255 F150.00 
G01 X2.54 Y29.1676666667 Z255 F150.00 
G01 X2.58233333333 Y29.1676666667 Z255 F150.00 
G01 X2.667 Y29.1253333333 Z255 F150.00 
G01 X2.70933333333 Y29.1253333333 Z255 F150.00 
G01 X4.52966666667 Y29.1676666667 Z255 F150.00 
G01 X4.572 Y29.1676666667 Z255 F150.00 
G01 X4.572 Y29.1676666667 Z255 F150.00 
G00 X4.02166666667 Y30.099 Z0

G01 X4.02166666667 Y30.1413333333 Z255 F150.00 
G01 X3.97933333333 Y30.1836666667 Z255 F150.00 
G01 X3.76766666667 Y30.353 Z255 F150.00 
G01 X3.72533333333 Y30.3953333333 Z255 F150.00 
G01 X3.683 Y30.3953333333 Z255 F150.00 
G01 X3.429 Y30.353 Z255 F150.00 
G01 X3.38666666667 Y30.353 Z255 F150.00 
G01 X3.34433333333 Y30.3106666667 Z255 F150.00 
G01 X3.175 Y30.099 Z255 F150.00 
G01 X3.13266666667 Y30.0566666667 Z255 F150.00 
G01 X3.13266666667 Y30.0143333333 Z255 F150.00 
G01 X3.175 Y29.7603333333 Z255 F150.00 
G01 X3.175 Y29.718 Z255 F150.00 
G01 X3.21733333333 Y29.6756666667 Z255 F150.00 
G01 X3.429 Y29.5063333333 Z255 F150.00 
G01 X3.47133333333 Y29.464 Z255 F150.00 
G01 X3.51366666667 Y29.464 Z255 F150.00 
G01 X3.76766666667 Y29.5063333333 Z255 F150.00 
G01 X3.81 Y29.5063333333 Z255 F150.00 
G01 X3.85233333333 Y29.5486666667 Z255 F150.00 
G01 X4.02166666667 Y29.7603333333 Z255 F150.00 
G01 X4.064 Y29.8026666667 Z255 F150.00 
G01 X4.064 Y29.845 Z255 F150.00 
G01 X4.064 Y30.0143333333 Z255 F150.00 
G00 X4.10633333333 Y31.6653333333 Z0

G01 X4.52966666667 Y31.7076666667 Z255 F150.00 
G01 X4.572 Y31.7076666667 Z255 F150.00 
G01 X4.65666666667 Y31.75 Z255 F150.00 
G01 X4.699 Y31.75 Z255 F150.00 
G01 X4.74133333333 Y31.7923333333 Z255 F150.00 
G01 X4.78366666667 Y31.7923333333 Z255 F150.00 
G01 X4.826 Y31.8346666667 Z255 F150.00 
G01 X4.99533333333 Y32.0463333333 Z255 F150.00 
G01 X5.03766666667 Y32.0886666667 Z255 F150.00 
G01 X5.03766666667 Y32.131 Z255 F150.00 
G01 X5.08 Y32.1733333333 Z255 F150.00 
G01 X5.16466666667 Y32.2156666667 Z255 F150.00 
G01 X6.223 Y32.258 Z255 F150.00 
G01 X6.26533333333 Y32.258 Z255 F150.00 
G01 X6.30766666667 Y32.3003333333 Z255 F150.00 
G01 X7.53533333333 Y33.4856666667 Z255 F150.00 
G01 X10.033 Y33.528 Z255 F150.00 
G01 X10.0753333333 Y33.528 Z255 F150.00 
G01 X10.1176666667 Y33.5703333333 Z255 F150.00 
G01 X10.922 Y34.29 Z255 F150.00 
G01 X10.9643333333 Y34.29 Z255 F150.00 
G01 X11.557 Y34.3323333333 Z255 F150.00 
G01 X12.0226666667 Y34.7556666667 Z255 F150.00 
G01 X13.6736666667 Y34.7133333333 Z255 F150.00 
G01 X13.716 Y34.6286666667 Z255 F150.00 
G01 X13.7583333333 Y34.5863333333 Z255 F150.00 
G01 X14.0123333333 Y34.3746666667 Z255 F150.00 
G01 X14.0546666667 Y34.3323333333 Z255 F150.00 
G01 X14.097 Y34.3323333333 Z255 F150.00 
G01 X14.1816666667 Y34.29 Z255 F150.00 
G01 X14.224 Y34.29 Z255 F150.00 
G01 X15.8326666667 Y34.3323333333 Z255 F150.00 
G01 X15.875 Y34.3323333333 Z255 F150.00 
G01 X15.9596666667 Y34.3746666667 Z255 F150.00 
G01 X16.002 Y34.3746666667 Z255 F150.00 
G01 X16.0443333333 Y34.417 Z255 F150.00 
G01 X16.256 Y34.671 Z255 F150.00 
G01 X16.2983333333 Y34.7133333333 Z255 F150.00 
G01 X16.2983333333 Y34.7556666667 Z255 F150.00 
G01 X16.3406666667 Y34.8403333333 Z255 F150.00 
G01 X16.3406666667 Y34.8826666667 Z255 F150.00 
G01 X16.2983333333 Y35.179 Z255 F150.00 
G01 X16.2983333333 Y35.2213333333 Z255 F150.00 
G01 X16.256 Y35.306 Z255 F150.00 
G01 X16.256 Y35.3483333333 Z255 F150.00 
G01 X16.2136666667 Y35.3906666667 Z255 F150.00 
G01 X15.9596666667 Y35.6023333333 Z255 F150.00 
G01 X15.9173333333 Y35.6446666667 Z255 F150.00 
G01 X15.875 Y35.6446666667 Z255 F150.00 
G01 X15.7903333333 Y35.687 Z255 F150.00 
G01 X15.748 Y35.687 Z255 F150.00 
G01 X14.1393333333 Y35.6446666667 Z255 F150.00 
G01 X14.097 Y35.6446666667 Z255 F150.00 
G01 X14.0123333333 Y35.6023333333 Z255 F150.00 
G01 X13.97 Y35.6023333333 Z255 F150.00 
G01 X13.9276666667 Y35.56 Z255 F150.00 
G01 X13.716 Y35.306 Z255 F150.00 
G01 X13.6736666667 Y35.2636666667 Z255 F150.00 
G01 X13.6736666667 Y35.2213333333 Z255 F150.00 
G01 X13.6736666667 Y35.2213333333 Z255 F150.00 
G00 X13.5466666667 Y35.2213333333 Z0

G01 X11.938 Y35.2636666667 Z255 F150.00 
G01 X11.938 Y35.306 Z255 F150.00 
G01 X11.8956666667 Y35.3483333333 Z255 F150.00 
G01 X11.4723333333 Y35.7293333333 Z255 F150.00 
G01 X10.8796666667 Y35.687 Z255 F150.00 
G01 X10.4986666667 Y35.2636666667 Z255 F150.00 
G01 X10.541 Y34.671 Z255 F150.00 
G01 X10.4986666667 Y34.6286666667 Z255 F150.00 
G01 X9.779 Y33.9513333333 Z255 F150.00 
G01 X7.28133333333 Y33.909 Z255 F150.00 
G01 X7.239 Y33.909 Z255 F150.00 
G01 X7.19666666667 Y33.8666666667 Z255 F150.00 
G01 X5.969 Y32.6813333333 Z255 F150.00 
G01 X5.08 Y32.7236666667 Z255 F150.00 
G01 X5.03766666667 Y32.8083333333 Z255 F150.00 
G01 X4.99533333333 Y32.8506666667 Z255 F150.00 
G01 X4.99533333333 Y32.893 Z255 F150.00 
G01 X4.953 Y32.9353333333 Z255 F150.00 
G01 X4.74133333333 Y33.1046666667 Z255 F150.00 
G01 X4.699 Y33.147 Z255 F150.00 
G01 X4.65666666667 Y33.147 Z255 F150.00 
G01 X4.61433333333 Y33.1893333333 Z255 F150.00 
G01 X4.572 Y33.1893333333 Z255 F150.00 
G01 X4.48733333333 Y33.2316666667 Z255 F150.00 
G01 X4.445 Y33.2316666667 Z255 F150.00 
G01 X2.62466666667 Y33.1893333333 Z255 F150.00 
G01 X2.58233333333 Y33.1893333333 Z255 F150.00 
G01 X2.49766666667 Y33.147 Z255 F150.00 
G01 X2.45533333333 Y33.147 Z255 F150.00 
G01 X2.413 Y33.1046666667 Z255 F150.00 
G01 X2.37066666667 Y33.1046666667 Z255 F150.00 
G01 X2.32833333333 Y33.0623333333 Z255 F150.00 
G01 X2.159 Y32.8506666667 Z255 F150.00 
G01 X2.11666666667 Y32.8083333333 Z255 F150.00 
G01 X2.11666666667 Y32.766 Z255 F150.00 
G01 X2.07433333333 Y32.7236666667 Z255 F150.00 
G01 X2.07433333333 Y32.6813333333 Z255 F150.00 
G01 X2.032 Y32.5966666667 Z255 F150.00 
G01 X2.032 Y32.5543333333 Z255 F150.00 
G01 X2.07433333333 Y32.258 Z255 F150.00 
G01 X2.07433333333 Y32.2156666667 Z255 F150.00 
G01 X2.11666666667 Y32.131 Z255 F150.00 
G01 X2.11666666667 Y32.0886666667 Z255 F150.00 
G01 X2.159 Y32.0463333333 Z255 F150.00 
G01 X2.159 Y32.004 Z255 F150.00 
G01 X2.20133333333 Y31.9616666667 Z255 F150.00 
G01 X2.413 Y31.7923333333 Z255 F150.00 
G01 X2.45533333333 Y31.75 Z255 F150.00 
G01 X2.49766666667 Y31.75 Z255 F150.00 
G01 X2.54 Y31.7076666667 Z255 F150.00 
G01 X2.58233333333 Y31.7076666667 Z255 F150.00 
G01 X2.667 Y31.6653333333 Z255 F150.00 
G01 X2.70933333333 Y31.6653333333 Z255 F150.00 
G01 X4.02166666667 Y31.6653333333 Z255 F150.00 
G00 X3.85233333333 Y32.0886666667 Z0

G01 X4.02166666667 Y32.3003333333 Z255 F150.00 
G01 X4.064 Y32.3426666667 Z255 F150.00 
G01 X4.064 Y32.385 Z255 F150.00 
G01 X4.02166666667 Y32.639 Z255 F150.00 
G01 X4.02166666667 Y32.6813333333 Z255 F150.00 
G01 X3.97933333333 Y32.7236666667 Z255 F150.00 
G01 X3.76766666667 Y32.893 Z255 F150.00 
G01 X3.72533333333 Y32.9353333333 Z255 F150.00 
G01 X3.683 Y32.9353333333 Z255 F150.00 
G01 X3.429 Y32.893 Z255 F150.00 
G01 X3.38666666667 Y32.893 Z255 F150.00 
G01 X3.34433333333 Y32.8506666667 Z255 F150.00 
G01 X3.175 Y32.639 Z255 F150.00 
G01 X3.13266666667 Y32.5966666667 Z255 F150.00 
G01 X3.13266666667 Y32.5543333333 Z255 F150.00 
G01 X3.175 Y32.3003333333 Z255 F150.00 
G01 X3.175 Y32.258 Z255 F150.00 
G01 X3.21733333333 Y32.2156666667 Z255 F150.00 
G01 X3.429 Y32.0463333333 Z255 F150.00 
G01 X3.47133333333 Y32.004 Z255 F150.00 
G01 X3.51366666667 Y32.004 Z255 F150.00 
G01 X3.76766666667 Y32.0463333333 Z255 F150.00 
G01 X3.76766666667 Y32.0463333333 Z255 F150.00 
G00 X4.65666666667 Y34.29 Z0

G01 X4.699 Y34.29 Z255 F150.00 
G01 X4.74133333333 Y34.3323333333 Z255 F150.00 
G01 X4.78366666667 Y34.3323333333 Z255 F150.00 
G01 X4.826 Y34.3746666667 Z255 F150.00 
G01 X4.99533333333 Y34.5863333333 Z255 F150.00 
G01 X5.03766666667 Y34.6286666667 Z255 F150.00 
G01 X5.03766666667 Y34.671 Z255 F150.00 
G01 X5.08 Y34.7133333333 Z255 F150.00 
G01 X5.16466666667 Y34.7556666667 Z255 F150.00 
G01 X6.223 Y34.798 Z255 F150.00 
G01 X6.26533333333 Y34.798 Z255 F150.00 
G01 X6.30766666667 Y34.8403333333 Z255 F150.00 
G01 X7.53533333333 Y36.0256666667 Z255 F150.00 
G01 X10.033 Y36.068 Z255 F150.00 
G01 X10.0753333333 Y36.068 Z255 F150.00 
G01 X10.1176666667 Y36.1103333333 Z255 F150.00 
G01 X10.922 Y36.83 Z255 F150.00 
G01 X10.9643333333 Y36.83 Z255 F150.00 
G01 X11.557 Y36.8723333333 Z255 F150.00 
G01 X12.0226666667 Y37.2956666667 Z255 F150.00 
G01 X13.6736666667 Y37.2533333333 Z255 F150.00 
G01 X13.716 Y37.1686666667 Z255 F150.00 
G01 X13.7583333333 Y37.1263333333 Z255 F150.00 
G01 X14.0123333333 Y36.9146666667 Z255 F150.00 
G01 X14.0546666667 Y36.8723333333 Z255 F150.00 
G01 X14.097 Y36.8723333333 Z255 F150.00 
G01 X14.1816666667 Y36.83 Z255 F150.00 
G01 X14.224 Y36.83 Z255 F150.00 
G01 X15.8326666667 Y36.8723333333 Z255 F150.00 
G01 X15.875 Y36.8723333333 Z255 F150.00 
G01 X15.9596666667 Y36.9146666667 Z255 F150.00 
G01 X16.002 Y36.9146666667 Z255 F150.00 
G01 X16.0443333333 Y36.957 Z255 F150.00 
G01 X16.256 Y37.211 Z255 F150.00 
G01 X16.2983333333 Y37.2533333333 Z255 F150.00 
G01 X16.2983333333 Y37.2956666667 Z255 F150.00 
G01 X16.3406666667 Y37.3803333333 Z255 F150.00 
G01 X16.3406666667 Y37.4226666667 Z255 F150.00 
G01 X16.2983333333 Y37.719 Z255 F150.00 
G01 X16.2983333333 Y37.7613333333 Z255 F150.00 
G01 X16.256 Y37.846 Z255 F150.00 
G01 X16.256 Y37.8883333333 Z255 F150.00 
G01 X16.2136666667 Y37.9306666667 Z255 F150.00 
G01 X15.9596666667 Y38.1423333333 Z255 F150.00 
G01 X15.9173333333 Y38.1846666667 Z255 F150.00 
G01 X15.875 Y38.1846666667 Z255 F150.00 
G01 X15.7903333333 Y38.227 Z255 F150.00 
G01 X15.748 Y38.227 Z255 F150.00 
G01 X14.1393333333 Y38.1846666667 Z255 F150.00 
G01 X14.097 Y38.1846666667 Z255 F150.00 
G01 X14.0123333333 Y38.1423333333 Z255 F150.00 
G01 X13.97 Y38.1423333333 Z255 F150.00 
G01 X13.9276666667 Y38.1 Z255 F150.00 
G01 X13.716 Y37.846 Z255 F150.00 
G01 X13.6736666667 Y37.8036666667 Z255 F150.00 
G01 X13.6736666667 Y37.7613333333 Z255 F150.00 
G01 X13.6736666667 Y37.7613333333 Z255 F150.00 
G00 X13.5466666667 Y37.7613333333 Z0

G01 X11.938 Y37.8036666667 Z255 F150.00 
G01 X11.938 Y37.846 Z255 F150.00 
G01 X11.8956666667 Y37.8883333333 Z255 F150.00 
G01 X11.4723333333 Y38.2693333333 Z255 F150.00 
G01 X10.8796666667 Y38.227 Z255 F150.00 
G01 X10.4986666667 Y37.8036666667 Z255 F150.00 
G01 X10.541 Y37.211 Z255 F150.00 
G01 X10.4986666667 Y37.1686666667 Z255 F150.00 
G01 X9.779 Y36.4913333333 Z255 F150.00 
G01 X7.28133333333 Y36.449 Z255 F150.00 
G01 X7.239 Y36.449 Z255 F150.00 
G01 X7.19666666667 Y36.4066666667 Z255 F150.00 
G01 X5.969 Y35.2213333333 Z255 F150.00 
G01 X5.08 Y35.2636666667 Z255 F150.00 
G01 X5.03766666667 Y35.3483333333 Z255 F150.00 
G01 X4.99533333333 Y35.3906666667 Z255 F150.00 
G01 X4.99533333333 Y35.433 Z255 F150.00 
G01 X4.953 Y35.4753333333 Z255 F150.00 
G01 X4.74133333333 Y35.6446666667 Z255 F150.00 
G01 X4.699 Y35.687 Z255 F150.00 
G01 X4.65666666667 Y35.687 Z255 F150.00 
G01 X4.61433333333 Y35.7293333333 Z255 F150.00 
G01 X4.572 Y35.7293333333 Z255 F150.00 
G01 X4.48733333333 Y35.7716666667 Z255 F150.00 
G01 X4.445 Y35.7716666667 Z255 F150.00 
G01 X2.62466666667 Y35.7293333333 Z255 F150.00 
G01 X2.58233333333 Y35.7293333333 Z255 F150.00 
G01 X2.49766666667 Y35.687 Z255 F150.00 
G01 X2.45533333333 Y35.687 Z255 F150.00 
G01 X2.413 Y35.6446666667 Z255 F150.00 
G01 X2.37066666667 Y35.6446666667 Z255 F150.00 
G01 X2.32833333333 Y35.6023333333 Z255 F150.00 
G01 X2.159 Y35.3906666667 Z255 F150.00 
G01 X2.11666666667 Y35.3483333333 Z255 F150.00 
G01 X2.11666666667 Y35.306 Z255 F150.00 
G01 X2.07433333333 Y35.2636666667 Z255 F150.00 
G01 X2.07433333333 Y35.2213333333 Z255 F150.00 
G01 X2.032 Y35.1366666667 Z255 F150.00 
G01 X2.032 Y35.0943333333 Z255 F150.00 
G01 X2.07433333333 Y34.798 Z255 F150.00 
G01 X2.07433333333 Y34.7556666667 Z255 F150.00 
G01 X2.11666666667 Y34.671 Z255 F150.00 
G01 X2.11666666667 Y34.6286666667 Z255 F150.00 
G01 X2.159 Y34.5863333333 Z255 F150.00 
G01 X2.159 Y34.544 Z255 F150.00 
G01 X2.20133333333 Y34.5016666667 Z255 F150.00 
G01 X2.413 Y34.3323333333 Z255 F150.00 
G01 X2.45533333333 Y34.29 Z255 F150.00 
G01 X2.49766666667 Y34.29 Z255 F150.00 
G01 X2.54 Y34.2476666667 Z255 F150.00 
G01 X2.58233333333 Y34.2476666667 Z255 F150.00 
G01 X2.667 Y34.2053333333 Z255 F150.00 
G01 X2.70933333333 Y34.2053333333 Z255 F150.00 
G01 X4.52966666667 Y34.2476666667 Z255 F150.00 
G01 X4.572 Y34.2476666667 Z255 F150.00 
G01 X4.572 Y34.2476666667 Z255 F150.00 
G00 X4.02166666667 Y35.179 Z0

G01 X4.02166666667 Y35.2213333333 Z255 F150.00 
G01 X3.97933333333 Y35.2636666667 Z255 F150.00 
G01 X3.76766666667 Y35.433 Z255 F150.00 
G01 X3.72533333333 Y35.4753333333 Z255 F150.00 
G01 X3.683 Y35.4753333333 Z255 F150.00 
G01 X3.429 Y35.433 Z255 F150.00 
G01 X3.38666666667 Y35.433 Z255 F150.00 
G01 X3.34433333333 Y35.3906666667 Z255 F150.00 
G01 X3.175 Y35.179 Z255 F150.00 
G01 X3.13266666667 Y35.1366666667 Z255 F150.00 
G01 X3.13266666667 Y35.0943333333 Z255 F150.00 
G01 X3.175 Y34.8403333333 Z255 F150.00 
G01 X3.175 Y34.798 Z255 F150.00 
G01 X3.21733333333 Y34.7556666667 Z255 F150.00 
G01 X3.429 Y34.5863333333 Z255 F150.00 
G01 X3.47133333333 Y34.544 Z255 F150.00 
G01 X3.51366666667 Y34.544 Z255 F150.00 
G01 X3.76766666667 Y34.5863333333 Z255 F150.00 
G01 X3.81 Y34.5863333333 Z255 F150.00 
G01 X3.85233333333 Y34.6286666667 Z255 F150.00 
G01 X4.02166666667 Y34.8403333333 Z255 F150.00 
G01 X4.064 Y34.8826666667 Z255 F150.00 
G01 X4.064 Y34.925 Z255 F150.00 
G01 X4.064 Y35.0943333333 Z255 F150.00 
G00 X4.10633333333 Y36.7453333333 Z0

G01 X4.52966666667 Y36.7876666667 Z255 F150.00 
G01 X4.572 Y36.7876666667 Z255 F150.00 
G01 X4.65666666667 Y36.83 Z255 F150.00 
G01 X4.699 Y36.83 Z255 F150.00 
G01 X4.74133333333 Y36.8723333333 Z255 F150.00 
G01 X4.78366666667 Y36.8723333333 Z255 F150.00 
G01 X4.826 Y36.9146666667 Z255 F150.00 
G01 X4.99533333333 Y37.1263333333 Z255 F150.00 
G01 X5.03766666667 Y37.1686666667 Z255 F150.00 
G01 X5.03766666667 Y37.211 Z255 F150.00 
G01 X5.08 Y37.2533333333 Z255 F150.00 
G01 X5.16466666667 Y37.2956666667 Z255 F150.00 
G01 X6.223 Y37.338 Z255 F150.00 
G01 X6.26533333333 Y37.338 Z255 F150.00 
G01 X6.30766666667 Y37.3803333333 Z255 F150.00 
G01 X7.53533333333 Y38.5656666667 Z255 F150.00 
G01 X10.033 Y38.608 Z255 F150.00 
G01 X10.0753333333 Y38.608 Z255 F150.00 
G01 X10.1176666667 Y38.6503333333 Z255 F150.00 
G01 X10.922 Y39.37 Z255 F150.00 
G01 X10.9643333333 Y39.37 Z255 F150.00 
G01 X11.557 Y39.4123333333 Z255 F150.00 
G01 X12.0226666667 Y39.8356666667 Z255 F150.00 
G01 X13.6736666667 Y39.7933333333 Z255 F150.00 
G01 X13.716 Y39.7086666667 Z255 F150.00 
G01 X13.7583333333 Y39.6663333333 Z255 F150.00 
G01 X14.0123333333 Y39.4546666667 Z255 F150.00 
G01 X14.0546666667 Y39.4123333333 Z255 F150.00 
G01 X14.097 Y39.4123333333 Z255 F150.00 
G01 X14.1816666667 Y39.37 Z255 F150.00 
G01 X14.224 Y39.37 Z255 F150.00 
G01 X15.8326666667 Y39.4123333333 Z255 F150.00 
G01 X15.875 Y39.4123333333 Z255 F150.00 
G01 X15.9596666667 Y39.4546666667 Z255 F150.00 
G01 X16.002 Y39.4546666667 Z255 F150.00 
G01 X16.0443333333 Y39.497 Z255 F150.00 
G01 X16.256 Y39.751 Z255 F150.00 
G01 X16.2983333333 Y39.7933333333 Z255 F150.00 
G01 X16.2983333333 Y39.8356666667 Z255 F150.00 
G01 X16.3406666667 Y39.9203333333 Z255 F150.00 
G01 X16.3406666667 Y39.9626666667 Z255 F150.00 
G01 X16.2983333333 Y40.259 Z255 F150.00 
G01 X16.2983333333 Y40.3013333333 Z255 F150.00 
G01 X16.256 Y40.386 Z255 F150.00 
G01 X16.256 Y40.4283333333 Z255 F150.00 
G01 X16.2136666667 Y40.4706666667 Z255 F150.00 
G01 X15.9596666667 Y40.6823333333 Z255 F150.00 
G01 X15.9173333333 Y40.7246666667 Z255 F150.00 
G01 X15.875 Y40.7246666667 Z255 F150.00 
G01 X15.7903333333 Y40.767 Z255 F150.00 
G01 X15.748 Y40.767 Z255 F150.00 
G01 X14.1393333333 Y40.7246666667 Z255 F150.00 
G01 X14.097 Y40.7246666667 Z255 F150.00 
G01 X14.0123333333 Y40.6823333333 Z255 F150.00 
G01 X13.97 Y40.6823333333 Z255 F150.00 
G01 X13.9276666667 Y40.64 Z255 F150.00 
G01 X13.716 Y40.386 Z255 F150.00 
G01 X13.6736666667 Y40.3436666667 Z255 F150.00 
G01 X13.6736666667 Y40.3013333333 Z255 F150.00 
G01 X13.6736666667 Y40.3013333333 Z255 F150.00 
G00 X13.5466666667 Y40.3013333333 Z0

G01 X11.938 Y40.3436666667 Z255 F150.00 
G01 X11.938 Y40.386 Z255 F150.00 
G01 X11.8956666667 Y40.4283333333 Z255 F150.00 
G01 X11.4723333333 Y40.8093333333 Z255 F150.00 
G01 X10.8796666667 Y40.767 Z255 F150.00 
G01 X10.4986666667 Y40.3436666667 Z255 F150.00 
G01 X10.541 Y39.751 Z255 F150.00 
G01 X10.4986666667 Y39.7086666667 Z255 F150.00 
G01 X9.779 Y39.0313333333 Z255 F150.00 
G01 X7.28133333333 Y38.989 Z255 F150.00 
G01 X7.239 Y38.989 Z255 F150.00 
G01 X7.19666666667 Y38.9466666667 Z255 F150.00 
G01 X5.969 Y37.7613333333 Z255 F150.00 
G01 X5.08 Y37.8036666667 Z255 F150.00 
G01 X5.03766666667 Y37.8883333333 Z255 F150.00 
G01 X4.99533333333 Y37.9306666667 Z255 F150.00 
G01 X4.99533333333 Y37.973 Z255 F150.00 
G01 X4.953 Y38.0153333333 Z255 F150.00 
G01 X4.74133333333 Y38.1846666667 Z255 F150.00 
G01 X4.699 Y38.227 Z255 F150.00 
G01 X4.65666666667 Y38.227 Z255 F150.00 
G01 X4.61433333333 Y38.2693333333 Z255 F150.00 
G01 X4.572 Y38.2693333333 Z255 F150.00 
G01 X4.48733333333 Y38.3116666667 Z255 F150.00 
G01 X4.445 Y38.3116666667 Z255 F150.00 
G01 X2.62466666667 Y38.2693333333 Z255 F150.00 
G01 X2.58233333333 Y38.2693333333 Z255 F150.00 
G01 X2.49766666667 Y38.227 Z255 F150.00 
G01 X2.45533333333 Y38.227 Z255 F150.00 
G01 X2.413 Y38.1846666667 Z255 F150.00 
G01 X2.37066666667 Y38.1846666667 Z255 F150.00 
G01 X2.32833333333 Y38.1423333333 Z255 F150.00 
G01 X2.159 Y37.9306666667 Z255 F150.00 
G01 X2.11666666667 Y37.8883333333 Z255 F150.00 
G01 X2.11666666667 Y37.846 Z255 F150.00 
G01 X2.07433333333 Y37.8036666667 Z255 F150.00 
G01 X2.07433333333 Y37.7613333333 Z255 F150.00 
G01 X2.032 Y37.6766666667 Z255 F150.00 
G01 X2.032 Y37.6343333333 Z255 F150.00 
G01 X2.07433333333 Y37.338 Z255 F150.00 
G01 X2.07433333333 Y37.2956666667 Z255 F150.00 
G01 X2.11666666667 Y37.211 Z255 F150.00 
G01 X2.11666666667 Y37.1686666667 Z255 F150.00 
G01 X2.159 Y37.1263333333 Z255 F150.00 
G01 X2.159 Y37.084 Z255 F150.00 
G01 X2.20133333333 Y37.0416666667 Z255 F150.00 
G01 X2.413 Y36.8723333333 Z255 F150.00 
G01 X2.45533333333 Y36.83 Z255 F150.00 
G01 X2.49766666667 Y36.83 Z255 F150.00 
G01 X2.54 Y36.7876666667 Z255 F150.00 
G01 X2.58233333333 Y36.7876666667 Z255 F150.00 
G01 X2.667 Y36.7453333333 Z255 F150.00 
G01 X2.70933333333 Y36.7453333333 Z255 F150.00 
G01 X4.02166666667 Y36.7453333333 Z255 F150.00 
G00 X3.85233333333 Y37.1686666667 Z0

G01 X4.02166666667 Y37.3803333333 Z255 F150.00 
G01 X4.064 Y37.4226666667 Z255 F150.00 
G01 X4.064 Y37.465 Z255 F150.00 
G01 X4.02166666667 Y37.719 Z255 F150.00 
G01 X4.02166666667 Y37.7613333333 Z255 F150.00 
G01 X3.97933333333 Y37.8036666667 Z255 F150.00 
G01 X3.76766666667 Y37.973 Z255 F150.00 
G01 X3.72533333333 Y38.0153333333 Z255 F150.00 
G01 X3.683 Y38.0153333333 Z255 F150.00 
G01 X3.429 Y37.973 Z255 F150.00 
G01 X3.38666666667 Y37.973 Z255 F150.00 
G01 X3.34433333333 Y37.9306666667 Z255 F150.00 
G01 X3.175 Y37.719 Z255 F150.00 
G01 X3.13266666667 Y37.6766666667 Z255 F150.00 
G01 X3.13266666667 Y37.6343333333 Z255 F150.00 
G01 X3.175 Y37.3803333333 Z255 F150.00 
G01 X3.175 Y37.338 Z255 F150.00 
G01 X3.21733333333 Y37.2956666667 Z255 F150.00 
G01 X3.429 Y37.1263333333 Z255 F150.00 
G01 X3.47133333333 Y37.084 Z255 F150.00 
G01 X3.51366666667 Y37.084 Z255 F150.00 
G01 X3.76766666667 Y37.1263333333 Z255 F150.00 
G01 X3.76766666667 Y37.1263333333 Z255 F150.00 
G00 X4.65666666667 Y39.37 Z0

G01 X4.699 Y39.37 Z255 F150.00 
G01 X4.74133333333 Y39.4123333333 Z255 F150.00 
G01 X4.78366666667 Y39.4123333333 Z255 F150.00 
G01 X4.826 Y39.4546666667 Z255 F150.00 
G01 X4.99533333333 Y39.6663333333 Z255 F150.00 
G01 X5.03766666667 Y39.7086666667 Z255 F150.00 
G01 X5.03766666667 Y39.751 Z255 F150.00 
G01 X5.08 Y39.7933333333 Z255 F150.00 
G01 X5.16466666667 Y39.8356666667 Z255 F150.00 
G01 X6.223 Y39.878 Z255 F150.00 
G01 X6.26533333333 Y39.878 Z255 F150.00 
G01 X6.30766666667 Y39.9203333333 Z255 F150.00 
G01 X7.53533333333 Y41.1056666667 Z255 F150.00 
G01 X10.033 Y41.148 Z255 F150.00 
G01 X10.0753333333 Y41.148 Z255 F150.00 
G01 X10.1176666667 Y41.1903333333 Z255 F150.00 
G01 X10.922 Y41.91 Z255 F150.00 
G01 X10.9643333333 Y41.91 Z255 F150.00 
G01 X11.557 Y41.9523333333 Z255 F150.00 
G01 X12.0226666667 Y42.3756666667 Z255 F150.00 
G01 X13.6736666667 Y42.3333333333 Z255 F150.00 
G01 X13.716 Y42.2486666667 Z255 F150.00 
G01 X13.7583333333 Y42.2063333333 Z255 F150.00 
G01 X14.0123333333 Y41.9946666667 Z255 F150.00 
G01 X14.0546666667 Y41.9523333333 Z255 F150.00 
G01 X14.097 Y41.9523333333 Z255 F150.00 
G01 X14.1816666667 Y41.91 Z255 F150.00 
G01 X14.224 Y41.91 Z255 F150.00 
G01 X15.8326666667 Y41.9523333333 Z255 F150.00 
G01 X15.875 Y41.9523333333 Z255 F150.00 
G01 X15.9596666667 Y41.9946666667 Z255 F150.00 
G01 X16.002 Y41.9946666667 Z255 F150.00 
G01 X16.0443333333 Y42.037 Z255 F150.00 
G01 X16.256 Y42.291 Z255 F150.00 
G01 X16.2983333333 Y42.3333333333 Z255 F150.00 
G01 X16.2983333333 Y42.3756666667 Z255 F150.00 
G01 X16.3406666667 Y42.4603333333 Z255 F150.00 
G01 X16.3406666667 Y42.5026666667 Z255 F150.00 
G01 X16.2983333333 Y42.799 Z255 F150.00 
