/#############################################################/ 
/###########Gcode generated with PathImg.py V0.4##############/ 
/######written by Nick Sidney Lemberger aka Holysocks#########/ 
/#############################################################/ 

/Sylvanas3/ 
/laser_engraver(diode, 445nm)/ 



F100 


G00 X0 Y0 Z0 F100.00
G00 X5.4 Y5.4 Z0 F100.00 

G01 X5.4 Y5.45 Z255 F2.50 
G01 X5.4 Y5.45 Z255 F2.50 
G00 X5.15 Y5.9 Z0 F100.00 

G01 X5.15 Y5.9 Z255 F2.50 
G00 X5.45 Y6.3 Z0 F100.00 

G01 X5.5 Y6.35 Z255 F2.50 
G01 X5.5 Y6.4 Z255 F2.50 
G01 X5.5 Y6.4 Z255 F2.50 
G00 X5.55 Y6.55 Z0 F100.00 

G01 X5.55 Y6.55 Z255 F2.50 
G00 X5.35 Y6.8 Z0 F100.00 

G01 X5.35 Y6.75 Z255 F2.50 
G01 X5.35 Y6.75 Z255 F2.50 
G00 X4.8 Y6.6 Z0 F100.00 

G01 X4.75 Y6.5 Z255 F2.50 
G01 X4.7 Y6.45 Z255 F2.50 
G01 X4.65 Y6.4 Z255 F2.50 
G00 X4.2 Y6.35 Z0 F100.00 

G01 X4.2 Y6.35 Z255 F2.50 
G00 X4.55 Y6.85 Z0 F100.00 

G01 X4.55 Y6.85 Z255 F2.50 
G00 X4.85 Y7.25 Z0 F100.00 

G01 X4.85 Y7.25 Z255 F2.50 
G00 X5.25 Y7.2 Z0 F100.00 

G01 X5.3 Y7.2 Z255 F2.50 
G01 X5.35 Y7.25 Z255 F2.50 
G01 X5.4 Y7.25 Z255 F2.50 
G01 X5.45 Y7.3 Z255 F2.50 
G01 X5.5 Y7.25 Z255 F2.50 
G01 X5.55 Y7.3 Z255 F2.50 
G01 X5.5 Y7.3 Z255 F2.50 
G01 X5.55 Y7.35 Z255 F2.50 
G01 X5.6 Y7.4 Z255 F2.50 
G00 X5.75 Y7.3 Z0 F100.00 

G01 X5.75 Y7.2 Z255 F2.50 
G01 X5.7 Y7.25 Z255 F2.50 
G01 X5.7 Y7.3 Z255 F2.50 
G01 X5.7 Y7.3 Z255 F2.50 
G00 X5.85 Y7.25 Z0 F100.00 

G01 X5.95 Y7.2 Z255 F2.50 
G01 X6.0 Y7.15 Z255 F2.50 
G01 X6.0 Y7.15 Z255 F2.50 
G00 X5.5 Y7.2 Z0 F100.00 

G01 X5.45 Y7.25 Z255 F2.50 
G00 X5.4 Y7.1 Z0 F100.00 

G01 X5.4 Y7.05 Z255 F2.50 
G01 X5.35 Y7.0 Z255 F2.50 
G01 X5.35 Y7.0 Z255 F2.50 
G00 X5.2 Y7.1 Z0 F100.00 

G01 X5.2 Y7.1 Z255 F2.50 
G00 X5.2 Y7.4 Z0 F100.00 

G01 X5.25 Y7.45 Z255 F2.50 
G01 X5.25 Y7.5 Z255 F2.50 
G01 X5.3 Y7.55 Z255 F2.50 
G01 X5.35 Y7.6 Z255 F2.50 
G00 X4.95 Y6.8 Z0 F100.00 

G01 X4.9 Y6.75 Z255 F2.50 
G00 X5.9 Y8.25 Z0 F100.00 

G01 X5.95 Y8.25 Z255 F2.50 
G01 X5.9 Y8.2 Z255 F2.50 
G01 X5.85 Y8.25 Z255 F2.50 
G01 X5.85 Y8.25 Z255 F2.50 
G00 X5.85 Y8.4 Z0 F100.00 

G01 X5.85 Y8.45 Z255 F2.50 
G01 X5.8 Y8.55 Z255 F2.50 
G01 X5.85 Y8.6 Z255 F2.50 
G01 X5.85 Y8.55 Z255 F2.50 
G01 X5.85 Y8.55 Z255 F2.50 
G00 X5.75 Y8.5 Z0 F100.00 

G01 X5.7 Y8.4 Z255 F2.50 
G01 X5.75 Y8.4 Z255 F2.50 
G01 X5.75 Y8.4 Z255 F2.50 
G00 X6.2 Y8.3 Z0 F100.00 

G01 X6.4 Y8.45 Z255 F2.50 
G01 X6.6 Y8.4 Z255 F2.50 
G01 X6.65 Y8.4 Z255 F2.50 
G01 X6.75 Y8.35 Z255 F2.50 
G01 X6.8 Y8.35 Z255 F2.50 
G01 X6.9 Y8.3 Z255 F2.50 
G01 X6.9 Y8.2 Z255 F2.50 
G01 X6.8 Y8.15 Z255 F2.50 
G01 X6.75 Y8.1 Z255 F2.50 
G01 X6.7 Y8.15 Z255 F2.50 
G01 X6.65 Y8.15 Z255 F2.50 
G01 X6.35 Y8.2 Z255 F2.50 
G01 X6.3 Y8.2 Z255 F2.50 
G01 X6.25 Y8.25 Z255 F2.50 
G01 X6.25 Y8.25 Z255 F2.50 
G00 X6.3 Y8.65 Z0 F100.00 

G01 X6.6 Y8.7 Z255 F2.50 
G01 X6.65 Y8.85 Z255 F2.50 
G01 X6.7 Y8.9 Z255 F2.50 
G01 X6.8 Y8.9 Z255 F2.50 
G01 X6.75 Y8.9 Z255 F2.50 
G01 X6.7 Y8.85 Z255 F2.50 
G01 X6.7 Y8.85 Z255 F2.50 
G00 X6.55 Y8.8 Z0 F100.00 

G01 X6.5 Y8.8 Z255 F2.50 
G01 X6.4 Y8.85 Z255 F2.50 
G01 X6.4 Y8.9 Z255 F2.50 
G01 X6.35 Y8.95 Z255 F2.50 
G01 X6.4 Y9.0 Z255 F2.50 
G01 X6.45 Y9.0 Z255 F2.50 
G01 X6.5 Y9.05 Z255 F2.50 
G01 X6.55 Y9.0 Z255 F2.50 
G01 X6.6 Y9.05 Z255 F2.50 
G01 X6.65 Y9.0 Z255 F2.50 
G01 X6.7 Y9.05 Z255 F2.50 
G01 X6.75 Y9.0 Z255 F2.50 
G01 X6.8 Y9.05 Z255 F2.50 
G01 X6.85 Y9.05 Z255 F2.50 
G01 X6.8 Y9.1 Z255 F2.50 
G01 X6.65 Y9.3 Z255 F2.50 
G01 X6.6 Y9.35 Z255 F2.50 
G01 X6.6 Y9.45 Z255 F2.50 
G01 X6.7 Y9.5 Z255 F2.50 
G01 X6.65 Y9.55 Z255 F2.50 
G01 X6.55 Y9.6 Z255 F2.50 
G01 X6.5 Y9.65 Z255 F2.50 
G01 X6.45 Y9.65 Z255 F2.50 
G01 X6.4 Y9.6 Z255 F2.50 
G01 X6.4 Y9.55 Z255 F2.50 
G01 X6.35 Y9.6 Z255 F2.50 
G01 X6.3 Y9.75 Z255 F2.50 
G01 X6.4 Y9.8 Z255 F2.50 
G01 X6.5 Y9.85 Z255 F2.50 
G01 X6.7 Y10.1 Z255 F2.50 
G01 X6.75 Y10.15 Z255 F2.50 
G01 X6.9 Y10.2 Z255 F2.50 
G01 X6.95 Y10.2 Z255 F2.50 
G01 X6.9 Y10.25 Z255 F2.50 
G01 X6.9 Y10.35 Z255 F2.50 
G01 X7.15 Y10.55 Z255 F2.50 
G01 X7.2 Y10.6 Z255 F2.50 
G01 X7.25 Y10.6 Z255 F2.50 
G01 X7.3 Y10.65 Z255 F2.50 
G01 X7.4 Y10.7 Z255 F2.50 
G01 X7.35 Y10.65 Z255 F2.50 
G01 X7.4 Y10.6 Z255 F2.50 
G01 X7.6 Y10.35 Z255 F2.50 
G01 X7.65 Y10.25 Z255 F2.50 
G01 X7.65 Y10.2 Z255 F2.50 
G01 X7.7 Y10.05 Z255 F2.50 
G01 X7.75 Y10.1 Z255 F2.50 
G01 X8.05 Y10.35 Z255 F2.50 
G01 X8.1 Y10.4 Z255 F2.50 
G01 X8.05 Y10.45 Z255 F2.50 
G01 X8.0 Y10.45 Z255 F2.50 
G01 X7.95 Y10.5 Z255 F2.50 
G01 X7.8 Y10.6 Z255 F2.50 
G01 X7.75 Y10.65 Z255 F2.50 
G01 X7.7 Y10.65 Z255 F2.50 
G01 X7.6 Y10.7 Z255 F2.50 
G01 X7.55 Y10.7 Z255 F2.50 
G01 X7.45 Y10.7 Z255 F2.50 
G00 X7.25 Y10.75 Z0 F100.00 

G01 X7.2 Y10.75 Z255 F2.50 
G01 X6.8 Y10.7 Z255 F2.50 
G01 X6.75 Y10.7 Z255 F2.50 
G01 X6.65 Y10.65 Z255 F2.50 
G01 X6.6 Y10.7 Z255 F2.50 
G01 X6.55 Y10.65 Z255 F2.50 
G01 X6.5 Y10.7 Z255 F2.50 
G01 X6.45 Y10.7 Z255 F2.50 
G01 X6.5 Y10.65 Z255 F2.50 
G01 X6.65 Y10.6 Z255 F2.50 
G01 X6.7 Y10.55 Z255 F2.50 
G01 X6.75 Y10.45 Z255 F2.50 
G01 X6.75 Y10.2 Z255 F2.50 
G00 X6.85 Y10.1 Z0 F100.00 

G01 X6.9 Y10.0 Z255 F2.50 
G01 X6.85 Y9.95 Z255 F2.50 
G01 X6.8 Y10.0 Z255 F2.50 
G01 X6.8 Y10.0 Z255 F2.50 
G00 X6.9 Y9.95 Z0 F100.00 

G01 X6.9 Y9.95 Z255 F2.50 
G00 X6.85 Y9.8 Z0 F100.00 

G01 X6.9 Y9.75 Z255 F2.50 
G01 X6.85 Y9.7 Z255 F2.50 
G01 X6.9 Y9.65 Z255 F2.50 
G01 X6.9 Y9.7 Z255 F2.50 
G01 X6.9 Y9.7 Z255 F2.50 
G00 X6.85 Y9.55 Z0 F100.00 

G01 X6.8 Y9.55 Z255 F2.50 
G01 X6.75 Y9.5 Z255 F2.50 
G01 X6.75 Y9.5 Z255 F2.50 
G00 X6.55 Y9.45 Z0 F100.00 

G01 X6.6 Y9.4 Z255 F2.50 
G01 X6.6 Y9.4 Z255 F2.50 
G00 X6.35 Y9.45 Z0 F100.00 

G01 X6.35 Y9.45 Z255 F2.50 
G00 X6.05 Y9.25 Z0 F100.00 

G01 X6.05 Y9.25 Z255 F2.50 
G00 X5.9 Y9.2 Z0 F100.00 

G01 X5.85 Y9.25 Z255 F2.50 
G01 X5.75 Y9.25 Z255 F2.50 
G01 X5.7 Y9.3 Z255 F2.50 
G01 X5.65 Y9.25 Z255 F2.50 
G01 X5.7 Y9.25 Z255 F2.50 
G01 X5.75 Y9.3 Z255 F2.50 
G01 X5.8 Y9.25 Z255 F2.50 
G01 X5.85 Y9.3 Z255 F2.50 
G01 X5.9 Y9.35 Z255 F2.50 
G00 X5.95 Y9.2 Z0 F100.00 

G01 X6.2 Y9.0 Z255 F2.50 
G01 X6.25 Y8.95 Z255 F2.50 
G01 X6.3 Y9.0 Z255 F2.50 
G01 X6.3 Y9.05 Z255 F2.50 
G01 X6.35 Y9.1 Z255 F2.50 
G01 X6.4 Y9.1 Z255 F2.50 
G01 X6.45 Y9.1 Z255 F2.50 
G00 X6.55 Y9.05 Z0 F100.00 

G01 X6.55 Y9.05 Z255 F2.50 
G00 X6.65 Y8.95 Z0 F100.00 

G01 X6.65 Y8.95 Z255 F2.50 
G00 X6.7 Y9.15 Z0 F100.00 

G01 X6.65 Y9.2 Z255 F2.50 
G01 X6.65 Y9.2 Z255 F2.50 
G00 X6.0 Y9.05 Z0 F100.00 

G01 X5.9 Y9.15 Z255 F2.50 
G00 X6.1 Y8.9 Z0 F100.00 

G01 X6.1 Y8.8 Z255 F2.50 
G01 X6.0 Y8.8 Z255 F2.50 
G01 X6.05 Y8.8 Z255 F2.50 
G01 X6.1 Y8.75 Z255 F2.50 
G01 X6.2 Y8.65 Z255 F2.50 
G00 X6.9 Y8.6 Z0 F100.00 

G01 X7.05 Y8.7 Z255 F2.50 
G01 X7.1 Y8.65 Z255 F2.50 
G01 X7.1 Y8.6 Z255 F2.50 
G01 X7.15 Y8.55 Z255 F2.50 
G01 X7.3 Y8.5 Z255 F2.50 
G01 X7.35 Y8.45 Z255 F2.50 
G01 X7.35 Y8.35 Z255 F2.50 
G01 X7.3 Y8.4 Z255 F2.50 
G01 X7.25 Y8.4 Z255 F2.50 
G01 X7.0 Y8.45 Z255 F2.50 
G01 X6.95 Y8.45 Z255 F2.50 
G01 X6.9 Y8.5 Z255 F2.50 
G01 X6.9 Y8.5 Z255 F2.50 
G00 X7.2 Y8.75 Z0 F100.00 

G01 X7.25 Y8.8 Z255 F2.50 
G01 X7.25 Y8.85 Z255 F2.50 
G01 X7.2 Y8.95 Z255 F2.50 
G01 X7.25 Y9.0 Z255 F2.50 
G01 X7.25 Y9.05 Z255 F2.50 
G01 X7.25 Y9.05 Z255 F2.50 
G00 X7.1 Y8.95 Z0 F100.00 

G01 X7.1 Y8.9 Z255 F2.50 
G01 X7.15 Y8.85 Z255 F2.50 
G01 X7.15 Y8.8 Z255 F2.50 
G01 X7.15 Y8.8 Z255 F2.50 
G00 X7.4 Y8.8 Z0 F100.00 

G01 X7.45 Y8.85 Z255 F2.50 
G01 X7.5 Y8.85 Z255 F2.50 
G01 X7.6 Y8.9 Z255 F2.50 
G01 X7.65 Y8.9 Z255 F2.50 
G01 X8.05 Y8.85 Z255 F2.50 
G01 X8.05 Y8.8 Z255 F2.50 
G01 X8.0 Y8.7 Z255 F2.50 
G01 X7.9 Y8.65 Z255 F2.50 
G01 X7.85 Y8.6 Z255 F2.50 
G01 X7.8 Y8.6 Z255 F2.50 
G01 X7.75 Y8.65 Z255 F2.50 
G01 X7.7 Y8.65 Z255 F2.50 
G01 X7.55 Y8.7 Z255 F2.50 
G01 X7.5 Y8.7 Z255 F2.50 
G01 X7.45 Y8.75 Z255 F2.50 
G01 X7.45 Y8.75 Z255 F2.50 
G00 X7.45 Y8.3 Z0 F100.00 

G01 X7.55 Y8.3 Z255 F2.50 
G01 X7.6 Y8.3 Z255 F2.50 
G01 X7.65 Y8.25 Z255 F2.50 
G01 X7.7 Y8.15 Z255 F2.50 
G01 X7.75 Y8.05 Z255 F2.50 
G01 X7.85 Y8.05 Z255 F2.50 
G01 X7.85 Y8.1 Z255 F2.50 
G01 X7.9 Y8.2 Z255 F2.50 
G01 X7.9 Y8.25 Z255 F2.50 
G01 X7.95 Y8.35 Z255 F2.50 
G01 X8.05 Y8.4 Z255 F2.50 
G01 X8.1 Y8.45 Z255 F2.50 
G01 X8.15 Y8.45 Z255 F2.50 
G01 X8.2 Y8.5 Z255 F2.50 
G01 X8.35 Y8.6 Z255 F2.50 
G01 X8.4 Y8.65 Z255 F2.50 
G01 X8.7 Y8.9 Z255 F2.50 
G01 X8.75 Y8.95 Z255 F2.50 
G01 X8.75 Y9.0 Z255 F2.50 
G01 X8.8 Y9.05 Z255 F2.50 
G01 X8.85 Y9.15 Z255 F2.50 
G01 X8.65 Y9.2 Z255 F2.50 
G01 X8.6 Y9.2 Z255 F2.50 
G01 X8.45 Y9.25 Z255 F2.50 
G01 X8.4 Y9.25 Z255 F2.50 
G01 X8.25 Y9.3 Z255 F2.50 
G01 X8.2 Y9.3 Z255 F2.50 
G01 X8.15 Y9.35 Z255 F2.50 
G01 X8.1 Y9.35 Z255 F2.50 
G01 X8.05 Y9.4 Z255 F2.50 
G01 X8.0 Y9.35 Z255 F2.50 
G01 X8.05 Y9.3 Z255 F2.50 
G01 X8.15 Y9.1 Z255 F2.50 
G01 X8.15 Y9.05 Z255 F2.50 
G01 X8.2 Y8.9 Z255 F2.50 
G01 X8.25 Y8.9 Z255 F2.50 
G01 X8.4 Y8.85 Z255 F2.50 
G01 X8.4 Y8.8 Z255 F2.50 
G01 X8.45 Y8.65 Z255 F2.50 
G01 X8.45 Y8.6 Z255 F2.50 
G01 X8.5 Y8.55 Z255 F2.50 
G01 X8.65 Y8.5 Z255 F2.50 
G01 X8.75 Y8.55 Z255 F2.50 
G01 X8.85 Y8.6 Z255 F2.50 
G01 X8.9 Y8.55 Z255 F2.50 
G01 X9.0 Y8.55 Z255 F2.50 
G01 X9.1 Y8.55 Z255 F2.50 
G01 X9.2 Y8.5 Z255 F2.50 
G01 X9.2 Y8.5 Z255 F2.50 
G00 X9.05 Y8.5 Z0 F100.00 

G01 X8.95 Y8.55 Z255 F2.50 
G01 X8.9 Y8.5 Z255 F2.50 
G01 X8.85 Y8.5 Z255 F2.50 
G01 X8.85 Y8.5 Z255 F2.50 
G00 X8.9 Y8.7 Z0 F100.00 

G01 X9.0 Y8.7 Z255 F2.50 
G01 X9.0 Y8.65 Z255 F2.50 
G01 X8.95 Y8.65 Z255 F2.50 
G00 X8.9 Y8.85 Z0 F100.00 

G01 X8.85 Y8.85 Z255 F2.50 
G01 X8.9 Y8.9 Z255 F2.50 
G01 X8.9 Y8.9 Z255 F2.50 
G00 X9.05 Y9.0 Z0 F100.00 

G01 X9.1 Y8.95 Z255 F2.50 
G01 X9.15 Y8.95 Z255 F2.50 
G01 X9.2 Y8.9 Z255 F2.50 
G01 X9.2 Y8.8 Z255 F2.50 
G01 X9.25 Y8.75 Z255 F2.50 
G01 X9.35 Y8.75 Z255 F2.50 
G01 X9.35 Y8.8 Z255 F2.50 
G01 X9.4 Y8.85 Z255 F2.50 
G01 X9.35 Y8.9 Z255 F2.50 
G01 X9.3 Y8.85 Z255 F2.50 
G01 X9.3 Y8.85 Z255 F2.50 
G00 X9.35 Y9.0 Z0 F100.00 

G01 X9.4 Y9.2 Z255 F2.50 
G01 X9.45 Y9.15 Z255 F2.50 
G01 X9.45 Y9.1 Z255 F2.50 
G01 X9.5 Y8.95 Z255 F2.50 
G01 X9.5 Y8.9 Z255 F2.50 
G01 X9.55 Y8.8 Z255 F2.50 
G01 X9.55 Y8.75 Z255 F2.50 
G01 X9.6 Y8.7 Z255 F2.50 
G01 X9.55 Y8.65 Z255 F2.50 
G01 X9.6 Y8.6 Z255 F2.50 
G01 X9.8 Y8.45 Z255 F2.50 
G01 X9.75 Y8.5 Z255 F2.50 
G01 X9.8 Y8.55 Z255 F2.50 
G01 X9.85 Y8.55 Z255 F2.50 
G01 X9.9 Y8.5 Z255 F2.50 
G01 X9.85 Y8.45 Z255 F2.50 
G01 X9.9 Y8.4 Z255 F2.50 
G01 X9.95 Y8.4 Z255 F2.50 
G01 X10.0 Y8.35 Z255 F2.50 
G01 X10.1 Y8.2 Z255 F2.50 
G01 X10.05 Y8.15 Z255 F2.50 
G01 X10.0 Y8.15 Z255 F2.50 
G01 X10.0 Y8.15 Z255 F2.50 
G00 X9.95 Y8.0 Z0 F100.00 

G01 X9.85 Y7.95 Z255 F2.50 
G01 X9.8 Y8.0 Z255 F2.50 
G01 X9.65 Y8.1 Z255 F2.50 
G01 X9.7 Y8.05 Z255 F2.50 
G01 X9.75 Y7.95 Z255 F2.50 
G01 X9.7 Y7.65 Z255 F2.50 
G01 X9.7 Y7.6 Z255 F2.50 
G01 X9.65 Y7.5 Z255 F2.50 
G01 X9.6 Y7.5 Z255 F2.50 
G01 X9.55 Y7.55 Z255 F2.50 
G01 X9.45 Y7.7 Z255 F2.50 
G01 X9.4 Y7.8 Z255 F2.50 
G01 X9.35 Y7.75 Z255 F2.50 
G01 X9.3 Y7.65 Z255 F2.50 
G01 X9.25 Y7.6 Z255 F2.50 
G01 X9.3 Y7.55 Z255 F2.50 
G01 X9.35 Y7.55 Z255 F2.50 
G01 X9.45 Y7.5 Z255 F2.50 
G01 X9.5 Y7.5 Z255 F2.50 
G01 X9.55 Y7.45 Z255 F2.50 
G01 X9.6 Y7.35 Z255 F2.50 
G01 X9.55 Y7.25 Z255 F2.50 
G01 X9.5 Y7.25 Z255 F2.50 
G01 X9.35 Y7.3 Z255 F2.50 
G01 X9.25 Y7.35 Z255 F2.50 
G01 X9.2 Y7.4 Z255 F2.50 
G01 X9.15 Y7.4 Z255 F2.50 
G01 X9.1 Y7.45 Z255 F2.50 
G01 X9.1 Y7.55 Z255 F2.50 
G01 X9.2 Y7.6 Z255 F2.50 
G01 X9.15 Y7.55 Z255 F2.50 
G01 X9.1 Y7.6 Z255 F2.50 
G01 X9.05 Y7.6 Z255 F2.50 
G01 X8.95 Y7.55 Z255 F2.50 
G01 X8.9 Y7.6 Z255 F2.50 
G01 X8.85 Y7.55 Z255 F2.50 
G01 X8.9 Y7.5 Z255 F2.50 
G01 X8.85 Y7.5 Z255 F2.50 
G01 X8.9 Y7.45 Z255 F2.50 
G01 X8.9 Y7.4 Z255 F2.50 
G01 X8.95 Y7.35 Z255 F2.50 
G01 X9.1 Y7.3 Z255 F2.50 
G01 X9.15 Y7.25 Z255 F2.50 
G01 X9.15 Y7.15 Z255 F2.50 
G01 X9.2 Y7.1 Z255 F2.50 
G01 X9.35 Y7.0 Z255 F2.50 
G01 X9.4 Y6.95 Z255 F2.50 
G01 X9.5 Y6.75 Z255 F2.50 
G01 X9.45 Y6.8 Z255 F2.50 
G01 X9.45 Y6.85 Z255 F2.50 
G01 X9.5 Y6.9 Z255 F2.50 
G01 X9.5 Y6.9 Z255 F2.50 
G00 X9.35 Y6.9 Z0 F100.00 

G01 X9.3 Y6.95 Z255 F2.50 
G01 X9.25 Y6.9 Z255 F2.50 
G01 X9.25 Y6.8 Z255 F2.50 
G01 X9.3 Y6.8 Z255 F2.50 
G01 X9.25 Y6.85 Z255 F2.50 
G01 X9.3 Y6.9 Z255 F2.50 
G01 X9.3 Y6.9 Z255 F2.50 
G00 X9.15 Y6.85 Z0 F100.00 

G01 X9.15 Y6.85 Z255 F2.50 
G00 X9.1 Y7.0 Z0 F100.00 

G01 X9.2 Y7.05 Z255 F2.50 
G01 X9.15 Y7.0 Z255 F2.50 
G01 X9.1 Y7.05 Z255 F2.50 
G01 X9.05 Y7.0 Z255 F2.50 
G01 X9.0 Y7.0 Z255 F2.50 
G01 X8.95 Y6.95 Z255 F2.50 
G01 X9.0 Y6.9 Z255 F2.50 
G01 X8.95 Y6.9 Z255 F2.50 
G01 X8.9 Y6.85 Z255 F2.50 
G01 X8.85 Y6.9 Z255 F2.50 
G01 X8.8 Y6.85 Z255 F2.50 
G01 X8.7 Y6.8 Z255 F2.50 
G01 X8.75 Y6.85 Z255 F2.50 
G01 X8.75 Y6.85 Z255 F2.50 
G00 X8.6 Y6.9 Z0 F100.00 

G01 X8.3 Y7.15 Z255 F2.50 
G01 X8.35 Y7.1 Z255 F2.50 
G01 X8.35 Y7.1 Z255 F2.50 
G00 X8.4 Y6.95 Z0 F100.00 

G01 X8.45 Y6.95 Z255 F2.50 
G01 X8.45 Y6.95 Z255 F2.50 
G00 X8.25 Y7.05 Z0 F100.00 

G01 X8.15 Y7.1 Z255 F2.50 
G01 X8.2 Y7.05 Z255 F2.50 
G01 X8.3 Y6.9 Z255 F2.50 
G01 X8.25 Y6.8 Z255 F2.50 
G01 X8.15 Y6.75 Z255 F2.50 
G01 X8.0 Y6.8 Z255 F2.50 
G01 X7.95 Y6.75 Z255 F2.50 
G01 X7.9 Y6.8 Z255 F2.50 
G01 X7.85 Y6.75 Z255 F2.50 
G01 X7.9 Y6.7 Z255 F2.50 
G01 X7.95 Y6.7 Z255 F2.50 
G01 X8.0 Y6.65 Z255 F2.50 
G01 X7.95 Y6.6 Z255 F2.50 
G01 X7.9 Y6.65 Z255 F2.50 
G01 X7.9 Y6.6 Z255 F2.50 
G01 X7.85 Y6.55 Z255 F2.50 
G01 X7.8 Y6.55 Z255 F2.50 
G01 X7.7 Y6.6 Z255 F2.50 
G01 X7.65 Y6.6 Z255 F2.50 
G01 X7.5 Y6.65 Z255 F2.50 
G01 X7.45 Y6.65 Z255 F2.50 
G01 X7.35 Y6.7 Z255 F2.50 
G01 X7.35 Y6.65 Z255 F2.50 
G01 X7.4 Y6.55 Z255 F2.50 
G01 X7.55 Y6.45 Z255 F2.50 
G01 X7.7 Y6.4 Z255 F2.50 
G01 X7.75 Y6.4 Z255 F2.50 
G01 X7.95 Y6.45 Z255 F2.50 
G01 X8.0 Y6.45 Z255 F2.50 
G01 X8.1 Y6.5 Z255 F2.50 
G01 X8.15 Y6.5 Z255 F2.50 
G01 X8.3 Y6.55 Z255 F2.50 
G01 X8.35 Y6.55 Z255 F2.50 
G01 X8.4 Y6.6 Z255 F2.50 
G01 X8.5 Y6.65 Z255 F2.50 
G01 X8.55 Y6.7 Z255 F2.50 
G01 X8.6 Y6.7 Z255 F2.50 
G01 X8.65 Y6.75 Z255 F2.50 
G01 X8.65 Y6.75 Z255 F2.50 
G00 X8.9 Y6.9 Z0 F100.00 

G01 X8.9 Y6.9 Z255 F2.50 
G00 X9.1 Y7.2 Z0 F100.00 

G01 X9.1 Y7.2 Z255 F2.50 
G00 X9.3 Y7.2 Z0 F100.00 

G01 X9.35 Y7.15 Z255 F2.50 
G01 X9.45 Y7.1 Z255 F2.50 
G01 X9.6 Y7.05 Z255 F2.50 
G01 X9.65 Y7.05 Z255 F2.50 
G01 X9.7 Y7.0 Z255 F2.50 
G01 X9.8 Y6.95 Z255 F2.50 
G01 X9.85 Y6.9 Z255 F2.50 
G01 X9.9 Y6.95 Z255 F2.50 
G01 X9.95 Y6.95 Z255 F2.50 
G01 X10.0 Y7.0 Z255 F2.50 
G01 X10.0 Y7.05 Z255 F2.50 
G01 X10.05 Y7.15 Z255 F2.50 
G01 X10.0 Y7.2 Z255 F2.50 
G01 X10.05 Y7.25 Z255 F2.50 
G01 X10.1 Y7.25 Z255 F2.50 
G01 X10.2 Y7.2 Z255 F2.50 
G01 X10.15 Y7.15 Z255 F2.50 
G01 X10.1 Y7.15 Z255 F2.50 
G01 X10.1 Y7.15 Z255 F2.50 
G00 X9.9 Y7.2 Z0 F100.00 

G01 X9.9 Y7.3 Z255 F2.50 
G01 X9.95 Y7.4 Z255 F2.50 
G01 X10.0 Y7.45 Z255 F2.50 
G01 X9.95 Y7.5 Z255 F2.50 
G01 X9.9 Y7.45 Z255 F2.50 
G01 X9.8 Y7.3 Z255 F2.50 
G01 X9.8 Y7.3 Z255 F2.50 
G00 X9.8 Y7.15 Z0 F100.00 

G01 X9.85 Y7.1 Z255 F2.50 
G01 X9.85 Y7.05 Z255 F2.50 
G01 X9.9 Y7.0 Z255 F2.50 
G01 X9.9 Y7.0 Z255 F2.50 
G00 X9.75 Y7.0 Z0 F100.00 

G01 X9.75 Y7.0 Z255 F2.50 
G00 X9.75 Y6.75 Z0 F100.00 

G01 X9.85 Y6.6 Z255 F2.50 
G01 X9.8 Y6.65 Z255 F2.50 
G01 X9.75 Y6.65 Z255 F2.50 
G01 X9.7 Y6.7 Z255 F2.50 
G01 X9.7 Y6.75 Z255 F2.50 
G01 X9.65 Y6.8 Z255 F2.50 
G01 X9.65 Y6.8 Z255 F2.50 
G00 X9.7 Y6.65 Z0 F100.00 

G01 X9.7 Y6.6 Z255 F2.50 
G01 X9.7 Y6.6 Z255 F2.50 
G00 X10.1 Y6.4 Z0 F100.00 

G01 X10.15 Y6.25 Z255 F2.50 
G01 X10.2 Y6.2 Z255 F2.50 
G01 X10.35 Y6.0 Z255 F2.50 
G01 X10.4 Y5.95 Z255 F2.50 
G01 X10.35 Y5.9 Z255 F2.50 
G01 X10.4 Y5.85 Z255 F2.50 
G01 X10.45 Y5.85 Z255 F2.50 
G01 X10.4 Y5.9 Z255 F2.50 
G01 X10.4 Y5.9 Z255 F2.50 
G00 X10.35 Y5.75 Z0 F100.00 

G01 X10.4 Y5.7 Z255 F2.50 
G01 X10.45 Y5.75 Z255 F2.50 
G01 X10.5 Y5.7 Z255 F2.50 
G01 X10.5 Y5.65 Z255 F2.50 
G01 X10.45 Y5.6 Z255 F2.50 
G01 X10.4 Y5.65 Z255 F2.50 
G01 X10.4 Y5.65 Z255 F2.50 
G00 X10.4 Y5.5 Z0 F100.00 

G01 X10.45 Y5.45 Z255 F2.50 
G01 X10.5 Y5.5 Z255 F2.50 
G01 X10.5 Y5.5 Z255 F2.50 
G00 X10.4 Y5.35 Z0 F100.00 

G01 X10.4 Y5.3 Z255 F2.50 
G01 X10.35 Y5.15 Z255 F2.50 
G01 X10.25 Y5.0 Z255 F2.50 
G01 X10.3 Y4.95 Z255 F2.50 
G01 X10.35 Y4.95 Z255 F2.50 
G01 X10.4 Y5.0 Z255 F2.50 
G01 X10.55 Y5.2 Z255 F2.50 
G01 X10.55 Y5.2 Z255 F2.50 
G00 X10.5 Y5.05 Z0 F100.00 

G01 X10.45 Y5.1 Z255 F2.50 
G01 X10.45 Y5.1 Z255 F2.50 
G00 X10.45 Y4.95 Z0 F100.00 

G01 X10.45 Y4.9 Z255 F2.50 
G01 X10.4 Y4.85 Z255 F2.50 
G01 X10.35 Y4.75 Z255 F2.50 
G01 X10.3 Y4.7 Z255 F2.50 
G01 X10.3 Y4.65 Z255 F2.50 
G01 X10.35 Y4.6 Z255 F2.50 
G01 X10.45 Y4.6 Z255 F2.50 
G01 X10.4 Y4.6 Z255 F2.50 
G01 X10.45 Y4.65 Z255 F2.50 
G01 X10.45 Y4.7 Z255 F2.50 
G01 X10.5 Y4.75 Z255 F2.50 
G01 X10.5 Y4.75 Z255 F2.50 
G00 X10.45 Y4.45 Z0 F100.00 

G01 X10.65 Y4.3 Z255 F2.50 
G01 X10.7 Y4.25 Z255 F2.50 
G01 X10.75 Y4.1 Z255 F2.50 
G01 X10.7 Y4.1 Z255 F2.50 
G01 X10.5 Y4.05 Z255 F2.50 
G01 X10.45 Y4.05 Z255 F2.50 
G01 X10.1 Y4.1 Z255 F2.50 
G01 X10.05 Y4.1 Z255 F2.50 
G01 X9.8 Y4.15 Z255 F2.50 
G01 X9.75 Y4.15 Z255 F2.50 
G01 X9.8 Y4.2 Z255 F2.50 
G01 X9.75 Y4.25 Z255 F2.50 
G01 X9.7 Y4.2 Z255 F2.50 
G01 X9.65 Y4.2 Z255 F2.50 
G01 X9.7 Y4.15 Z255 F2.50 
G01 X9.7 Y4.15 Z255 F2.50 
G00 X9.55 Y4.2 Z0 F100.00 

G01 X9.5 Y4.25 Z255 F2.50 
G01 X9.45 Y4.25 Z255 F2.50 
G01 X9.4 Y4.3 Z255 F2.50 
G01 X9.2 Y4.45 Z255 F2.50 
G01 X9.15 Y4.5 Z255 F2.50 
G01 X9.1 Y4.45 Z255 F2.50 
G01 X9.15 Y4.4 Z255 F2.50 
G01 X9.2 Y4.35 Z255 F2.50 
G00 X9.05 Y4.45 Z0 F100.00 

G01 X8.95 Y4.45 Z255 F2.50 
G01 X9.0 Y4.4 Z255 F2.50 
G01 X8.95 Y4.4 Z255 F2.50 
G01 X8.9 Y4.45 Z255 F2.50 
G01 X8.9 Y4.55 Z255 F2.50 
G01 X9.0 Y4.55 Z255 F2.50 
G01 X9.0 Y4.55 Z255 F2.50 
G00 X8.95 Y4.65 Z0 F100.00 

G01 X8.9 Y4.7 Z255 F2.50 
G01 X8.85 Y4.65 Z255 F2.50 
G01 X8.8 Y4.65 Z255 F2.50 
G01 X8.75 Y4.7 Z255 F2.50 
G01 X8.7 Y4.65 Z255 F2.50 
G01 X8.75 Y4.6 Z255 F2.50 
G01 X8.75 Y4.55 Z255 F2.50 
G01 X8.7 Y4.6 Z255 F2.50 
G01 X8.6 Y4.75 Z255 F2.50 
G01 X8.65 Y4.9 Z255 F2.50 
G01 X8.75 Y4.95 Z255 F2.50 
G01 X8.8 Y5.0 Z255 F2.50 
G01 X8.75 Y5.05 Z255 F2.50 
G01 X8.65 Y5.05 Z255 F2.50 
G01 X8.7 Y5.0 Z255 F2.50 
G01 X8.7 Y5.0 Z255 F2.50 
G00 X8.55 Y5.0 Z0 F100.00 

G01 X8.4 Y5.25 Z255 F2.50 
G01 X8.5 Y5.25 Z255 F2.50 
G01 X8.6 Y5.25 Z255 F2.50 
G01 X8.65 Y5.2 Z255 F2.50 
G01 X8.8 Y5.15 Z255 F2.50 
G01 X8.85 Y5.15 Z255 F2.50 
G01 X8.9 Y5.2 Z255 F2.50 
G01 X8.85 Y5.25 Z255 F2.50 
G01 X8.8 Y5.2 Z255 F2.50 
G01 X8.75 Y5.25 Z255 F2.50 
G01 X8.7 Y5.2 Z255 F2.50 
G01 X8.7 Y5.2 Z255 F2.50 
G00 X8.65 Y5.1 Z0 F100.00 

G01 X8.6 Y5.1 Z255 F2.50 
G01 X8.55 Y5.15 Z255 F2.50 
G01 X8.55 Y5.15 Z255 F2.50 
G00 X8.4 Y5.2 Z0 F100.00 

G01 X8.45 Y5.25 Z255 F2.50 
G01 X8.45 Y5.25 Z255 F2.50 
G00 X8.4 Y5.4 Z0 F100.00 

G01 X8.45 Y5.45 Z255 F2.50 
G01 X8.4 Y5.5 Z255 F2.50 
G01 X8.35 Y5.65 Z255 F2.50 
G01 X8.35 Y5.75 Z255 F2.50 
G01 X8.4 Y5.8 Z255 F2.50 
G01 X8.35 Y5.8 Z255 F2.50 
G01 X8.35 Y5.8 Z255 F2.50 
G00 X8.3 Y5.65 Z0 F100.00 

G01 X8.4 Y5.65 Z255 F2.50 
G01 X8.4 Y5.65 Z255 F2.50 
G00 X8.25 Y5.5 Z0 F100.00 

G01 X8.3 Y5.45 Z255 F2.50 
G01 X8.4 Y5.45 Z255 F2.50 
G01 X8.4 Y5.45 Z255 F2.50 
G00 X8.55 Y5.4 Z0 F100.00 

G01 X8.6 Y5.45 Z255 F2.50 
G01 X8.65 Y5.45 Z255 F2.50 
G01 X8.7 Y5.5 Z255 F2.50 
G01 X8.8 Y5.5 Z255 F2.50 
G01 X8.85 Y5.4 Z255 F2.50 
G01 X8.9 Y5.35 Z255 F2.50 
G01 X8.95 Y5.35 Z255 F2.50 
G01 X9.0 Y5.3 Z255 F2.50 
G01 X9.15 Y5.1 Z255 F2.50 
G01 X9.2 Y5.05 Z255 F2.50 
G01 X9.3 Y5.0 Z255 F2.50 
G01 X9.4 Y5.05 Z255 F2.50 
G01 X9.45 Y5.05 Z255 F2.50 
G01 X9.6 Y5.1 Z255 F2.50 
G01 X9.65 Y5.1 Z255 F2.50 
G01 X9.7 Y5.15 Z255 F2.50 
G01 X9.75 Y5.15 Z255 F2.50 
G01 X9.8 Y5.2 Z255 F2.50 
G01 X9.8 Y5.25 Z255 F2.50 
G01 X9.85 Y5.4 Z255 F2.50 
G01 X9.8 Y5.45 Z255 F2.50 
G01 X9.8 Y5.5 Z255 F2.50 
G01 X9.85 Y5.6 Z255 F2.50 
G01 X10.05 Y5.7 Z255 F2.50 
G01 X10.05 Y5.65 Z255 F2.50 
G01 X10.0 Y5.5 Z255 F2.50 
G01 X9.9 Y5.4 Z255 F2.50 
G00 X9.85 Y5.65 Z0 F100.00 

G01 X9.9 Y5.6 Z255 F2.50 
G01 X9.9 Y5.6 Z255 F2.50 
G00 X9.8 Y5.75 Z0 F100.00 

G01 X9.8 Y5.8 Z255 F2.50 
G01 X9.85 Y5.85 Z255 F2.50 
G01 X9.9 Y5.85 Z255 F2.50 
G01 X9.95 Y5.9 Z255 F2.50 
G01 X10.0 Y5.85 Z255 F2.50 
G01 X9.95 Y5.8 Z255 F2.50 
G01 X9.95 Y5.8 Z255 F2.50 
G00 X9.9 Y5.95 Z0 F100.00 

G01 X9.9 Y6.0 Z255 F2.50 
G01 X9.95 Y6.05 Z255 F2.50 
G01 X10.05 Y6.05 Z255 F2.50 
G01 X10.15 Y6.05 Z255 F2.50 
G01 X10.15 Y6.15 Z255 F2.50 
G01 X10.1 Y6.15 Z255 F2.50 
G01 X10.15 Y6.1 Z255 F2.50 
G01 X10.15 Y6.1 Z255 F2.50 
G00 X10.0 Y6.15 Z0 F100.00 

G01 X10.0 Y6.2 Z255 F2.50 
G01 X10.05 Y6.3 Z255 F2.50 
G01 X10.1 Y6.35 Z255 F2.50 
G00 X10.25 Y6.2 Z0 F100.00 

G01 X10.3 Y6.15 Z255 F2.50 
G00 X10.45 Y6.1 Z0 F100.00 

G01 X10.45 Y6.05 Z255 F2.50 
G01 X10.5 Y6.0 Z255 F2.50 
G01 X10.5 Y5.95 Z255 F2.50 
G01 X10.55 Y5.9 Z255 F2.50 
G01 X10.6 Y5.9 Z255 F2.50 
G01 X10.65 Y5.95 Z255 F2.50 
G01 X10.7 Y5.9 Z255 F2.50 
G01 X10.65 Y5.85 Z255 F2.50 
G01 X10.7 Y5.8 Z255 F2.50 
G01 X10.75 Y5.7 Z255 F2.50 
G01 X10.8 Y5.65 Z255 F2.50 
G01 X10.9 Y5.55 Z255 F2.50 
G00 X11.15 Y5.65 Z0 F100.00 

G01 X11.2 Y5.65 Z255 F2.50 
G01 X11.25 Y5.6 Z255 F2.50 
G01 X11.3 Y5.65 Z255 F2.50 
G01 X11.35 Y5.6 Z255 F2.50 
G01 X11.6 Y5.3 Z255 F2.50 
G01 X11.65 Y5.25 Z255 F2.50 
G01 X11.7 Y5.15 Z255 F2.50 
G01 X11.75 Y5.1 Z255 F2.50 
G01 X11.85 Y4.95 Z255 F2.50 
G01 X11.9 Y4.9 Z255 F2.50 
G01 X11.95 Y4.8 Z255 F2.50 
G01 X12.0 Y4.75 Z255 F2.50 
G01 X11.95 Y4.7 Z255 F2.50 
G01 X11.9 Y4.75 Z255 F2.50 
G01 X11.85 Y4.85 Z255 F2.50 
G01 X11.8 Y4.9 Z255 F2.50 
G01 X11.75 Y5.0 Z255 F2.50 
G01 X11.7 Y5.05 Z255 F2.50 
G01 X11.55 Y5.25 Z255 F2.50 
G01 X11.5 Y5.3 Z255 F2.50 
G01 X11.45 Y5.45 Z255 F2.50 
G01 X11.45 Y5.45 Z255 F2.50 
G00 X11.3 Y5.5 Z0 F100.00 

G01 X11.3 Y5.55 Z255 F2.50 
G01 X11.35 Y5.5 Z255 F2.50 
G01 X11.35 Y5.5 Z255 F2.50 
G00 X11.4 Y5.6 Z0 F100.00 

G01 X11.25 Y5.8 Z255 F2.50 
G01 X11.2 Y5.85 Z255 F2.50 
G01 X11.2 Y5.85 Z255 F2.50 
G00 X11.05 Y5.85 Z0 F100.00 

G01 X11.1 Y5.9 Z255 F2.50 
G01 X11.1 Y6.0 Z255 F2.50 
G01 X11.0 Y6.0 Z255 F2.50 
G01 X11.05 Y5.95 Z255 F2.50 
G01 X11.05 Y5.95 Z255 F2.50 
G00 X11.05 Y6.1 Z0 F100.00 

G01 X11.0 Y6.25 Z255 F2.50 
G01 X10.95 Y6.3 Z255 F2.50 
G01 X10.95 Y6.35 Z255 F2.50 
G01 X10.9 Y6.4 Z255 F2.50 
G01 X10.8 Y6.45 Z255 F2.50 
G01 X10.85 Y6.5 Z255 F2.50 
G01 X10.8 Y6.55 Z255 F2.50 
G01 X10.7 Y6.7 Z255 F2.50 
G01 X10.75 Y6.75 Z255 F2.50 
G01 X10.7 Y6.8 Z255 F2.50 
G01 X10.75 Y6.85 Z255 F2.50 
G01 X10.75 Y6.9 Z255 F2.50 
G01 X10.8 Y7.1 Z255 F2.50 
G01 X10.85 Y7.05 Z255 F2.50 
G01 X10.9 Y7.1 Z255 F2.50 
G01 X10.95 Y7.05 Z255 F2.50 
G01 X11.0 Y7.05 Z255 F2.50 
G01 X11.05 Y7.1 Z255 F2.50 
G01 X11.1 Y7.05 Z255 F2.50 
G01 X11.15 Y7.1 Z255 F2.50 
G01 X11.15 Y7.15 Z255 F2.50 
G01 X11.2 Y7.5 Z255 F2.50 
G01 X11.2 Y7.55 Z255 F2.50 
G01 X11.15 Y7.6 Z255 F2.50 
G01 X11.15 Y7.65 Z255 F2.50 
G01 X11.2 Y7.7 Z255 F2.50 
G01 X11.2 Y7.75 Z255 F2.50 
G01 X11.15 Y7.8 Z255 F2.50 
G01 X11.15 Y7.85 Z255 F2.50 
G01 X11.2 Y8.0 Z255 F2.50 
G01 X11.25 Y7.95 Z255 F2.50 
G01 X11.3 Y7.95 Z255 F2.50 
G01 X11.35 Y7.9 Z255 F2.50 
G01 X11.4 Y7.8 Z255 F2.50 
G01 X11.45 Y7.7 Z255 F2.50 
G01 X11.5 Y7.7 Z255 F2.50 
G01 X11.65 Y7.65 Z255 F2.50 
G01 X11.65 Y7.55 Z255 F2.50 
G01 X11.65 Y7.6 Z255 F2.50 
G01 X11.65 Y7.6 Z255 F2.50 
G00 X11.8 Y7.65 Z0 F100.00 

G01 X11.75 Y7.7 Z255 F2.50 
G01 X11.75 Y7.75 Z255 F2.50 
G01 X11.7 Y7.8 Z255 F2.50 
G01 X11.65 Y7.9 Z255 F2.50 
G01 X11.6 Y7.95 Z255 F2.50 
G01 X11.6 Y8.0 Z255 F2.50 
G01 X11.65 Y8.05 Z255 F2.50 
G01 X11.75 Y8.05 Z255 F2.50 
G01 X11.75 Y8.1 Z255 F2.50 
G01 X11.7 Y8.15 Z255 F2.50 
G01 X11.7 Y8.2 Z255 F2.50 
G01 X11.75 Y8.35 Z255 F2.50 
G01 X11.8 Y8.35 Z255 F2.50 
G01 X11.85 Y8.4 Z255 F2.50 
G01 X11.9 Y8.35 Z255 F2.50 
G01 X11.95 Y8.35 Z255 F2.50 
G01 X12.05 Y8.4 Z255 F2.50 
G01 X12.0 Y8.45 Z255 F2.50 
G01 X11.95 Y8.45 Z255 F2.50 
G01 X11.9 Y8.5 Z255 F2.50 
G01 X11.85 Y8.5 Z255 F2.50 
G01 X11.8 Y8.55 Z255 F2.50 
G01 X11.8 Y8.65 Z255 F2.50 
G01 X11.8 Y8.7 Z255 F2.50 
G01 X11.85 Y8.75 Z255 F2.50 
G01 X11.85 Y8.8 Z255 F2.50 
G01 X11.9 Y8.9 Z255 F2.50 
G01 X12.0 Y8.95 Z255 F2.50 
G01 X12.05 Y9.0 Z255 F2.50 
G01 X12.15 Y9.05 Z255 F2.50 
G01 X12.2 Y9.0 Z255 F2.50 
G01 X12.25 Y9.0 Z255 F2.50 
G01 X12.45 Y9.05 Z255 F2.50 
G01 X12.65 Y9.2 Z255 F2.50 
G01 X12.7 Y9.25 Z255 F2.50 
G01 X12.8 Y9.3 Z255 F2.50 
G01 X12.85 Y9.25 Z255 F2.50 
G01 X12.85 Y9.15 Z255 F2.50 
G01 X12.9 Y9.1 Z255 F2.50 
G01 X13.05 Y9.0 Z255 F2.50 
G01 X13.1 Y9.05 Z255 F2.50 
G01 X13.25 Y9.1 Z255 F2.50 
G01 X13.2 Y9.05 Z255 F2.50 
G01 X13.15 Y9.0 Z255 F2.50 
G00 X13.05 Y9.1 Z0 F100.00 

G01 X13.0 Y9.05 Z255 F2.50 
G01 X12.85 Y9.0 Z255 F2.50 
G01 X12.85 Y9.05 Z255 F2.50 
G01 X12.9 Y9.15 Z255 F2.50 
G01 X12.9 Y9.15 Z255 F2.50 
G00 X12.75 Y9.2 Z0 F100.00 

G01 X12.7 Y9.2 Z255 F2.50 
G00 X12.6 Y9.3 Z0 F100.00 

G01 X12.45 Y9.35 Z255 F2.50 
G01 X12.5 Y9.4 Z255 F2.50 
G01 X12.5 Y9.45 Z255 F2.50 
G01 X12.55 Y9.55 Z255 F2.50 
G01 X12.6 Y9.5 Z255 F2.50 
G01 X12.65 Y9.4 Z255 F2.50 
G01 X12.6 Y9.45 Z255 F2.50 
G01 X12.65 Y9.5 Z255 F2.50 
G01 X12.6 Y9.55 Z255 F2.50 
G01 X12.65 Y9.6 Z255 F2.50 
G01 X12.65 Y9.65 Z255 F2.50 
G01 X12.7 Y9.75 Z255 F2.50 
G01 X12.7 Y9.8 Z255 F2.50 
G01 X12.75 Y9.85 Z255 F2.50 
G01 X12.8 Y9.95 Z255 F2.50 
G01 X12.85 Y10.05 Z255 F2.50 
G01 X12.9 Y10.05 Z255 F2.50 
G01 X12.95 Y10.0 Z255 F2.50 
G01 X13.05 Y9.95 Z255 F2.50 
G01 X13.35 Y10.0 Z255 F2.50 
G01 X13.55 Y10.15 Z255 F2.50 
G01 X13.6 Y10.2 Z255 F2.50 
G01 X13.65 Y10.2 Z255 F2.50 
G01 X13.7 Y10.25 Z255 F2.50 
G01 X13.8 Y10.3 Z255 F2.50 
G01 X13.85 Y10.35 Z255 F2.50 
G01 X14.05 Y10.6 Z255 F2.50 
G01 X14.1 Y10.65 Z255 F2.50 
G01 X14.2 Y10.65 Z255 F2.50 
G01 X14.25 Y10.7 Z255 F2.50 
G01 X14.35 Y10.7 Z255 F2.50 
G01 X14.4 Y10.75 Z255 F2.50 
G01 X14.4 Y10.8 Z255 F2.50 
G01 X14.45 Y10.9 Z255 F2.50 
G01 X14.45 Y10.95 Z255 F2.50 
G01 X14.4 Y11.1 Z255 F2.50 
G01 X14.45 Y11.15 Z255 F2.50 
G01 X14.4 Y11.2 Z255 F2.50 
G01 X14.45 Y11.25 Z255 F2.50 
G01 X14.4 Y11.3 Z255 F2.50 
G01 X14.4 Y11.4 Z255 F2.50 
G01 X14.35 Y11.45 Z255 F2.50 
G01 X14.3 Y11.45 Z255 F2.50 
G01 X14.35 Y11.4 Z255 F2.50 
G01 X14.45 Y11.3 Z255 F2.50 
G00 X14.4 Y11.15 Z0 F100.00 

G01 X14.45 Y11.1 Z255 F2.50 
G01 X14.45 Y11.1 Z255 F2.50 
G00 X14.35 Y11.0 Z0 F100.00 

G01 X14.3 Y10.95 Z255 F2.50 
G01 X14.25 Y11.0 Z255 F2.50 
G01 X14.25 Y11.05 Z255 F2.50 
G01 X14.3 Y11.15 Z255 F2.50 
G01 X14.3 Y11.2 Z255 F2.50 
G01 X14.35 Y11.25 Z255 F2.50 
G01 X14.35 Y11.25 Z255 F2.50 
G00 X14.25 Y11.3 Z0 F100.00 

G01 X14.3 Y11.35 Z255 F2.50 
G01 X14.25 Y11.4 Z255 F2.50 
G01 X14.25 Y11.4 Z255 F2.50 
G00 X14.2 Y11.5 Z0 F100.00 

G01 X14.15 Y11.55 Z255 F2.50 
G01 X14.1 Y11.55 Z255 F2.50 
G01 X13.6 Y11.5 Z255 F2.50 
G01 X13.6 Y11.4 Z255 F2.50 
G01 X13.55 Y11.35 Z255 F2.50 
G01 X13.5 Y11.4 Z255 F2.50 
G01 X13.35 Y11.5 Z255 F2.50 
G01 X13.4 Y11.45 Z255 F2.50 
G01 X13.45 Y11.35 Z255 F2.50 
G01 X13.5 Y11.3 Z255 F2.50 
G01 X13.55 Y11.2 Z255 F2.50 
G01 X13.6 Y11.15 Z255 F2.50 
G01 X13.6 Y11.1 Z255 F2.50 
G01 X13.65 Y11.05 Z255 F2.50 
G01 X13.65 Y11.0 Z255 F2.50 
G01 X13.7 Y10.95 Z255 F2.50 
G01 X13.75 Y10.85 Z255 F2.50 
G01 X13.7 Y10.6 Z255 F2.50 
G01 X13.7 Y10.55 Z255 F2.50 
G01 X13.65 Y10.45 Z255 F2.50 
G01 X13.5 Y10.4 Z255 F2.50 
G01 X13.45 Y10.35 Z255 F2.50 
G01 X13.5 Y10.3 Z255 F2.50 
G01 X13.5 Y10.3 Z255 F2.50 
G00 X13.45 Y10.4 Z0 F100.00 

G01 X13.5 Y10.45 Z255 F2.50 
G00 X13.3 Y10.25 Z0 F100.00 

G01 X13.25 Y10.25 Z255 F2.50 
G01 X13.2 Y10.2 Z255 F2.50 
G01 X13.15 Y10.2 Z255 F2.50 
G01 X12.8 Y10.25 Z255 F2.50 
G01 X12.75 Y10.2 Z255 F2.50 
G01 X12.8 Y10.15 Z255 F2.50 
G01 X12.85 Y10.1 Z255 F2.50 
G00 X12.7 Y10.0 Z0 F100.00 

G01 X12.65 Y10.0 Z255 F2.50 
G01 X12.55 Y9.95 Z255 F2.50 
G01 X12.5 Y9.95 Z255 F2.50 
G01 X12.45 Y9.9 Z255 F2.50 
G01 X12.4 Y9.9 Z255 F2.50 
G01 X12.35 Y9.85 Z255 F2.50 
G01 X12.3 Y9.85 Z255 F2.50 
G01 X12.25 Y9.8 Z255 F2.50 
G01 X12.15 Y9.75 Z255 F2.50 
G01 X12.1 Y9.7 Z255 F2.50 
G01 X12.0 Y9.65 Z255 F2.50 
G01 X11.95 Y9.6 Z255 F2.50 
G01 X11.85 Y9.55 Z255 F2.50 
G01 X11.8 Y9.5 Z255 F2.50 
G01 X11.25 Y9.0 Z255 F2.50 
G01 X11.2 Y9.05 Z255 F2.50 
G01 X11.25 Y9.1 Z255 F2.50 
G01 X11.25 Y9.15 Z255 F2.50 
G01 X11.3 Y9.2 Z255 F2.50 
G01 X11.4 Y9.35 Z255 F2.50 
G01 X11.45 Y9.4 Z255 F2.50 
G01 X11.65 Y9.55 Z255 F2.50 
G01 X11.7 Y9.6 Z255 F2.50 
G01 X11.85 Y9.75 Z255 F2.50 
G00 X11.9 Y9.95 Z0 F100.00 

G01 X12.0 Y10.0 Z255 F2.50 
G01 X12.05 Y10.05 Z255 F2.50 
G01 X12.1 Y10.05 Z255 F2.50 
G01 X12.15 Y10.1 Z255 F2.50 
G01 X12.2 Y10.1 Z255 F2.50 
G01 X12.25 Y10.15 Z255 F2.50 
G01 X12.3 Y10.15 Z255 F2.50 
G01 X12.35 Y10.2 Z255 F2.50 
G01 X12.4 Y10.15 Z255 F2.50 
G01 X12.45 Y10.2 Z255 F2.50 
G01 X12.5 Y10.2 Z255 F2.50 
G01 X12.55 Y10.25 Z255 F2.50 
G01 X12.65 Y10.25 Z255 F2.50 
G01 X12.75 Y10.25 Z255 F2.50 
G01 X12.7 Y10.25 Z255 F2.50 
G01 X12.7 Y10.25 Z255 F2.50 
G00 X12.55 Y10.3 Z0 F100.00 

G01 X12.5 Y10.3 Z255 F2.50 
G01 X12.05 Y10.25 Z255 F2.50 
G01 X12.0 Y10.25 Z255 F2.50 
G01 X11.8 Y10.2 Z255 F2.50 
G01 X11.75 Y10.2 Z255 F2.50 
G01 X11.55 Y10.15 Z255 F2.50 
G01 X11.5 Y10.15 Z255 F2.50 
G01 X11.2 Y10.2 Z255 F2.50 
G01 X11.15 Y10.2 Z255 F2.50 
G01 X11.2 Y10.25 Z255 F2.50 
G01 X11.2 Y10.3 Z255 F2.50 
G01 X11.25 Y10.4 Z255 F2.50 
G01 X11.25 Y10.45 Z255 F2.50 
G01 X11.25 Y10.75 Z255 F2.50 
G00 X11.2 Y10.9 Z0 F100.00 

G01 X11.2 Y10.9 Z255 F2.50 
G00 X11.15 Y11.05 Z0 F100.00 

G01 X11.1 Y11.1 Z255 F2.50 
G01 X11.0 Y11.1 Z255 F2.50 
G01 X10.95 Y11.15 Z255 F2.50 
G01 X10.95 Y11.2 Z255 F2.50 
G01 X11.0 Y11.25 Z255 F2.50 
G01 X11.0 Y11.35 Z255 F2.50 
G01 X11.0 Y11.4 Z255 F2.50 
G01 X11.05 Y11.45 Z255 F2.50 
G01 X11.1 Y11.45 Z255 F2.50 
G01 X11.5 Y11.5 Z255 F2.50 
G01 X11.55 Y11.5 Z255 F2.50 
G01 X11.95 Y11.55 Z255 F2.50 
G01 X12.0 Y11.55 Z255 F2.50 
G01 X12.15 Y11.6 Z255 F2.50 
G01 X12.25 Y11.6 Z255 F2.50 
G01 X12.3 Y11.6 Z255 F2.50 
G01 X12.45 Y11.65 Z255 F2.50 
G01 X12.5 Y11.65 Z255 F2.50 
G01 X12.75 Y11.7 Z255 F2.50 
G01 X12.85 Y11.85 Z255 F2.50 
G01 X12.9 Y11.9 Z255 F2.50 
G01 X12.85 Y11.95 Z255 F2.50 
G01 X12.85 Y12.0 Z255 F2.50 
G01 X12.8 Y12.05 Z255 F2.50 
G01 X12.8 Y12.1 Z255 F2.50 
G01 X12.75 Y12.15 Z255 F2.50 
G01 X12.75 Y12.2 Z255 F2.50 
G01 X12.8 Y12.25 Z255 F2.50 
G01 X12.85 Y12.2 Z255 F2.50 
G01 X12.95 Y12.15 Z255 F2.50 
G01 X13.05 Y12.1 Z255 F2.50 
G01 X13.1 Y12.15 Z255 F2.50 
G01 X13.15 Y12.25 Z255 F2.50 
G01 X13.1 Y12.35 Z255 F2.50 
G01 X13.1 Y12.4 Z255 F2.50 
G01 X13.05 Y12.65 Z255 F2.50 
G01 X13.05 Y12.7 Z255 F2.50 
G01 X13.0 Y12.8 Z255 F2.50 
G01 X13.0 Y12.85 Z255 F2.50 
G01 X13.05 Y12.9 Z255 F2.50 
G01 X13.1 Y12.85 Z255 F2.50 
G01 X13.1 Y12.85 Z255 F2.50 
G00 X13.0 Y13.0 Z0 F100.00 

G01 X12.8 Y13.15 Z255 F2.50 
G01 X12.85 Y13.1 Z255 F2.50 
G01 X12.85 Y13.0 Z255 F2.50 
G01 X12.9 Y12.95 Z255 F2.50 
G01 X13.0 Y12.95 Z255 F2.50 
G01 X13.0 Y12.95 Z255 F2.50 
G00 X12.75 Y13.05 Z0 F100.00 

G01 X12.7 Y13.1 Z255 F2.50 
G01 X12.75 Y13.15 Z255 F2.50 
G01 X12.7 Y13.2 Z255 F2.50 
G01 X12.65 Y13.2 Z255 F2.50 
G01 X12.6 Y13.25 Z255 F2.50 
G01 X12.55 Y13.25 Z255 F2.50 
G01 X12.6 Y13.2 Z255 F2.50 
G01 X12.55 Y13.15 Z255 F2.50 
G01 X12.6 Y13.1 Z255 F2.50 
G01 X12.65 Y13.1 Z255 F2.50 
G01 X12.65 Y13.1 Z255 F2.50 
G00 X12.45 Y13.3 Z0 F100.00 

G01 X12.45 Y13.35 Z255 F2.50 
G01 X12.4 Y13.4 Z255 F2.50 
G01 X12.45 Y13.45 Z255 F2.50 
G01 X12.4 Y13.5 Z255 F2.50 
G01 X12.45 Y13.55 Z255 F2.50 
G01 X12.4 Y13.55 Z255 F2.50 
G01 X12.45 Y13.5 Z255 F2.50 
G01 X12.45 Y13.5 Z255 F2.50 
G00 X12.3 Y13.45 Z0 F100.00 

G01 X12.35 Y13.5 Z255 F2.50 
G01 X12.3 Y13.5 Z255 F2.50 
G01 X12.2 Y13.45 Z255 F2.50 
G01 X12.25 Y13.4 Z255 F2.50 
G01 X12.3 Y13.35 Z255 F2.50 
G00 X12.15 Y13.3 Z0 F100.00 

G01 X12.1 Y13.3 Z255 F2.50 
G01 X12.05 Y13.25 Z255 F2.50 
G01 X11.95 Y13.25 Z255 F2.50 
G01 X11.95 Y13.3 Z255 F2.50 
G01 X11.9 Y13.6 Z255 F2.50 
G01 X11.9 Y13.7 Z255 F2.50 
G01 X11.9 Y13.75 Z255 F2.50 
G01 X11.9 Y13.75 Z255 F2.50 
G00 X11.85 Y13.6 Z0 F100.00 

G01 X11.85 Y13.55 Z255 F2.50 
G01 X11.8 Y13.4 Z255 F2.50 
G01 X11.8 Y13.35 Z255 F2.50 
G01 X11.75 Y13.2 Z255 F2.50 
G01 X11.75 Y13.15 Z255 F2.50 
G01 X11.7 Y13.05 Z255 F2.50 
G01 X11.65 Y13.05 Z255 F2.50 
G01 X11.6 Y13.1 Z255 F2.50 
G01 X11.55 Y13.2 Z255 F2.50 
G01 X11.5 Y13.25 Z255 F2.50 
G01 X11.4 Y13.45 Z255 F2.50 
G01 X11.35 Y13.5 Z255 F2.50 
G01 X11.3 Y13.65 Z255 F2.50 
G01 X11.25 Y13.7 Z255 F2.50 
G01 X11.2 Y13.7 Z255 F2.50 
G01 X11.25 Y13.65 Z255 F2.50 
G01 X11.3 Y13.6 Z255 F2.50 
G00 X11.35 Y13.45 Z0 F100.00 

G01 X11.4 Y13.5 Z255 F2.50 
G01 X11.45 Y13.55 Z255 F2.50 
G00 X11.6 Y13.5 Z0 F100.00 

G01 X11.7 Y13.6 Z255 F2.50 
G00 X11.3 Y13.3 Z0 F100.00 

G01 X11.2 Y13.35 Z255 F2.50 
G01 X11.15 Y13.3 Z255 F2.50 
G01 X11.1 Y13.35 Z255 F2.50 
G01 X11.1 Y13.4 Z255 F2.50 
G01 X11.15 Y13.5 Z255 F2.50 
G01 X11.2 Y13.45 Z255 F2.50 
G01 X11.25 Y13.45 Z255 F2.50 
G01 X11.2 Y13.4 Z255 F2.50 
G01 X11.2 Y13.4 Z255 F2.50 
G00 X11.15 Y13.55 Z0 F100.00 

G01 X11.15 Y13.55 Z255 F2.50 
G00 X11.0 Y13.6 Z0 F100.00 

G01 X11.05 Y13.6 Z255 F2.50 
G01 X11.1 Y13.65 Z255 F2.50 
G01 X11.1 Y13.7 Z255 F2.50 
G01 X11.1 Y13.7 Z255 F2.50 
G00 X10.9 Y13.65 Z0 F100.00 

G01 X10.9 Y13.65 Z255 F2.50 
G00 X10.9 Y13.8 Z0 F100.00 

G01 X10.9 Y13.8 Z255 F2.50 
G00 X10.7 Y13.75 Z0 F100.00 

G01 X10.65 Y13.8 Z255 F2.50 
G01 X10.55 Y13.85 Z255 F2.50 
G01 X10.5 Y13.9 Z255 F2.50 
G01 X10.5 Y13.95 Z255 F2.50 
G01 X10.45 Y14.0 Z255 F2.50 
G01 X10.35 Y14.05 Z255 F2.50 
G01 X10.4 Y14.1 Z255 F2.50 
G01 X10.4 Y14.15 Z255 F2.50 
G01 X10.4 Y14.2 Z255 F2.50 
G00 X10.25 Y14.05 Z0 F100.00 

G01 X10.2 Y14.0 Z255 F2.50 
G01 X10.15 Y14.05 Z255 F2.50 
G01 X9.95 Y14.2 Z255 F2.50 
G01 X10.0 Y14.25 Z255 F2.50 
G01 X10.0 Y14.25 Z255 F2.50 
G00 X9.95 Y14.1 Z0 F100.00 

G01 X9.9 Y14.05 Z255 F2.50 
G01 X9.85 Y14.1 Z255 F2.50 
G01 X9.85 Y14.05 Z255 F2.50 
G01 X9.9 Y14.0 Z255 F2.50 
G01 X9.85 Y13.95 Z255 F2.50 
G01 X9.8 Y14.0 Z255 F2.50 
G01 X9.8 Y13.95 Z255 F2.50 
G01 X9.75 Y13.9 Z255 F2.50 
G01 X9.8 Y13.85 Z255 F2.50 
G01 X9.85 Y13.75 Z255 F2.50 
G01 X9.85 Y13.75 Z255 F2.50 
G00 X10.0 Y13.7 Z0 F100.00 

G01 X10.05 Y13.7 Z255 F2.50 
G01 X10.1 Y13.65 Z255 F2.50 
G01 X10.05 Y13.6 Z255 F2.50 
G01 X10.0 Y13.6 Z255 F2.50 
G01 X9.95 Y13.55 Z255 F2.50 
G01 X9.9 Y13.55 Z255 F2.50 
G01 X9.95 Y13.5 Z255 F2.50 
G01 X10.05 Y13.45 Z255 F2.50 
G01 X10.1 Y13.4 Z255 F2.50 
G01 X10.2 Y13.35 Z255 F2.50 
G01 X10.25 Y13.3 Z255 F2.50 
G01 X10.35 Y13.25 Z255 F2.50 
G01 X10.4 Y13.2 Z255 F2.50 
G01 X10.45 Y13.1 Z255 F2.50 
G01 X10.4 Y13.05 Z255 F2.50 
G01 X10.35 Y13.1 Z255 F2.50 
G01 X10.3 Y13.1 Z255 F2.50 
G01 X10.25 Y13.15 Z255 F2.50 
G01 X10.1 Y13.25 Z255 F2.50 
G01 X10.05 Y13.3 Z255 F2.50 
G01 X10.0 Y13.3 Z255 F2.50 
G01 X9.95 Y13.35 Z255 F2.50 
G01 X9.9 Y13.35 Z255 F2.50 
G01 X9.85 Y13.4 Z255 F2.50 
G01 X9.8 Y13.4 Z255 F2.50 
G01 X9.75 Y13.45 Z255 F2.50 
G01 X9.65 Y13.65 Z255 F2.50 
G01 X9.65 Y13.75 Z255 F2.50 
G01 X9.7 Y13.8 Z255 F2.50 
G01 X9.75 Y13.8 Z255 F2.50 
G01 X9.7 Y13.85 Z255 F2.50 
G01 X9.7 Y13.9 Z255 F2.50 
G01 X9.7 Y13.9 Z255 F2.50 
G00 X10.0 Y13.85 Z0 F100.00 

G01 X9.95 Y13.8 Z255 F2.50 
G01 X9.95 Y13.8 Z255 F2.50 
G00 X10.05 Y13.85 Z0 F100.00 

G01 X10.2 Y13.8 Z255 F2.50 
G01 X10.2 Y13.85 Z255 F2.50 
G01 X10.2 Y13.95 Z255 F2.50 
G00 X10.15 Y14.1 Z0 F100.00 

G01 X10.1 Y14.05 Z255 F2.50 
G01 X10.05 Y14.1 Z255 F2.50 
G01 X10.0 Y14.1 Z255 F2.50 
G01 X10.0 Y14.1 Z255 F2.50 
G00 X9.65 Y13.7 Z0 F100.00 

G01 X9.65 Y13.7 Z255 F2.50 
G00 X9.55 Y13.5 Z0 F100.00 

G01 X9.5 Y13.55 Z255 F2.50 
G01 X9.45 Y13.55 Z255 F2.50 
G01 X9.4 Y13.6 Z255 F2.50 
G01 X9.3 Y13.8 Z255 F2.50 
G01 X9.35 Y13.9 Z255 F2.50 
G01 X9.4 Y13.95 Z255 F2.50 
G01 X9.5 Y14.1 Z255 F2.50 
G01 X9.55 Y14.15 Z255 F2.50 
G01 X9.55 Y14.2 Z255 F2.50 
G01 X9.6 Y14.25 Z255 F2.50 
G01 X9.6 Y14.3 Z255 F2.50 
G01 X9.65 Y14.35 Z255 F2.50 
G01 X9.65 Y14.4 Z255 F2.50 
G01 X9.7 Y14.45 Z255 F2.50 
G01 X9.65 Y14.5 Z255 F2.50 
G01 X9.6 Y14.45 Z255 F2.50 
G01 X9.55 Y14.5 Z255 F2.50 
G01 X9.6 Y14.5 Z255 F2.50 
G01 X9.6 Y14.5 Z255 F2.50 
G00 X9.5 Y14.35 Z0 F100.00 

G01 X9.45 Y14.25 Z255 F2.50 
G01 X9.4 Y14.15 Z255 F2.50 
G01 X9.35 Y14.05 Z255 F2.50 
G01 X9.3 Y14.0 Z255 F2.50 
G01 X9.3 Y13.95 Z255 F2.50 
G01 X9.25 Y13.9 Z255 F2.50 
G01 X9.25 Y13.85 Z255 F2.50 
G01 X9.3 Y13.75 Z255 F2.50 
G01 X9.3 Y13.75 Z255 F2.50 
G00 X9.35 Y13.6 Z0 F100.00 

G01 X9.3 Y13.55 Z255 F2.50 
G01 X9.25 Y13.4 Z255 F2.50 
G01 X9.25 Y13.3 Z255 F2.50 
G01 X9.2 Y13.3 Z255 F2.50 
G01 X9.1 Y13.25 Z255 F2.50 
G01 X9.05 Y13.25 Z255 F2.50 
G01 X9.0 Y13.2 Z255 F2.50 
G01 X8.95 Y13.1 Z255 F2.50 
G01 X8.9 Y13.05 Z255 F2.50 
G01 X8.9 Y13.0 Z255 F2.50 
G01 X8.85 Y12.95 Z255 F2.50 
G01 X8.8 Y12.95 Z255 F2.50 
G01 X8.75 Y13.0 Z255 F2.50 
G01 X8.75 Y12.95 Z255 F2.50 
G01 X8.8 Y12.7 Z255 F2.50 
G01 X8.9 Y12.7 Z255 F2.50 
G01 X8.95 Y12.65 Z255 F2.50 
G01 X8.9 Y12.6 Z255 F2.50 
G01 X8.95 Y12.55 Z255 F2.50 
G01 X9.15 Y12.4 Z255 F2.50 
G01 X9.2 Y12.45 Z255 F2.50 
G01 X9.3 Y12.5 Z255 F2.50 
G01 X9.35 Y12.55 Z255 F2.50 
G01 X9.4 Y12.65 Z255 F2.50 
G01 X9.45 Y12.7 Z255 F2.50 
G01 X9.55 Y12.75 Z255 F2.50 
G01 X9.6 Y12.8 Z255 F2.50 
G01 X9.7 Y12.85 Z255 F2.50 
G01 X9.8 Y12.9 Z255 F2.50 
G01 X9.85 Y12.9 Z255 F2.50 
G01 X9.9 Y12.95 Z255 F2.50 
G01 X9.95 Y12.95 Z255 F2.50 
G01 X10.35 Y12.9 Z255 F2.50 
G01 X10.4 Y12.9 Z255 F2.50 
G01 X10.5 Y12.85 Z255 F2.50 
G01 X10.65 Y12.65 Z255 F2.50 
G01 X10.7 Y12.6 Z255 F2.50 
G01 X10.65 Y12.55 Z255 F2.50 
G01 X10.65 Y12.5 Z255 F2.50 
G01 X10.6 Y12.45 Z255 F2.50 
G01 X10.5 Y12.4 Z255 F2.50 
G01 X10.45 Y12.45 Z255 F2.50 
G01 X10.5 Y12.5 Z255 F2.50 
G01 X10.5 Y12.55 Z255 F2.50 
G01 X10.45 Y12.75 Z255 F2.50 
G01 X10.4 Y12.75 Z255 F2.50 
G01 X10.35 Y12.8 Z255 F2.50 
G01 X10.3 Y12.8 Z255 F2.50 
G01 X10.1 Y12.75 Z255 F2.50 
G01 X10.05 Y12.75 Z255 F2.50 
G01 X9.95 Y12.7 Z255 F2.50 
G01 X9.9 Y12.7 Z255 F2.50 
G01 X9.85 Y12.75 Z255 F2.50 
G01 X9.85 Y12.7 Z255 F2.50 
G01 X9.8 Y12.65 Z255 F2.50 
G01 X9.75 Y12.7 Z255 F2.50 
G01 X9.7 Y12.65 Z255 F2.50 
G01 X9.75 Y12.6 Z255 F2.50 
G01 X9.7 Y12.55 Z255 F2.50 
G01 X9.7 Y12.5 Z255 F2.50 
G01 X9.65 Y12.45 Z255 F2.50 
G01 X9.65 Y12.4 Z255 F2.50 
G01 X9.6 Y12.25 Z255 F2.50 
G01 X9.5 Y12.25 Z255 F2.50 
G01 X9.45 Y12.25 Z255 F2.50 
G01 X9.5 Y12.15 Z255 F2.50 
G01 X9.5 Y12.1 Z255 F2.50 
G01 X9.55 Y11.95 Z255 F2.50 
G01 X9.75 Y11.8 Z255 F2.50 
G01 X9.8 Y11.75 Z255 F2.50 
G01 X9.85 Y11.75 Z255 F2.50 
G01 X10.2 Y11.8 Z255 F2.50 
G01 X10.25 Y11.8 Z255 F2.50 
G01 X10.3 Y11.75 Z255 F2.50 
G01 X10.25 Y11.7 Z255 F2.50 
G01 X10.15 Y11.65 Z255 F2.50 
G01 X10.1 Y11.6 Z255 F2.50 
G01 X10.05 Y11.6 Z255 F2.50 
G01 X9.95 Y11.55 Z255 F2.50 
G01 X9.9 Y11.55 Z255 F2.50 
G01 X9.8 Y11.6 Z255 F2.50 
G01 X9.75 Y11.6 Z255 F2.50 
G01 X9.65 Y11.65 Z255 F2.50 
G01 X9.6 Y11.65 Z255 F2.50 
G01 X9.5 Y11.7 Z255 F2.50 
G01 X9.35 Y11.9 Z255 F2.50 
G01 X9.3 Y11.95 Z255 F2.50 
G01 X9.25 Y11.95 Z255 F2.50 
G01 X9.3 Y12.0 Z255 F2.50 
G01 X9.25 Y12.05 Z255 F2.50 
G01 X9.25 Y12.15 Z255 F2.50 
G01 X9.25 Y12.25 Z255 F2.50 
G01 X9.3 Y12.3 Z255 F2.50 
G01 X9.35 Y12.3 Z255 F2.50 
G01 X9.3 Y12.25 Z255 F2.50 
G01 X9.25 Y12.1 Z255 F2.50 
G01 X9.2 Y12.05 Z255 F2.50 
G01 X9.2 Y12.0 Z255 F2.50 
G01 X9.2 Y12.0 Z255 F2.50 
G00 X9.2 Y11.85 Z0 F100.00 

G01 X9.15 Y11.65 Z255 F2.50 
G01 X9.1 Y11.7 Z255 F2.50 
G01 X9.1 Y11.7 Z255 F2.50 
G00 X9.15 Y11.55 Z0 F100.00 

G01 X9.2 Y11.5 Z255 F2.50 
G01 X9.25 Y11.5 Z255 F2.50 
G01 X9.5 Y11.45 Z255 F2.50 
G01 X9.5 Y11.4 Z255 F2.50 
G01 X9.45 Y11.35 Z255 F2.50 
G01 X9.5 Y11.3 Z255 F2.50 
G01 X9.55 Y11.3 Z255 F2.50 
G01 X9.75 Y11.25 Z255 F2.50 
G01 X9.95 Y11.15 Z255 F2.50 
G01 X10.0 Y11.1 Z255 F2.50 
G01 X10.15 Y10.9 Z255 F2.50 
G01 X10.2 Y10.85 Z255 F2.50 
G01 X10.2 Y10.8 Z255 F2.50 
G01 X10.25 Y10.75 Z255 F2.50 
G01 X10.3 Y10.8 Z255 F2.50 
G01 X10.35 Y10.75 Z255 F2.50 
G01 X10.4 Y10.8 Z255 F2.50 
G01 X10.45 Y10.8 Z255 F2.50 
G01 X10.5 Y10.75 Z255 F2.50 
G01 X10.55 Y10.75 Z255 F2.50 
G01 X10.5 Y10.7 Z255 F2.50 
G01 X10.5 Y10.7 Z255 F2.50 
G00 X10.65 Y10.7 Z0 F100.00 

G01 X10.7 Y10.75 Z255 F2.50 
G01 X10.75 Y10.75 Z255 F2.50 
G01 X10.95 Y10.7 Z255 F2.50 
G01 X10.95 Y10.75 Z255 F2.50 
G01 X11.0 Y10.8 Z255 F2.50 
G01 X11.1 Y10.8 Z255 F2.50 
G01 X11.05 Y10.8 Z255 F2.50 
G01 X11.1 Y10.75 Z255 F2.50 
G01 X11.05 Y10.7 Z255 F2.50 
G01 X11.1 Y10.65 Z255 F2.50 
G01 X11.05 Y10.6 Z255 F2.50 
G01 X11.05 Y10.65 Z255 F2.50 
G01 X11.1 Y10.7 Z255 F2.50 
G01 X11.1 Y10.7 Z255 F2.50 
G00 X11.05 Y10.5 Z0 F100.00 

G01 X11.1 Y10.45 Z255 F2.50 
G01 X11.05 Y10.4 Z255 F2.50 
G01 X11.0 Y10.3 Z255 F2.50 
G01 X11.05 Y10.35 Z255 F2.50 
G01 X11.05 Y10.35 Z255 F2.50 
G00 X11.1 Y10.25 Z0 F100.00 

G01 X11.1 Y10.25 Z255 F2.50 
G00 X10.85 Y10.25 Z0 F100.00 

G01 X10.8 Y10.3 Z255 F2.50 
G01 X10.85 Y10.3 Z255 F2.50 
G01 X10.85 Y10.3 Z255 F2.50 
G00 X10.7 Y10.3 Z0 F100.00 

G01 X10.65 Y10.35 Z255 F2.50 
G01 X10.65 Y10.3 Z255 F2.50 
G01 X10.6 Y10.25 Z255 F2.50 
G01 X10.5 Y10.25 Z255 F2.50 
G01 X10.45 Y10.2 Z255 F2.50 
G01 X10.3 Y10.1 Z255 F2.50 
G01 X10.2 Y10.05 Z255 F2.50 
G01 X10.2 Y10.0 Z255 F2.50 
G01 X10.15 Y9.95 Z255 F2.50 
G01 X10.1 Y10.0 Z255 F2.50 
G01 X10.1 Y10.1 Z255 F2.50 
G01 X10.1 Y10.15 Z255 F2.50 
G01 X10.1 Y10.25 Z255 F2.50 
G00 X10.0 Y9.95 Z0 F100.00 

G01 X9.95 Y9.9 Z255 F2.50 
G01 X9.9 Y9.9 Z255 F2.50 
G01 X9.85 Y9.85 Z255 F2.50 
G01 X9.8 Y9.85 Z255 F2.50 
G01 X9.7 Y9.8 Z255 F2.50 
G01 X9.7 Y9.7 Z255 F2.50 
G01 X9.75 Y9.7 Z255 F2.50 
G01 X9.8 Y9.75 Z255 F2.50 
G01 X9.85 Y9.7 Z255 F2.50 
G01 X9.95 Y9.55 Z255 F2.50 
G01 X10.0 Y9.5 Z255 F2.50 
G01 X10.2 Y9.25 Z255 F2.50 
G01 X10.25 Y9.2 Z255 F2.50 
G01 X10.25 Y9.15 Z255 F2.50 
G01 X10.3 Y9.05 Z255 F2.50 
G01 X10.3 Y9.0 Z255 F2.50 
G01 X10.35 Y8.95 Z255 F2.50 
G01 X10.35 Y8.9 Z255 F2.50 
G01 X10.3 Y8.6 Z255 F2.50 
G01 X10.2 Y8.55 Z255 F2.50 
G01 X10.15 Y8.5 Z255 F2.50 
G01 X10.1 Y8.5 Z255 F2.50 
G01 X10.05 Y8.55 Z255 F2.50 
G01 X10.0 Y8.65 Z255 F2.50 
G01 X9.95 Y8.7 Z255 F2.50 
G01 X9.85 Y8.85 Z255 F2.50 
G01 X9.8 Y8.95 Z255 F2.50 
G01 X9.8 Y9.05 Z255 F2.50 
G01 X9.8 Y9.1 Z255 F2.50 
G01 X9.75 Y9.2 Z255 F2.50 
G01 X9.8 Y9.25 Z255 F2.50 
G01 X9.8 Y9.3 Z255 F2.50 
G01 X9.75 Y9.55 Z255 F2.50 
G01 X9.7 Y9.55 Z255 F2.50 
G01 X9.65 Y9.6 Z255 F2.50 
G01 X9.6 Y9.6 Z255 F2.50 
G01 X9.55 Y9.65 Z255 F2.50 
G01 X9.6 Y9.7 Z255 F2.50 
G01 X9.55 Y9.75 Z255 F2.50 
G01 X9.5 Y9.7 Z255 F2.50 
G01 X9.5 Y9.65 Z255 F2.50 
G01 X9.45 Y9.55 Z255 F2.50 
G01 X9.4 Y9.45 Z255 F2.50 
G01 X9.45 Y9.4 Z255 F2.50 
G01 X9.45 Y9.3 Z255 F2.50 
G01 X9.5 Y9.25 Z255 F2.50 
G01 X9.7 Y9.05 Z255 F2.50 
G00 X9.65 Y9.3 Z0 F100.00 

G01 X9.6 Y9.3 Z255 F2.50 
G01 X9.55 Y9.35 Z255 F2.50 
G01 X9.55 Y9.35 Z255 F2.50 
G00 X9.35 Y9.35 Z0 F100.00 

G01 X9.4 Y9.4 Z255 F2.50 
G01 X9.35 Y9.4 Z255 F2.50 
G01 X9.3 Y9.35 Z255 F2.50 
G01 X9.3 Y9.3 Z255 F2.50 
G01 X9.35 Y9.25 Z255 F2.50 
G01 X9.3 Y9.2 Z255 F2.50 
G01 X9.25 Y9.25 Z255 F2.50 
G01 X9.2 Y9.2 Z255 F2.50 
G01 X9.0 Y9.0 Z255 F2.50 
G00 X9.0 Y9.5 Z0 F100.00 

G01 X9.05 Y9.55 Z255 F2.50 
G00 X8.9 Y9.45 Z0 F100.00 

G01 X8.85 Y9.45 Z255 F2.50 
G01 X8.8 Y9.5 Z255 F2.50 
G01 X8.8 Y9.45 Z255 F2.50 
G01 X8.8 Y9.45 Z255 F2.50 
G00 X8.65 Y9.45 Z0 F100.00 

G01 X8.6 Y9.45 Z255 F2.50 
G00 X8.4 Y9.5 Z0 F100.00 

G01 X8.4 Y9.5 Z255 F2.50 
G00 X8.25 Y9.55 Z0 F100.00 

G01 X8.25 Y9.55 Z255 F2.50 
G00 X7.95 Y9.45 Z0 F100.00 

G01 X7.9 Y9.45 Z255 F2.50 
G01 X7.85 Y9.5 Z255 F2.50 
G01 X7.75 Y9.65 Z255 F2.50 
G01 X7.7 Y9.7 Z255 F2.50 
G01 X7.7 Y9.75 Z255 F2.50 
G01 X7.7 Y10.0 Z255 F2.50 
G00 X7.55 Y10.05 Z0 F100.00 

G01 X7.5 Y10.0 Z255 F2.50 
G01 X7.4 Y9.85 Z255 F2.50 
G01 X7.35 Y9.8 Z255 F2.50 
G01 X7.3 Y9.7 Z255 F2.50 
G01 X7.35 Y9.65 Z255 F2.50 
G01 X7.4 Y9.5 Z255 F2.50 
G01 X7.4 Y9.45 Z255 F2.50 
G01 X7.35 Y9.4 Z255 F2.50 
G01 X7.3 Y9.45 Z255 F2.50 
G01 X7.25 Y9.45 Z255 F2.50 
G01 X7.2 Y9.5 Z255 F2.50 
G01 X7.15 Y9.45 Z255 F2.50 
G01 X7.2 Y9.4 Z255 F2.50 
G01 X7.2 Y9.3 Z255 F2.50 
G01 X7.15 Y9.35 Z255 F2.50 
G01 X7.1 Y9.3 Z255 F2.50 
G01 X7.15 Y9.25 Z255 F2.50 
G01 X7.2 Y9.25 Z255 F2.50 
G01 X7.25 Y9.2 Z255 F2.50 
G01 X7.35 Y9.15 Z255 F2.50 
G01 X7.4 Y9.1 Z255 F2.50 
G01 X7.45 Y9.1 Z255 F2.50 
G01 X7.75 Y9.15 Z255 F2.50 
G01 X7.95 Y9.35 Z255 F2.50 
G00 X7.9 Y9.65 Z0 F100.00 

G01 X7.9 Y9.7 Z255 F2.50 
G01 X7.9 Y9.7 Z255 F2.50 
G00 X7.95 Y9.85 Z0 F100.00 

G01 X7.95 Y9.9 Z255 F2.50 
G01 X7.9 Y9.95 Z255 F2.50 
G01 X7.85 Y9.9 Z255 F2.50 
G01 X7.85 Y9.85 Z255 F2.50 
G01 X7.85 Y9.85 Z255 F2.50 
G00 X8.0 Y10.0 Z0 F100.00 

G01 X7.95 Y10.05 Z255 F2.50 
G01 X7.9 Y10.0 Z255 F2.50 
G01 X7.9 Y10.0 Z255 F2.50 
G00 X8.05 Y10.1 Z0 F100.00 

G01 X8.05 Y10.1 Z255 F2.50 
G00 X8.1 Y10.85 Z0 F100.00 

G01 X8.15 Y10.9 Z255 F2.50 
G01 X8.1 Y10.95 Z255 F2.50 
G01 X8.15 Y11.0 Z255 F2.50 
G01 X8.1 Y11.0 Z255 F2.50 
G01 X8.15 Y11.05 Z255 F2.50 
G01 X8.15 Y11.1 Z255 F2.50 
G01 X8.2 Y11.15 Z255 F2.50 
G01 X8.15 Y11.2 Z255 F2.50 
G01 X8.1 Y11.2 Z255 F2.50 
G01 X8.05 Y11.15 Z255 F2.50 
G01 X8.05 Y11.1 Z255 F2.50 
G01 X8.0 Y11.05 Z255 F2.50 
G01 X8.0 Y10.95 Z255 F2.50 
G01 X8.0 Y10.9 Z255 F2.50 
G01 X7.9 Y10.95 Z255 F2.50 
G01 X7.8 Y10.95 Z255 F2.50 
G01 X7.85 Y10.95 Z255 F2.50 
G01 X7.85 Y10.95 Z255 F2.50 
G00 X7.85 Y11.1 Z0 F100.00 

G01 X7.8 Y11.15 Z255 F2.50 
G01 X7.4 Y11.5 Z255 F2.50 
G01 X7.35 Y11.55 Z255 F2.50 
G01 X7.3 Y11.55 Z255 F2.50 
G01 X7.25 Y11.5 Z255 F2.50 
G01 X7.3 Y11.45 Z255 F2.50 
G01 X7.25 Y11.4 Z255 F2.50 
G01 X7.2 Y11.4 Z255 F2.50 
G01 X7.25 Y11.35 Z255 F2.50 
G01 X7.35 Y11.35 Z255 F2.50 
G01 X7.45 Y11.4 Z255 F2.50 
G01 X7.55 Y11.45 Z255 F2.50 
G01 X7.6 Y11.4 Z255 F2.50 
G01 X7.65 Y11.35 Z255 F2.50 
G00 X7.7 Y11.2 Z0 F100.00 

G01 X7.65 Y11.15 Z255 F2.50 
G01 X7.6 Y11.15 Z255 F2.50 
G01 X7.55 Y11.2 Z255 F2.50 
G01 X7.5 Y11.2 Z255 F2.50 
G01 X7.3 Y11.25 Z255 F2.50 
G01 X7.3 Y11.25 Z255 F2.50 
G00 X7.15 Y11.35 Z0 F100.00 

G01 X7.15 Y11.35 Z255 F2.50 
G00 X7.1 Y11.2 Z0 F100.00 

G01 X7.0 Y11.15 Z255 F2.50 
G01 X6.95 Y11.1 Z255 F2.50 
G01 X7.0 Y11.05 Z255 F2.50 
G01 X7.05 Y11.05 Z255 F2.50 
G01 X7.45 Y11.0 Z255 F2.50 
G01 X7.5 Y11.0 Z255 F2.50 
G01 X7.7 Y10.95 Z255 F2.50 
G01 X7.75 Y10.95 Z255 F2.50 
G01 X7.75 Y10.95 Z255 F2.50 
G00 X8.0 Y11.0 Z0 F100.00 

G01 X8.05 Y11.05 Z255 F2.50 
G01 X8.05 Y11.05 Z255 F2.50 
G00 X8.55 Y11.2 Z0 F100.00 

G01 X8.6 Y11.2 Z255 F2.50 
G00 X9.25 Y11.3 Z0 F100.00 

G01 X9.4 Y11.35 Z255 F2.50 
G01 X9.45 Y11.3 Z255 F2.50 
G01 X9.4 Y11.3 Z255 F2.50 
G01 X9.4 Y11.3 Z255 F2.50 
G00 X10.15 Y11.25 Z0 F100.00 

G01 X10.2 Y11.2 Z255 F2.50 
G01 X10.3 Y11.2 Z255 F2.50 
G01 X10.45 Y11.3 Z255 F2.50 
G01 X10.5 Y11.25 Z255 F2.50 
G01 X10.6 Y11.25 Z255 F2.50 
G01 X10.65 Y11.2 Z255 F2.50 
G01 X10.6 Y11.15 Z255 F2.50 
G01 X10.6 Y11.15 Z255 F2.50 
G00 X10.6 Y11.3 Z0 F100.00 

G01 X10.7 Y11.3 Z255 F2.50 
G01 X10.65 Y11.25 Z255 F2.50 
G01 X10.65 Y11.25 Z255 F2.50 
G00 X10.5 Y11.3 Z0 F100.00 

G01 X10.5 Y11.3 Z255 F2.50 
G00 X10.4 Y11.15 Z0 F100.00 

G01 X10.35 Y11.2 Z255 F2.50 
G01 X10.35 Y11.15 Z255 F2.50 
G01 X10.3 Y11.1 Z255 F2.50 
G01 X10.3 Y11.1 Z255 F2.50 
G00 X10.25 Y10.7 Z0 F100.00 

G01 X10.25 Y10.7 Z255 F2.50 
G00 X10.45 Y10.25 Z0 F100.00 

G01 X10.45 Y10.25 Z255 F2.50 
G00 X10.7 Y10.2 Z0 F100.00 

G01 X10.75 Y10.2 Z255 F2.50 
G01 X10.8 Y10.2 Z255 F2.50 
G00 X11.05 Y10.95 Z0 F100.00 

G01 X11.0 Y11.0 Z255 F2.50 
G01 X11.0 Y11.05 Z255 F2.50 
G01 X11.05 Y11.1 Z255 F2.50 
G01 X11.05 Y11.2 Z255 F2.50 
G01 X11.05 Y11.25 Z255 F2.50 
G01 X11.05 Y11.25 Z255 F2.50 
G00 X11.5 Y11.75 Z0 F100.00 

G01 X11.45 Y11.8 Z255 F2.50 
G01 X11.5 Y11.85 Z255 F2.50 
G01 X11.6 Y11.9 Z255 F2.50 
G01 X11.65 Y11.85 Z255 F2.50 
G01 X11.6 Y11.8 Z255 F2.50 
G01 X11.65 Y11.75 Z255 F2.50 
G01 X11.75 Y11.75 Z255 F2.50 
G01 X11.8 Y11.7 Z255 F2.50 
G01 X11.75 Y11.65 Z255 F2.50 
G01 X11.75 Y11.65 Z255 F2.50 
G00 X11.8 Y11.85 Z0 F100.00 

G01 X11.75 Y11.9 Z255 F2.50 
G01 X11.7 Y11.85 Z255 F2.50 
G01 X11.65 Y11.8 Z255 F2.50 
G00 X11.8 Y12.0 Z0 F100.00 

G01 X11.85 Y12.0 Z255 F2.50 
G01 X11.9 Y12.05 Z255 F2.50 
G01 X11.95 Y12.05 Z255 F2.50 
G01 X12.05 Y12.0 Z255 F2.50 
G01 X12.05 Y11.9 Z255 F2.50 
G01 X12.1 Y11.85 Z255 F2.50 
G01 X12.1 Y11.75 Z255 F2.50 
G01 X12.05 Y11.8 Z255 F2.50 
G01 X12.05 Y11.8 Z255 F2.50 
G00 X12.15 Y11.75 Z0 F100.00 

G01 X12.2 Y11.7 Z255 F2.50 
G01 X12.2 Y11.7 Z255 F2.50 
G00 X12.0 Y11.95 Z0 F100.00 

G01 X12.0 Y11.95 Z255 F2.50 
G00 X11.85 Y11.85 Z0 F100.00 

G01 X11.85 Y11.85 Z255 F2.50 
G00 X11.95 Y12.7 Z0 F100.00 

G01 X11.95 Y12.75 Z255 F2.50 
G01 X12.0 Y12.9 Z255 F2.50 
G01 X12.0 Y12.95 Z255 F2.50 
G01 X12.05 Y13.0 Z255 F2.50 
G01 X12.05 Y13.05 Z255 F2.50 
G01 X12.1 Y13.15 Z255 F2.50 
G01 X12.15 Y13.15 Z255 F2.50 
G01 X12.2 Y13.2 Z255 F2.50 
G01 X12.25 Y13.2 Z255 F2.50 
G01 X12.35 Y13.25 Z255 F2.50 
G01 X12.4 Y13.2 Z255 F2.50 
G01 X12.35 Y13.15 Z255 F2.50 
G01 X12.25 Y13.1 Z255 F2.50 
G01 X12.2 Y13.05 Z255 F2.50 
G01 X12.15 Y12.95 Z255 F2.50 
G01 X12.1 Y12.8 Z255 F2.50 
G01 X12.05 Y12.85 Z255 F2.50 
G01 X12.05 Y12.9 Z255 F2.50 
G01 X12.05 Y12.9 Z255 F2.50 
G00 X11.9 Y12.95 Z0 F100.00 

G01 X11.9 Y12.9 Z255 F2.50 
G01 X11.85 Y12.85 Z255 F2.50 
G01 X11.85 Y12.8 Z255 F2.50 
G01 X11.85 Y12.7 Z255 F2.50 
G00 X12.15 Y13.45 Z0 F100.00 

G01 X12.1 Y13.6 Z255 F2.50 
G01 X12.1 Y13.65 Z255 F2.50 
G01 X12.15 Y13.7 Z255 F2.50 
G01 X12.15 Y13.7 Z255 F2.50 
G00 X12.3 Y13.85 Z0 F100.00 

G01 X12.3 Y13.9 Z255 F2.50 
G01 X12.35 Y13.95 Z255 F2.50 
G01 X12.45 Y14.05 Z255 F2.50 
G00 X12.65 Y14.25 Z0 F100.00 

G01 X12.6 Y14.25 Z255 F2.50 
G01 X12.65 Y14.3 Z255 F2.50 
G01 X12.65 Y14.3 Z255 F2.50 
G00 X12.75 Y14.45 Z0 F100.00 

G01 X12.75 Y14.45 Z255 F2.50 
G00 X13.05 Y14.75 Z0 F100.00 

G01 X13.1 Y14.85 Z255 F2.50 
G01 X13.15 Y14.8 Z255 F2.50 
G01 X13.25 Y14.75 Z255 F2.50 
G01 X13.3 Y14.8 Z255 F2.50 
G01 X13.45 Y14.85 Z255 F2.50 
G01 X13.5 Y14.8 Z255 F2.50 
G00 X13.35 Y14.8 Z0 F100.00 

G01 X13.3 Y14.75 Z255 F2.50 
G01 X13.3 Y14.75 Z255 F2.50 
G00 X13.25 Y14.85 Z0 F100.00 

G01 X13.35 Y15.05 Z255 F2.50 
G01 X13.35 Y15.15 Z255 F2.50 
G01 X13.35 Y15.1 Z255 F2.50 
G01 X13.35 Y15.1 Z255 F2.50 
G00 X13.3 Y15.0 Z0 F100.00 

G01 X13.25 Y14.95 Z255 F2.50 
G01 X13.25 Y14.95 Z255 F2.50 
G00 X13.1 Y14.9 Z0 F100.00 

G01 X13.1 Y14.9 Z255 F2.50 
G00 X13.2 Y15.05 Z0 F100.00 

G01 X13.15 Y15.1 Z255 F2.50 
G01 X13.15 Y15.05 Z255 F2.50 
G01 X13.15 Y15.05 Z255 F2.50 
G00 X12.9 Y15.15 Z0 F100.00 

G01 X12.95 Y15.2 Z255 F2.50 
G01 X12.95 Y15.25 Z255 F2.50 
G01 X12.9 Y15.3 Z255 F2.50 
G01 X12.95 Y15.35 Z255 F2.50 
G01 X13.15 Y15.45 Z255 F2.50 
G01 X13.2 Y15.5 Z255 F2.50 
G01 X13.2 Y15.55 Z255 F2.50 
G01 X13.25 Y15.7 Z255 F2.50 
G01 X13.3 Y15.8 Z255 F2.50 
G01 X13.35 Y15.9 Z255 F2.50 
G01 X13.4 Y15.9 Z255 F2.50 
G01 X13.45 Y15.85 Z255 F2.50 
G01 X13.5 Y15.9 Z255 F2.50 
G01 X13.5 Y15.95 Z255 F2.50 
G01 X13.55 Y16.0 Z255 F2.50 
G01 X13.55 Y16.05 Z255 F2.50 
G01 X13.6 Y16.15 Z255 F2.50 
G01 X13.65 Y16.1 Z255 F2.50 
G01 X13.7 Y16.15 Z255 F2.50 
G01 X13.7 Y16.25 Z255 F2.50 
G01 X13.75 Y16.3 Z255 F2.50 
G01 X13.7 Y16.3 Z255 F2.50 
G01 X13.75 Y16.35 Z255 F2.50 
G01 X13.85 Y16.35 Z255 F2.50 
G01 X13.9 Y16.4 Z255 F2.50 
G01 X13.95 Y16.4 Z255 F2.50 
G01 X14.0 Y16.35 Z255 F2.50 
G01 X14.05 Y16.4 Z255 F2.50 
G01 X14.05 Y16.45 Z255 F2.50 
G01 X14.0 Y16.5 Z255 F2.50 
G01 X14.05 Y16.55 Z255 F2.50 
G01 X14.05 Y16.6 Z255 F2.50 
G01 X14.1 Y16.8 Z255 F2.50 
G01 X14.2 Y16.8 Z255 F2.50 
G01 X14.25 Y16.8 Z255 F2.50 
G01 X14.2 Y16.85 Z255 F2.50 
G01 X14.25 Y16.9 Z255 F2.50 
G01 X14.25 Y16.95 Z255 F2.50 
G01 X14.3 Y17.0 Z255 F2.50 
G01 X14.4 Y17.0 Z255 F2.50 
G01 X14.45 Y17.05 Z255 F2.50 
G01 X14.5 Y17.0 Z255 F2.50 
G01 X14.55 Y17.05 Z255 F2.50 
G01 X14.6 Y17.0 Z255 F2.50 
G01 X14.6 Y16.95 Z255 F2.50 
G01 X14.65 Y16.9 Z255 F2.50 
G01 X14.65 Y16.85 Z255 F2.50 
G01 X14.7 Y16.8 Z255 F2.50 
G01 X14.65 Y16.75 Z255 F2.50 
G01 X14.7 Y16.7 Z255 F2.50 
G01 X14.75 Y16.7 Z255 F2.50 
G01 X14.75 Y16.7 Z255 F2.50 
G00 X14.6 Y16.7 Z0 F100.00 

G01 X14.55 Y16.75 Z255 F2.50 
G01 X14.6 Y16.8 Z255 F2.50 
G01 X14.55 Y16.85 Z255 F2.50 
G01 X14.5 Y16.8 Z255 F2.50 
G01 X14.45 Y16.85 Z255 F2.50 
G01 X14.4 Y16.8 Z255 F2.50 
G01 X14.45 Y16.75 Z255 F2.50 
G01 X14.5 Y16.75 Z255 F2.50 
G01 X14.5 Y16.75 Z255 F2.50 
G00 X14.5 Y16.95 Z0 F100.00 

G01 X14.55 Y16.9 Z255 F2.50 
G01 X14.55 Y16.95 Z255 F2.50 
G01 X14.55 Y16.95 Z255 F2.50 
G00 X14.4 Y16.95 Z0 F100.00 

G01 X14.35 Y16.9 Z255 F2.50 
G01 X14.35 Y16.85 Z255 F2.50 
G01 X14.3 Y16.8 Z255 F2.50 
G01 X14.35 Y16.8 Z255 F2.50 
G01 X14.35 Y16.8 Z255 F2.50 
G00 X14.15 Y16.95 Z0 F100.00 

G01 X14.25 Y17.1 Z255 F2.50 
G01 X14.3 Y17.2 Z255 F2.50 
G01 X14.35 Y17.3 Z255 F2.50 
G01 X14.4 Y17.4 Z255 F2.50 
G01 X14.4 Y17.45 Z255 F2.50 
G01 X14.45 Y17.5 Z255 F2.50 
G01 X14.45 Y17.55 Z255 F2.50 
G01 X14.5 Y17.7 Z255 F2.50 
G01 X14.5 Y17.75 Z255 F2.50 
G01 X14.55 Y17.85 Z255 F2.50 
G01 X14.55 Y17.9 Z255 F2.50 
G01 X14.6 Y18.0 Z255 F2.50 
G01 X14.6 Y18.05 Z255 F2.50 
G01 X14.55 Y18.3 Z255 F2.50 
G01 X14.55 Y18.35 Z255 F2.50 
G01 X14.5 Y18.5 Z255 F2.50 
G01 X14.55 Y18.55 Z255 F2.50 
G01 X14.5 Y18.55 Z255 F2.50 
G01 X14.55 Y18.6 Z255 F2.50 
G01 X14.55 Y18.6 Z255 F2.50 
G00 X14.4 Y18.4 Z0 F100.00 

G01 X14.35 Y18.4 Z255 F2.50 
G01 X14.3 Y18.35 Z255 F2.50 
G01 X14.2 Y18.3 Z255 F2.50 
G01 X14.15 Y18.25 Z255 F2.50 
G01 X14.1 Y18.25 Z255 F2.50 
G01 X14.0 Y18.2 Z255 F2.50 
G01 X13.95 Y18.2 Z255 F2.50 
G01 X13.65 Y18.15 Z255 F2.50 
G01 X13.7 Y18.1 Z255 F2.50 
G01 X13.7 Y18.05 Z255 F2.50 
G01 X13.65 Y17.95 Z255 F2.50 
G01 X13.7 Y17.95 Z255 F2.50 
G01 X13.75 Y17.9 Z255 F2.50 
G01 X13.7 Y17.85 Z255 F2.50 
G01 X13.6 Y17.8 Z255 F2.50 
G01 X13.55 Y17.75 Z255 F2.50 
G01 X13.45 Y17.7 Z255 F2.50 
G01 X13.1 Y17.75 Z255 F2.50 
G01 X13.15 Y17.8 Z255 F2.50 
G01 X13.2 Y17.8 Z255 F2.50 
G01 X13.35 Y17.8 Z255 F2.50 
G00 X13.4 Y17.9 Z0 F100.00 

G01 X13.5 Y17.95 Z255 F2.50 
G01 X13.45 Y18.0 Z255 F2.50 
G01 X13.45 Y18.05 Z255 F2.50 
G01 X13.4 Y18.1 Z255 F2.50 
G01 X13.45 Y18.1 Z255 F2.50 
G01 X13.45 Y18.1 Z255 F2.50 
G00 X13.3 Y18.1 Z0 F100.00 

G01 X13.25 Y18.15 Z255 F2.50 
G01 X13.3 Y18.2 Z255 F2.50 
G01 X13.35 Y18.2 Z255 F2.50 
G01 X13.3 Y18.25 Z255 F2.50 
G01 X13.3 Y18.35 Z255 F2.50 
G01 X13.35 Y18.35 Z255 F2.50 
G01 X13.5 Y18.4 Z255 F2.50 
G01 X13.6 Y18.45 Z255 F2.50 
G01 X13.65 Y18.5 Z255 F2.50 
G01 X13.7 Y18.45 Z255 F2.50 
G01 X13.75 Y18.45 Z255 F2.50 
G01 X13.8 Y18.5 Z255 F2.50 
G01 X13.8 Y18.55 Z255 F2.50 
G01 X13.85 Y18.6 Z255 F2.50 
G01 X13.9 Y18.75 Z255 F2.50 
G01 X13.85 Y18.85 Z255 F2.50 
G01 X13.9 Y18.9 Z255 F2.50 
G01 X14.0 Y19.05 Z255 F2.50 
G01 X14.05 Y19.1 Z255 F2.50 
G01 X14.2 Y19.2 Z255 F2.50 
G01 X14.4 Y19.25 Z255 F2.50 
G01 X14.35 Y19.3 Z255 F2.50 
G01 X14.3 Y19.4 Z255 F2.50 
G01 X14.35 Y19.6 Z255 F2.50 
G01 X14.5 Y19.65 Z255 F2.50 
G01 X14.5 Y19.6 Z255 F2.50 
G01 X14.55 Y19.55 Z255 F2.50 
G01 X14.55 Y19.45 Z255 F2.50 
G01 X14.55 Y19.4 Z255 F2.50 
G01 X14.5 Y19.35 Z255 F2.50 
G01 X14.45 Y19.4 Z255 F2.50 
G01 X14.4 Y19.4 Z255 F2.50 
G01 X14.4 Y19.4 Z255 F2.50 
G00 X14.45 Y19.25 Z0 F100.00 

G01 X14.45 Y19.25 Z255 F2.50 
G00 X14.4 Y19.1 Z0 F100.00 

G01 X14.35 Y19.05 Z255 F2.50 
G01 X14.25 Y19.05 Z255 F2.50 
G01 X14.3 Y19.05 Z255 F2.50 
G01 X14.3 Y19.05 Z255 F2.50 
G00 X14.3 Y18.9 Z0 F100.00 

G01 X14.25 Y18.85 Z255 F2.50 
G01 X14.3 Y18.8 Z255 F2.50 
G01 X14.35 Y18.8 Z255 F2.50 
G01 X14.4 Y18.85 Z255 F2.50 
G01 X14.45 Y18.85 Z255 F2.50 
G01 X14.5 Y18.9 Z255 F2.50 
G01 X14.5 Y18.95 Z255 F2.50 
G01 X14.55 Y19.0 Z255 F2.50 
G01 X14.6 Y19.0 Z255 F2.50 
G01 X14.7 Y18.95 Z255 F2.50 
G01 X14.75 Y18.95 Z255 F2.50 
G01 X14.85 Y18.9 Z255 F2.50 
G01 X14.9 Y18.95 Z255 F2.50 
G01 X15.1 Y19.05 Z255 F2.50 
G01 X15.05 Y19.0 Z255 F2.50 
G01 X15.0 Y18.9 Z255 F2.50 
G01 X15.05 Y18.85 Z255 F2.50 
G01 X15.05 Y18.8 Z255 F2.50 
G01 X15.1 Y18.75 Z255 F2.50 
G01 X15.15 Y18.75 Z255 F2.50 
G01 X15.3 Y18.7 Z255 F2.50 
G01 X15.35 Y18.6 Z255 F2.50 
G01 X15.4 Y18.55 Z255 F2.50 
G01 X15.5 Y18.55 Z255 F2.50 
G01 X15.55 Y18.5 Z255 F2.50 
G01 X15.6 Y18.35 Z255 F2.50 
G01 X15.55 Y18.4 Z255 F2.50 
G01 X15.55 Y18.4 Z255 F2.50 
G00 X15.4 Y18.5 Z0 F100.00 

G01 X15.4 Y18.5 Z255 F2.50 
G00 X15.7 Y18.3 Z0 F100.00 

G01 X15.75 Y18.3 Z255 F2.50 
G01 X15.8 Y18.25 Z255 F2.50 
G01 X15.85 Y18.25 Z255 F2.50 
G01 X15.9 Y18.2 Z255 F2.50 
G01 X15.95 Y18.2 Z255 F2.50 
G01 X16.2 Y18.15 Z255 F2.50 
G01 X16.25 Y18.15 Z255 F2.50 
G01 X16.55 Y18.1 Z255 F2.50 
G01 X16.6 Y18.15 Z255 F2.50 
G01 X16.65 Y18.1 Z255 F2.50 
G01 X16.6 Y18.1 Z255 F2.50 
G01 X16.6 Y18.1 Z255 F2.50 
G00 X16.6 Y18.25 Z0 F100.00 

G01 X16.55 Y18.3 Z255 F2.50 
G01 X16.55 Y18.35 Z255 F2.50 
G01 X16.5 Y18.5 Z255 F2.50 
G01 X16.5 Y18.55 Z255 F2.50 
G01 X16.55 Y19.15 Z255 F2.50 
G01 X16.65 Y19.15 Z255 F2.50 
G01 X16.7 Y19.2 Z255 F2.50 
G01 X16.75 Y19.15 Z255 F2.50 
G01 X16.75 Y19.2 Z255 F2.50 
G01 X16.75 Y19.2 Z255 F2.50 
G00 X16.7 Y19.05 Z0 F100.00 

G01 X16.6 Y19.05 Z255 F2.50 
G01 X16.6 Y19.1 Z255 F2.50 
G01 X16.6 Y19.1 Z255 F2.50 
G00 X16.65 Y18.95 Z0 F100.00 

G01 X16.65 Y18.95 Z255 F2.50 
G00 X16.85 Y19.0 Z0 F100.00 

G01 X16.9 Y19.2 Z255 F2.50 
G01 X16.9 Y19.25 Z255 F2.50 
G01 X16.85 Y19.35 Z255 F2.50 
G01 X16.8 Y19.35 Z255 F2.50 
G01 X16.75 Y19.3 Z255 F2.50 
G01 X16.7 Y19.3 Z255 F2.50 
G01 X16.6 Y19.25 Z255 F2.50 
G01 X16.55 Y19.25 Z255 F2.50 
G01 X16.5 Y19.2 Z255 F2.50 
G01 X16.5 Y19.2 Z255 F2.50 
G00 X16.85 Y18.85 Z0 F100.00 

G01 X16.9 Y18.55 Z255 F2.50 
G01 X16.9 Y18.5 Z255 F2.50 
G01 X16.95 Y18.35 Z255 F2.50 
G01 X16.95 Y18.3 Z255 F2.50 
G01 X17.0 Y18.15 Z255 F2.50 
G01 X17.0 Y18.1 Z255 F2.50 
G01 X17.05 Y18.0 Z255 F2.50 
G01 X17.05 Y17.95 Z255 F2.50 
G01 X17.1 Y17.9 Z255 F2.50 
G01 X17.1 Y17.85 Z255 F2.50 
G01 X17.15 Y17.8 Z255 F2.50 
G01 X17.15 Y17.75 Z255 F2.50 
G01 X17.2 Y17.65 Z255 F2.50 
G01 X17.2 Y17.6 Z255 F2.50 
G01 X17.25 Y17.55 Z255 F2.50 
G01 X17.25 Y17.5 Z255 F2.50 
G01 X17.3 Y17.45 Z255 F2.50 
G01 X17.35 Y17.35 Z255 F2.50 
G01 X17.4 Y17.3 Z255 F2.50 
G01 X17.45 Y17.2 Z255 F2.50 
G01 X17.5 Y17.15 Z255 F2.50 
G01 X17.75 Y16.85 Z255 F2.50 
G01 X17.8 Y16.8 Z255 F2.50 
G01 X18.5 Y16.15 Z255 F2.50 
G01 X18.55 Y16.1 Z255 F2.50 
G01 X18.85 Y15.85 Z255 F2.50 
G01 X18.9 Y15.8 Z255 F2.50 
G01 X18.95 Y15.8 Z255 F2.50 
G01 X19.0 Y15.85 Z255 F2.50 
G01 X18.95 Y15.9 Z255 F2.50 
G01 X18.05 Y16.85 Z255 F2.50 
G01 X18.0 Y16.9 Z255 F2.50 
G01 X17.9 Y17.05 Z255 F2.50 
G01 X17.85 Y17.1 Z255 F2.50 
G01 X17.75 Y17.25 Z255 F2.50 
G01 X17.7 Y17.3 Z255 F2.50 
G01 X17.7 Y17.35 Z255 F2.50 
G01 X17.65 Y17.4 Z255 F2.50 
G01 X17.6 Y17.5 Z255 F2.50 
G01 X17.55 Y17.55 Z255 F2.50 
G01 X17.55 Y17.6 Z255 F2.50 
G01 X17.5 Y17.65 Z255 F2.50 
G01 X17.5 Y17.7 Z255 F2.50 
G01 X17.45 Y17.75 Z255 F2.50 
G01 X17.45 Y17.8 Z255 F2.50 
G01 X17.4 Y17.85 Z255 F2.50 
G01 X17.4 Y17.9 Z255 F2.50 
G01 X17.45 Y18.0 Z255 F2.50 
G01 X17.5 Y17.95 Z255 F2.50 
G01 X17.5 Y17.9 Z255 F2.50 
G01 X17.55 Y17.85 Z255 F2.50 
G01 X17.55 Y17.8 Z255 F2.50 
G01 X17.6 Y17.75 Z255 F2.50 
G01 X17.6 Y17.7 Z255 F2.50 
G01 X17.65 Y17.65 Z255 F2.50 
G01 X17.8 Y17.6 Z255 F2.50 
G01 X17.85 Y17.55 Z255 F2.50 
G01 X17.8 Y17.5 Z255 F2.50 
G01 X17.85 Y17.45 Z255 F2.50 
G01 X17.85 Y17.35 Z255 F2.50 
G01 X17.9 Y17.3 Z255 F2.50 
G01 X18.0 Y17.15 Z255 F2.50 
G01 X18.05 Y17.1 Z255 F2.50 
G01 X18.35 Y16.75 Z255 F2.50 
G01 X18.4 Y16.7 Z255 F2.50 
G01 X18.5 Y16.65 Z255 F2.50 
G01 X18.55 Y16.6 Z255 F2.50 
G01 X18.7 Y16.55 Z255 F2.50 
G01 X18.75 Y16.55 Z255 F2.50 
G01 X19.0 Y16.6 Z255 F2.50 
G01 X19.1 Y16.75 Z255 F2.50 
G01 X19.15 Y16.8 Z255 F2.50 
G01 X19.1 Y16.85 Z255 F2.50 
G01 X19.05 Y16.85 Z255 F2.50 
G01 X19.0 Y16.8 Z255 F2.50 
G01 X18.95 Y16.8 Z255 F2.50 
G01 X18.9 Y16.75 Z255 F2.50 
G01 X18.85 Y16.75 Z255 F2.50 
G01 X18.8 Y16.7 Z255 F2.50 
G01 X18.75 Y16.7 Z255 F2.50 
G01 X18.65 Y16.65 Z255 F2.50 
G01 X18.65 Y16.55 Z255 F2.50 
G01 X18.65 Y16.55 Z255 F2.50 
G00 X18.75 Y16.4 Z0 F100.00 

G01 X18.85 Y16.35 Z255 F2.50 
G01 X18.9 Y16.3 Z255 F2.50 
G01 X19.05 Y16.2 Z255 F2.50 
G01 X19.1 Y16.15 Z255 F2.50 
G01 X19.2 Y16.1 Z255 F2.50 
G01 X19.25 Y16.05 Z255 F2.50 
G01 X19.35 Y16.0 Z255 F2.50 
G01 X19.4 Y16.05 Z255 F2.50 
G01 X19.45 Y16.0 Z255 F2.50 
G01 X19.5 Y16.0 Z255 F2.50 
G01 X19.55 Y15.95 Z255 F2.50 
G01 X19.55 Y15.9 Z255 F2.50 
G01 X19.6 Y15.85 Z255 F2.50 
G01 X19.65 Y15.85 Z255 F2.50 
G01 X19.7 Y15.8 Z255 F2.50 
G01 X19.75 Y15.8 Z255 F2.50 
G01 X19.9 Y15.75 Z255 F2.50 
G01 X19.95 Y15.75 Z255 F2.50 
G01 X20.15 Y15.7 Z255 F2.50 
G01 X20.2 Y15.7 Z255 F2.50 
G01 X20.65 Y15.65 Z255 F2.50 
G01 X20.7 Y15.65 Z255 F2.50 
G01 X21.2 Y15.7 Z255 F2.50 
G01 X21.25 Y15.7 Z255 F2.50 
G01 X21.45 Y15.75 Z255 F2.50 
G01 X21.45 Y15.75 Z255 F2.50 
G00 X21.3 Y15.25 Z0 F100.00 

G01 X21.35 Y15.25 Z255 F2.50 
G01 X21.45 Y15.2 Z255 F2.50 
G01 X21.45 Y15.2 Z255 F2.50 
G00 X21.15 Y15.25 Z0 F100.00 

G01 X21.1 Y15.25 Z255 F2.50 
G01 X20.75 Y15.2 Z255 F2.50 
G01 X20.75 Y15.25 Z255 F2.50 
G01 X20.75 Y15.25 Z255 F2.50 
G00 X20.8 Y15.1 Z0 F100.00 

G01 X20.8 Y15.05 Z255 F2.50 
G01 X20.85 Y14.95 Z255 F2.50 
G01 X20.85 Y14.9 Z255 F2.50 
G01 X20.8 Y14.7 Z255 F2.50 
G01 X20.75 Y14.7 Z255 F2.50 
G01 X20.7 Y14.75 Z255 F2.50 
G01 X20.65 Y14.75 Z255 F2.50 
G01 X20.5 Y14.8 Z255 F2.50 
G01 X20.45 Y14.8 Z255 F2.50 
G01 X20.3 Y14.85 Z255 F2.50 
G01 X20.25 Y14.8 Z255 F2.50 
G01 X20.3 Y14.75 Z255 F2.50 
G01 X20.45 Y14.65 Z255 F2.50 
G01 X20.5 Y14.6 Z255 F2.50 
G01 X20.55 Y14.6 Z255 F2.50 
G01 X20.6 Y14.55 Z255 F2.50 
G01 X20.75 Y14.45 Z255 F2.50 
G01 X20.8 Y14.4 Z255 F2.50 
G01 X20.9 Y14.25 Z255 F2.50 
G01 X20.95 Y14.2 Z255 F2.50 
G01 X21.0 Y14.1 Z255 F2.50 
G01 X21.05 Y14.05 Z255 F2.50 
G01 X21.1 Y13.95 Z255 F2.50 
G01 X21.15 Y13.85 Z255 F2.50 
G01 X21.15 Y13.8 Z255 F2.50 
G01 X21.2 Y13.7 Z255 F2.50 
G01 X21.2 Y13.65 Z255 F2.50 
G01 X21.25 Y13.6 Z255 F2.50 
G01 X21.35 Y13.55 Z255 F2.50 
G01 X21.4 Y13.5 Z255 F2.50 
G01 X21.45 Y13.5 Z255 F2.50 
G01 X21.45 Y13.5 Z255 F2.50 
G00 X21.4 Y13.35 Z0 F100.00 

G01 X21.35 Y13.3 Z255 F2.50 
G01 X21.35 Y13.2 Z255 F2.50 
G01 X21.45 Y13.2 Z255 F2.50 
G01 X21.4 Y13.2 Z255 F2.50 
G01 X21.45 Y13.15 Z255 F2.50 
G01 X21.45 Y13.15 Z255 F2.50 
G00 X21.3 Y13.4 Z0 F100.00 

G01 X21.35 Y13.35 Z255 F2.50 
G01 X21.35 Y13.35 Z255 F2.50 
G00 X21.3 Y13.45 Z0 F100.00 

G01 X21.25 Y13.45 Z255 F2.50 
G01 X21.2 Y13.5 Z255 F2.50 
G01 X21.2 Y13.5 Z255 F2.50 
G00 X21.15 Y13.4 Z0 F100.00 

G01 X21.15 Y13.4 Z255 F2.50 
G00 X21.3 Y14.4 Z0 F100.00 

G01 X21.35 Y14.45 Z255 F2.50 
G01 X21.4 Y14.45 Z255 F2.50 
G01 X21.45 Y14.4 Z255 F2.50 
G01 X21.4 Y14.35 Z255 F2.50 
G01 X21.4 Y14.35 Z255 F2.50 
G00 X20.2 Y14.8 Z0 F100.00 

G01 X20.15 Y14.85 Z255 F2.50 
G01 X20.15 Y14.9 Z255 F2.50 
G01 X20.2 Y14.85 Z255 F2.50 
G01 X20.2 Y14.85 Z255 F2.50 
G00 X20.05 Y14.9 Z0 F100.00 

G01 X20.0 Y14.9 Z255 F2.50 
G01 X20.0 Y14.9 Z255 F2.50 
G00 X18.35 Y15.8 Z0 F100.00 

G01 X18.35 Y15.75 Z255 F2.50 
G01 X18.35 Y15.75 Z255 F2.50 
G00 X18.25 Y15.6 Z0 F100.00 

G01 X18.3 Y15.6 Z255 F2.50 
G01 X18.25 Y15.65 Z255 F2.50 
G01 X18.2 Y15.8 Z255 F2.50 
G01 X18.2 Y15.9 Z255 F2.50 
G01 X18.15 Y15.85 Z255 F2.50 
G01 X18.15 Y15.8 Z255 F2.50 
G01 X18.2 Y15.75 Z255 F2.50 
G01 X18.15 Y15.7 Z255 F2.50 
G01 X18.15 Y15.7 Z255 F2.50 
G00 X18.3 Y15.95 Z0 F100.00 

G01 X18.25 Y16.0 Z255 F2.50 
G01 X18.1 Y16.2 Z255 F2.50 
G01 X18.05 Y16.25 Z255 F2.50 
G01 X17.75 Y16.5 Z255 F2.50 
G01 X17.7 Y16.55 Z255 F2.50 
G01 X17.3 Y17.0 Z255 F2.50 
G01 X17.25 Y17.05 Z255 F2.50 
G01 X17.2 Y17.15 Z255 F2.50 
G01 X17.15 Y17.2 Z255 F2.50 
G01 X16.95 Y17.45 Z255 F2.50 
G01 X16.9 Y17.5 Z255 F2.50 
G01 X16.9 Y17.55 Z255 F2.50 
G01 X16.9 Y17.55 Z255 F2.50 
G00 X17.0 Y17.3 Z0 F100.00 

G01 X17.0 Y17.25 Z255 F2.50 
G01 X17.05 Y17.15 Z255 F2.50 
G01 X17.05 Y17.1 Z255 F2.50 
G01 X17.1 Y17.0 Z255 F2.50 
G01 X17.1 Y16.95 Z255 F2.50 
G01 X17.15 Y16.9 Z255 F2.50 
G01 X17.15 Y16.85 Z255 F2.50 
G01 X17.2 Y16.75 Z255 F2.50 
G01 X17.2 Y16.7 Z255 F2.50 
G01 X17.25 Y16.65 Z255 F2.50 
G01 X17.25 Y16.6 Z255 F2.50 
G01 X17.3 Y16.55 Z255 F2.50 
G01 X17.4 Y16.5 Z255 F2.50 
G01 X17.55 Y16.45 Z255 F2.50 
G01 X17.7 Y16.25 Z255 F2.50 
G01 X17.75 Y16.2 Z255 F2.50 
G01 X18.05 Y15.95 Z255 F2.50 
G01 X18.1 Y16.0 Z255 F2.50 
G01 X18.15 Y16.05 Z255 F2.50 
G00 X17.5 Y16.7 Z0 F100.00 

G01 X17.5 Y16.7 Z255 F2.50 
G00 X17.35 Y16.75 Z0 F100.00 

G01 X17.4 Y16.8 Z255 F2.50 
G01 X17.4 Y16.8 Z255 F2.50 
G00 X17.8 Y17.45 Z0 F100.00 

G01 X17.75 Y17.5 Z255 F2.50 
G01 X17.7 Y17.55 Z255 F2.50 
G00 X17.4 Y18.1 Z0 F100.00 

G01 X17.35 Y18.05 Z255 F2.50 
G01 X17.35 Y18.0 Z255 F2.50 
G01 X17.35 Y18.0 Z255 F2.50 
G00 X17.7 Y18.4 Z0 F100.00 

G01 X17.7 Y18.45 Z255 F2.50 
G01 X17.65 Y18.5 Z255 F2.50 
G01 X17.6 Y18.45 Z255 F2.50 
G01 X17.6 Y18.4 Z255 F2.50 
G01 X17.6 Y18.4 Z255 F2.50 
G00 X17.85 Y18.6 Z0 F100.00 

G01 X18.05 Y18.75 Z255 F2.50 
G01 X18.1 Y18.8 Z255 F2.50 
G01 X18.35 Y19.0 Z255 F2.50 
G01 X18.3 Y19.05 Z255 F2.50 
G01 X18.3 Y19.1 Z255 F2.50 
G01 X18.35 Y19.15 Z255 F2.50 
G01 X18.35 Y19.2 Z255 F2.50 
G01 X18.4 Y19.3 Z255 F2.50 
G01 X18.4 Y19.35 Z255 F2.50 
G01 X18.45 Y19.5 Z255 F2.50 
G01 X18.45 Y19.55 Z255 F2.50 
G01 X18.5 Y19.85 Z255 F2.50 
G01 X18.6 Y19.9 Z255 F2.50 
G01 X18.7 Y19.95 Z255 F2.50 
G01 X18.75 Y19.95 Z255 F2.50 
G01 X18.8 Y20.0 Z255 F2.50 
G01 X18.85 Y20.0 Z255 F2.50 
G01 X19.05 Y20.05 Z255 F2.50 
G01 X19.1 Y20.0 Z255 F2.50 
G01 X19.15 Y20.0 Z255 F2.50 
G01 X19.2 Y20.05 Z255 F2.50 
G01 X19.2 Y20.15 Z255 F2.50 
G01 X19.05 Y20.35 Z255 F2.50 
G01 X19.0 Y20.4 Z255 F2.50 
G01 X18.7 Y20.65 Z255 F2.50 
G01 X18.65 Y20.7 Z255 F2.50 
G01 X18.55 Y20.75 Z255 F2.50 
G01 X18.5 Y20.8 Z255 F2.50 
G01 X18.45 Y20.8 Z255 F2.50 
G01 X18.35 Y20.85 Z255 F2.50 
G01 X18.3 Y20.85 Z255 F2.50 
G01 X18.1 Y20.9 Z255 F2.50 
G01 X18.05 Y20.9 Z255 F2.50 
G01 X17.8 Y20.95 Z255 F2.50 
G01 X17.75 Y20.95 Z255 F2.50 
G01 X17.7 Y21.0 Z255 F2.50 
G01 X17.65 Y20.95 Z255 F2.50 
G01 X17.65 Y21.0 Z255 F2.50 
G01 X17.65 Y21.0 Z255 F2.50 
G00 X17.6 Y20.85 Z0 F100.00 

G01 X17.6 Y20.8 Z255 F2.50 
G01 X17.55 Y20.75 Z255 F2.50 
G01 X17.6 Y20.75 Z255 F2.50 
G01 X17.65 Y20.7 Z255 F2.50 
G01 X17.6 Y20.65 Z255 F2.50 
G01 X17.55 Y20.7 Z255 F2.50 
G01 X17.55 Y20.7 Z255 F2.50 
G00 X17.35 Y20.7 Z0 F100.00 

G01 X17.35 Y20.7 Z255 F2.50 
G00 X17.75 Y20.65 Z0 F100.00 

G01 X17.8 Y20.65 Z255 F2.50 
G01 X17.85 Y20.6 Z255 F2.50 
G01 X17.9 Y20.6 Z255 F2.50 
G01 X17.95 Y20.55 Z255 F2.50 
G01 X18.0 Y20.55 Z255 F2.50 
G01 X18.05 Y20.5 Z255 F2.50 
G01 X18.25 Y20.4 Z255 F2.50 
G01 X18.25 Y20.45 Z255 F2.50 
G01 X18.3 Y20.5 Z255 F2.50 
G01 X18.25 Y20.55 Z255 F2.50 
G01 X18.1 Y20.6 Z255 F2.50 
G01 X18.15 Y20.55 Z255 F2.50 
G01 X18.2 Y20.5 Z255 F2.50 
G00 X18.4 Y20.45 Z0 F100.00 

G01 X18.4 Y20.35 Z255 F2.50 
G01 X18.35 Y20.4 Z255 F2.50 
G01 X18.35 Y20.35 Z255 F2.50 
G01 X18.3 Y20.3 Z255 F2.50 
G01 X18.25 Y20.35 Z255 F2.50 
G01 X18.2 Y20.3 Z255 F2.50 
G01 X18.25 Y20.25 Z255 F2.50 
G01 X18.3 Y20.25 Z255 F2.50 
G01 X18.35 Y20.3 Z255 F2.50 
G01 X18.4 Y20.25 Z255 F2.50 
G01 X18.35 Y20.2 Z255 F2.50 
G01 X18.25 Y20.2 Z255 F2.50 
G01 X18.25 Y20.2 Z255 F2.50 
G00 X18.3 Y20.05 Z0 F100.00 

G01 X18.25 Y19.6 Z255 F2.50 
G01 X18.25 Y19.55 Z255 F2.50 
G01 X18.2 Y19.35 Z255 F2.50 
G01 X18.2 Y19.3 Z255 F2.50 
G01 X18.15 Y19.25 Z255 F2.50 
G01 X18.15 Y19.2 Z255 F2.50 
G01 X18.1 Y19.15 Z255 F2.50 
G01 X17.85 Y18.95 Z255 F2.50 
G01 X17.8 Y18.9 Z255 F2.50 
G01 X17.75 Y18.9 Z255 F2.50 
G01 X17.7 Y18.85 Z255 F2.50 
G01 X17.65 Y18.85 Z255 F2.50 
G01 X17.55 Y18.9 Z255 F2.50 
G01 X17.45 Y18.95 Z255 F2.50 
G01 X17.45 Y18.95 Z255 F2.50 
G00 X17.5 Y18.8 Z0 F100.00 

G01 X17.6 Y18.75 Z255 F2.50 
G01 X17.65 Y18.7 Z255 F2.50 
G01 X17.6 Y18.65 Z255 F2.50 
G01 X17.55 Y18.7 Z255 F2.50 
G01 X17.5 Y18.65 Z255 F2.50 
G01 X17.45 Y18.7 Z255 F2.50 
G01 X17.4 Y18.7 Z255 F2.50 
G01 X17.45 Y18.75 Z255 F2.50 
G01 X17.45 Y18.8 Z255 F2.50 
G01 X17.5 Y18.85 Z255 F2.50 
G01 X17.5 Y18.85 Z255 F2.50 
G00 X17.35 Y18.9 Z0 F100.00 

G01 X17.3 Y19.05 Z255 F2.50 
G01 X17.35 Y19.05 Z255 F2.50 
G01 X17.35 Y19.05 Z255 F2.50 
G00 X17.2 Y19.1 Z0 F100.00 

G01 X17.25 Y19.2 Z255 F2.50 
G01 X17.2 Y19.25 Z255 F2.50 
G01 X17.25 Y19.3 Z255 F2.50 
G01 X17.25 Y19.4 Z255 F2.50 
G01 X17.2 Y19.4 Z255 F2.50 
G01 X17.15 Y19.45 Z255 F2.50 
G01 X17.1 Y19.45 Z255 F2.50 
G01 X17.05 Y19.5 Z255 F2.50 
G01 X17.0 Y19.5 Z255 F2.50 
G01 X16.95 Y19.55 Z255 F2.50 
G01 X16.9 Y19.55 Z255 F2.50 
G01 X16.85 Y19.6 Z255 F2.50 
G01 X16.8 Y19.6 Z255 F2.50 
G01 X16.75 Y19.65 Z255 F2.50 
G01 X16.7 Y19.65 Z255 F2.50 
G01 X16.6 Y19.7 Z255 F2.50 
G01 X16.55 Y19.8 Z255 F2.50 
G01 X16.5 Y19.85 Z255 F2.50 
G01 X16.5 Y19.9 Z255 F2.50 
G01 X16.45 Y20.05 Z255 F2.50 
G01 X16.4 Y20.05 Z255 F2.50 
G01 X16.45 Y20.1 Z255 F2.50 
G01 X16.45 Y20.15 Z255 F2.50 
G01 X16.4 Y20.2 Z255 F2.50 
G01 X16.35 Y20.15 Z255 F2.50 
G01 X16.3 Y20.15 Z255 F2.50 
G01 X16.35 Y20.1 Z255 F2.50 
G01 X16.35 Y20.1 Z255 F2.50 
G00 X16.2 Y20.2 Z0 F100.00 

G01 X16.25 Y20.25 Z255 F2.50 
G01 X16.35 Y20.3 Z255 F2.50 
G01 X16.4 Y20.25 Z255 F2.50 
G01 X16.45 Y20.2 Z255 F2.50 
G00 X16.35 Y20.5 Z0 F100.00 

G01 X16.3 Y20.5 Z255 F2.50 
G01 X16.25 Y20.45 Z255 F2.50 
G01 X16.2 Y20.45 Z255 F2.50 
G01 X16.25 Y20.5 Z255 F2.50 
G01 X16.2 Y20.55 Z255 F2.50 
G01 X16.15 Y20.55 Z255 F2.50 
G01 X16.0 Y20.6 Z255 F2.50 
G01 X15.95 Y20.6 Z255 F2.50 
G01 X15.85 Y20.65 Z255 F2.50 
G01 X15.8 Y20.75 Z255 F2.50 
G01 X15.75 Y20.85 Z255 F2.50 
G01 X15.75 Y20.9 Z255 F2.50 
G01 X15.7 Y21.05 Z255 F2.50 
G01 X15.55 Y21.15 Z255 F2.50 
G01 X15.4 Y21.2 Z255 F2.50 
G01 X15.35 Y21.2 Z255 F2.50 
G01 X15.3 Y21.25 Z255 F2.50 
G01 X15.3 Y21.3 Z255 F2.50 
G01 X15.35 Y21.35 Z255 F2.50 
G01 X15.5 Y21.55 Z255 F2.50 
G01 X15.45 Y21.65 Z255 F2.50 
G01 X15.35 Y21.8 Z255 F2.50 
G01 X15.4 Y21.85 Z255 F2.50 
G01 X15.45 Y21.85 Z255 F2.50 
G01 X15.6 Y21.8 Z255 F2.50 
G01 X15.65 Y21.8 Z255 F2.50 
G01 X16.05 Y21.75 Z255 F2.50 
G01 X16.1 Y21.75 Z255 F2.50 
G01 X16.3 Y21.7 Z255 F2.50 
G01 X16.35 Y21.7 Z255 F2.50 
G01 X16.55 Y21.65 Z255 F2.50 
G01 X16.6 Y21.65 Z255 F2.50 
G01 X16.75 Y21.6 Z255 F2.50 
G01 X16.8 Y21.6 Z255 F2.50 
G01 X16.95 Y21.55 Z255 F2.50 
G01 X17.0 Y21.55 Z255 F2.50 
G01 X17.1 Y21.6 Z255 F2.50 
G01 X17.2 Y21.6 Z255 F2.50 
G01 X17.4 Y21.45 Z255 F2.50 
G01 X17.55 Y21.4 Z255 F2.50 
G01 X17.6 Y21.4 Z255 F2.50 
G01 X17.7 Y21.35 Z255 F2.50 
G01 X17.75 Y21.35 Z255 F2.50 
G01 X17.85 Y21.3 Z255 F2.50 
G01 X17.9 Y21.3 Z255 F2.50 
G01 X17.95 Y21.35 Z255 F2.50 
G01 X18.0 Y21.3 Z255 F2.50 
G01 X18.2 Y21.15 Z255 F2.50 
G01 X18.15 Y21.2 Z255 F2.50 
G01 X18.2 Y21.25 Z255 F2.50 
G01 X18.25 Y21.25 Z255 F2.50 
G01 X18.3 Y21.2 Z255 F2.50 
G01 X18.35 Y21.25 Z255 F2.50 
G01 X18.4 Y21.2 Z255 F2.50 
G01 X18.4 Y21.1 Z255 F2.50 
G01 X18.4 Y21.1 Z255 F2.50 
G00 X18.55 Y21.15 Z0 F100.00 

G01 X18.6 Y21.1 Z255 F2.50 
G01 X18.65 Y21.1 Z255 F2.50 
G01 X18.7 Y21.15 Z255 F2.50 
G01 X18.75 Y21.15 Z255 F2.50 
G01 X18.8 Y21.1 Z255 F2.50 
G01 X18.85 Y21.1 Z255 F2.50 
G01 X19.0 Y21.15 Z255 F2.50 
G01 X19.0 Y21.25 Z255 F2.50 
G01 X18.95 Y21.2 Z255 F2.50 
G01 X18.95 Y21.2 Z255 F2.50 
G00 X19.05 Y21.1 Z0 F100.00 

G01 X19.1 Y21.05 Z255 F2.50 
G01 X19.15 Y21.1 Z255 F2.50 
G01 X19.2 Y21.1 Z255 F2.50 
G01 X19.25 Y21.15 Z255 F2.50 
G01 X19.3 Y21.1 Z255 F2.50 
G01 X19.3 Y21.0 Z255 F2.50 
G01 X19.25 Y21.05 Z255 F2.50 
G01 X19.25 Y21.0 Z255 F2.50 
G01 X19.25 Y21.0 Z255 F2.50 
G00 X19.4 Y21.05 Z0 F100.00 

G01 X19.5 Y21.0 Z255 F2.50 
G01 X19.55 Y20.95 Z255 F2.50 
G01 X19.55 Y20.95 Z255 F2.50 
G00 X19.15 Y21.25 Z0 F100.00 

G01 X19.15 Y21.3 Z255 F2.50 
G01 X19.1 Y21.35 Z255 F2.50 
G01 X19.0 Y21.5 Z255 F2.50 
G01 X18.95 Y21.55 Z255 F2.50 
G01 X18.95 Y21.6 Z255 F2.50 
G01 X18.9 Y21.75 Z255 F2.50 
G01 X18.9 Y21.8 Z255 F2.50 
G01 X18.95 Y22.0 Z255 F2.50 
G01 X18.95 Y22.05 Z255 F2.50 
G01 X19.0 Y22.1 Z255 F2.50 
G01 X19.05 Y22.1 Z255 F2.50 
G01 X19.15 Y22.15 Z255 F2.50 
G01 X19.25 Y22.3 Z255 F2.50 
G01 X19.2 Y22.35 Z255 F2.50 
G01 X19.25 Y22.35 Z255 F2.50 
G01 X19.3 Y22.4 Z255 F2.50 
G01 X19.3 Y22.45 Z255 F2.50 
G01 X19.3 Y22.45 Z255 F2.50 
G00 X19.1 Y22.35 Z0 F100.00 

G01 X18.95 Y22.4 Z255 F2.50 
G01 X18.95 Y22.45 Z255 F2.50 
G01 X18.9 Y22.5 Z255 F2.50 
G01 X18.9 Y22.55 Z255 F2.50 
G01 X18.85 Y22.75 Z255 F2.50 
G01 X18.8 Y22.85 Z255 F2.50 
G01 X18.85 Y23.0 Z255 F2.50 
G01 X18.85 Y23.05 Z255 F2.50 
G01 X18.9 Y23.15 Z255 F2.50 
G01 X18.9 Y23.2 Z255 F2.50 
G01 X18.95 Y23.25 Z255 F2.50 
G01 X18.95 Y23.3 Z255 F2.50 
G01 X19.0 Y23.35 Z255 F2.50 
G01 X19.0 Y23.4 Z255 F2.50 
G01 X19.05 Y23.5 Z255 F2.50 
G01 X19.05 Y23.55 Z255 F2.50 
G01 X18.85 Y23.5 Z255 F2.50 
G01 X18.8 Y23.55 Z255 F2.50 
G01 X18.75 Y23.5 Z255 F2.50 
G01 X18.7 Y23.5 Z255 F2.50 
G01 X18.35 Y23.45 Z255 F2.50 
G01 X18.3 Y23.45 Z255 F2.50 
G01 X18.15 Y23.4 Z255 F2.50 
G01 X18.1 Y23.4 Z255 F2.50 
G01 X18.0 Y23.35 Z255 F2.50 
G01 X17.95 Y23.35 Z255 F2.50 
G01 X17.85 Y23.3 Z255 F2.50 
G01 X17.9 Y23.25 Z255 F2.50 
G01 X17.9 Y23.2 Z255 F2.50 
G01 X17.95 Y23.15 Z255 F2.50 
G01 X18.15 Y23.0 Z255 F2.50 
G01 X18.2 Y22.95 Z255 F2.50 
G01 X18.25 Y22.95 Z255 F2.50 
G01 X18.3 Y22.9 Z255 F2.50 
G01 X18.3 Y22.85 Z255 F2.50 
G01 X18.25 Y22.8 Z255 F2.50 
G01 X18.2 Y22.85 Z255 F2.50 
G01 X18.15 Y22.85 Z255 F2.50 
G01 X18.05 Y22.9 Z255 F2.50 
G01 X18.0 Y22.9 Z255 F2.50 
G01 X17.85 Y22.95 Z255 F2.50 
G01 X17.8 Y22.95 Z255 F2.50 
G01 X17.6 Y23.0 Z255 F2.50 
G01 X17.55 Y23.0 Z255 F2.50 
G01 X16.95 Y23.05 Z255 F2.50 
G01 X16.9 Y23.05 Z255 F2.50 
G01 X16.25 Y23.0 Z255 F2.50 
G01 X16.2 Y23.0 Z255 F2.50 
G01 X15.8 Y22.95 Z255 F2.50 
G01 X15.75 Y22.95 Z255 F2.50 
G01 X15.65 Y23.0 Z255 F2.50 
G01 X15.6 Y23.0 Z255 F2.50 
G01 X15.55 Y22.95 Z255 F2.50 
G01 X15.5 Y22.95 Z255 F2.50 
G01 X15.4 Y23.0 Z255 F2.50 
G01 X15.35 Y23.0 Z255 F2.50 
G01 X15.15 Y22.95 Z255 F2.50 
G01 X15.1 Y23.0 Z255 F2.50 
G01 X15.15 Y23.0 Z255 F2.50 
G01 X15.1 Y23.05 Z255 F2.50 
G01 X15.1 Y23.05 Z255 F2.50 
G00 X15.0 Y22.95 Z0 F100.00 

G01 X15.05 Y22.85 Z255 F2.50 
G01 X15.1 Y22.85 Z255 F2.50 
G01 X15.15 Y22.9 Z255 F2.50 
G01 X15.15 Y22.9 Z255 F2.50 
G00 X15.0 Y22.85 Z0 F100.00 

G01 X15.0 Y22.85 Z255 F2.50 
G00 X15.05 Y22.7 Z0 F100.00 

G01 X15.0 Y22.35 Z255 F2.50 
G01 X14.95 Y22.35 Z255 F2.50 
G01 X14.9 Y22.3 Z255 F2.50 
G01 X14.8 Y22.15 Z255 F2.50 
G01 X14.75 Y22.1 Z255 F2.50 
G01 X14.7 Y22.1 Z255 F2.50 
G01 X14.65 Y22.05 Z255 F2.50 
G01 X14.6 Y22.05 Z255 F2.50 
G01 X14.55 Y22.0 Z255 F2.50 
G01 X14.6 Y21.95 Z255 F2.50 
G01 X14.7 Y21.9 Z255 F2.50 
G01 X14.75 Y21.85 Z255 F2.50 
G01 X14.85 Y21.8 Z255 F2.50 
G01 X14.9 Y21.75 Z255 F2.50 
G01 X15.05 Y21.55 Z255 F2.50 
G01 X15.1 Y21.5 Z255 F2.50 
G01 X15.05 Y21.45 Z255 F2.50 
G01 X15.0 Y21.5 Z255 F2.50 
G01 X14.9 Y21.55 Z255 F2.50 
G01 X14.85 Y21.6 Z255 F2.50 
G01 X14.7 Y21.7 Z255 F2.50 
G01 X14.65 Y21.75 Z255 F2.50 
G01 X14.55 Y21.8 Z255 F2.50 
G01 X14.45 Y21.85 Z255 F2.50 
G01 X14.4 Y21.85 Z255 F2.50 
G01 X14.2 Y21.9 Z255 F2.50 
G01 X14.15 Y21.9 Z255 F2.50 
G01 X14.05 Y21.95 Z255 F2.50 
G01 X14.1 Y22.0 Z255 F2.50 
G01 X14.15 Y22.0 Z255 F2.50 
G01 X14.45 Y22.05 Z255 F2.50 
G01 X14.45 Y22.1 Z255 F2.50 
G01 X14.5 Y22.15 Z255 F2.50 
G01 X14.5 Y22.2 Z255 F2.50 
G01 X14.45 Y22.45 Z255 F2.50 
G01 X14.45 Y22.5 Z255 F2.50 
G01 X14.5 Y22.55 Z255 F2.50 
G01 X14.6 Y22.7 Z255 F2.50 
G01 X14.65 Y22.75 Z255 F2.50 
G01 X14.65 Y22.8 Z255 F2.50 
G01 X14.7 Y22.9 Z255 F2.50 
G01 X14.7 Y22.95 Z255 F2.50 
G01 X14.75 Y23.05 Z255 F2.50 
G01 X14.75 Y23.1 Z255 F2.50 
G01 X14.8 Y23.25 Z255 F2.50 
G01 X14.8 Y23.3 Z255 F2.50 
G01 X14.85 Y23.4 Z255 F2.50 
G01 X14.9 Y23.4 Z255 F2.50 
G01 X14.95 Y23.35 Z255 F2.50 
G01 X15.0 Y23.4 Z255 F2.50 
G01 X15.15 Y23.45 Z255 F2.50 
G01 X15.2 Y23.5 Z255 F2.50 
G01 X15.25 Y23.5 Z255 F2.50 
G01 X15.35 Y23.55 Z255 F2.50 
G01 X15.5 Y23.65 Z255 F2.50 
G01 X15.55 Y23.7 Z255 F2.50 
G01 X15.65 Y23.75 Z255 F2.50 
G01 X15.75 Y23.8 Z255 F2.50 
G01 X15.8 Y23.8 Z255 F2.50 
G01 X15.9 Y23.85 Z255 F2.50 
G01 X16.05 Y23.9 Z255 F2.50 
G01 X16.1 Y23.95 Z255 F2.50 
G01 X16.2 Y24.0 Z255 F2.50 
G01 X16.4 Y24.05 Z255 F2.50 
G01 X16.45 Y24.0 Z255 F2.50 
G01 X16.5 Y24.0 Z255 F2.50 
G01 X16.5 Y24.0 Z255 F2.50 
G00 X16.35 Y24.15 Z0 F100.00 

G01 X16.4 Y24.35 Z255 F2.50 
G01 X16.55 Y24.45 Z255 F2.50 
G01 X16.6 Y24.5 Z255 F2.50 
G01 X16.65 Y24.5 Z255 F2.50 
G01 X16.95 Y24.55 Z255 F2.50 
G01 X17.0 Y24.55 Z255 F2.50 
G01 X17.35 Y24.5 Z255 F2.50 
G01 X17.4 Y24.5 Z255 F2.50 
G01 X17.55 Y24.45 Z255 F2.50 
G01 X17.65 Y24.3 Z255 F2.50 
G01 X17.7 Y24.25 Z255 F2.50 
G01 X17.75 Y24.3 Z255 F2.50 
G01 X17.8 Y24.3 Z255 F2.50 
G01 X18.05 Y24.35 Z255 F2.50 
G01 X18.1 Y24.45 Z255 F2.50 
G01 X18.15 Y24.5 Z255 F2.50 
G01 X18.3 Y24.6 Z255 F2.50 
G01 X18.35 Y24.55 Z255 F2.50 
G01 X18.4 Y24.55 Z255 F2.50 
G01 X18.65 Y24.6 Z255 F2.50 
G01 X18.7 Y24.6 Z255 F2.50 
G01 X19.2 Y24.65 Z255 F2.50 
G01 X19.25 Y24.6 Z255 F2.50 
G01 X19.3 Y24.6 Z255 F2.50 
G01 X19.6 Y24.55 Z255 F2.50 
G01 X19.65 Y24.55 Z255 F2.50 
G01 X20.05 Y24.5 Z255 F2.50 
G01 X20.1 Y24.4 Z255 F2.50 
G01 X20.15 Y24.35 Z255 F2.50 
G01 X20.2 Y24.25 Z255 F2.50 
G01 X20.25 Y24.0 Z255 F2.50 
G01 X20.4 Y23.95 Z255 F2.50 
G01 X20.4 Y24.0 Z255 F2.50 
G01 X20.45 Y24.1 Z255 F2.50 
G01 X20.45 Y24.15 Z255 F2.50 
G01 X20.5 Y24.2 Z255 F2.50 
G01 X20.5 Y24.25 Z255 F2.50 
G01 X20.45 Y24.4 Z255 F2.50 
G01 X20.45 Y24.45 Z255 F2.50 
G01 X20.4 Y24.5 Z255 F2.50 
G01 X20.35 Y24.6 Z255 F2.50 
G01 X20.3 Y24.65 Z255 F2.50 
G01 X20.25 Y24.75 Z255 F2.50 
G01 X20.2 Y24.8 Z255 F2.50 
G01 X20.1 Y24.85 Z255 F2.50 
G01 X20.05 Y24.9 Z255 F2.50 
G01 X20.0 Y24.9 Z255 F2.50 
G01 X19.95 Y24.95 Z255 F2.50 
G01 X19.85 Y25.0 Z255 F2.50 
G01 X19.8 Y25.05 Z255 F2.50 
G01 X19.75 Y25.05 Z255 F2.50 
G01 X19.65 Y25.0 Z255 F2.50 
G01 X19.6 Y25.0 Z255 F2.50 
G01 X19.05 Y24.95 Z255 F2.50 
G01 X19.0 Y24.95 Z255 F2.50 
G01 X18.9 Y25.0 Z255 F2.50 
G01 X18.85 Y25.0 Z255 F2.50 
G01 X18.05 Y25.05 Z255 F2.50 
G01 X18.0 Y25.05 Z255 F2.50 
G01 X17.75 Y25.1 Z255 F2.50 
G01 X17.7 Y25.1 Z255 F2.50 
G01 X17.5 Y25.15 Z255 F2.50 
G01 X17.55 Y25.2 Z255 F2.50 
G01 X17.6 Y25.2 Z255 F2.50 
G01 X17.85 Y25.25 Z255 F2.50 
G01 X17.9 Y25.25 Z255 F2.50 
G01 X18.4 Y25.2 Z255 F2.50 
G01 X18.45 Y25.2 Z255 F2.50 
G01 X18.5 Y25.25 Z255 F2.50 
G01 X18.55 Y25.2 Z255 F2.50 
G01 X18.6 Y25.25 Z255 F2.50 
G01 X18.7 Y25.3 Z255 F2.50 
G01 X18.75 Y25.25 Z255 F2.50 
G01 X18.75 Y25.3 Z255 F2.50 
G01 X18.8 Y25.35 Z255 F2.50 
G01 X18.85 Y25.3 Z255 F2.50 
G01 X18.9 Y25.35 Z255 F2.50 
G01 X18.95 Y25.35 Z255 F2.50 
G01 X19.0 Y25.3 Z255 F2.50 
G01 X19.05 Y25.3 Z255 F2.50 
G01 X19.1 Y25.35 Z255 F2.50 
G01 X19.1 Y25.4 Z255 F2.50 
G01 X19.15 Y25.6 Z255 F2.50 
G01 X19.15 Y25.65 Z255 F2.50 
G01 X19.2 Y25.75 Z255 F2.50 
G01 X19.2 Y25.8 Z255 F2.50 
G01 X19.25 Y25.85 Z255 F2.50 
G01 X19.3 Y25.95 Z255 F2.50 
G01 X19.35 Y26.0 Z255 F2.50 
G01 X19.35 Y26.05 Z255 F2.50 
G01 X19.4 Y26.1 Z255 F2.50 
G01 X19.45 Y26.2 Z255 F2.50 
G01 X19.4 Y26.4 Z255 F2.50 
G01 X19.4 Y26.5 Z255 F2.50 
G01 X19.35 Y26.55 Z255 F2.50 
G01 X19.35 Y26.5 Z255 F2.50 
G01 X19.4 Y26.45 Z255 F2.50 
G01 X19.35 Y26.4 Z255 F2.50 
G01 X19.15 Y26.25 Z255 F2.50 
G01 X18.9 Y26.3 Z255 F2.50 
G01 X18.9 Y26.35 Z255 F2.50 
G01 X18.95 Y26.45 Z255 F2.50 
G01 X18.95 Y26.5 Z255 F2.50 
G01 X19.0 Y26.55 Z255 F2.50 
G01 X19.0 Y26.6 Z255 F2.50 
G01 X18.95 Y26.55 Z255 F2.50 
G01 X18.9 Y26.55 Z255 F2.50 
G01 X18.85 Y26.5 Z255 F2.50 
G01 X18.8 Y26.5 Z255 F2.50 
G01 X18.6 Y26.45 Z255 F2.50 
G01 X18.55 Y26.45 Z255 F2.50 
G01 X18.25 Y26.4 Z255 F2.50 
G01 X18.2 Y26.4 Z255 F2.50 
G01 X17.95 Y26.35 Z255 F2.50 
G01 X17.9 Y26.35 Z255 F2.50 
G01 X17.7 Y26.3 Z255 F2.50 
G01 X17.65 Y26.3 Z255 F2.50 
G01 X17.55 Y26.25 Z255 F2.50 
G01 X17.5 Y26.25 Z255 F2.50 
G01 X17.4 Y26.2 Z255 F2.50 
G01 X17.35 Y26.2 Z255 F2.50 
G01 X17.25 Y26.15 Z255 F2.50 
G01 X17.2 Y26.15 Z255 F2.50 
G01 X17.15 Y26.1 Z255 F2.50 
G01 X17.1 Y26.1 Z255 F2.50 
G01 X17.0 Y26.05 Z255 F2.50 
G01 X17.05 Y26.0 Z255 F2.50 
G01 X17.0 Y25.95 Z255 F2.50 
G01 X16.95 Y25.95 Z255 F2.50 
G01 X16.85 Y26.0 Z255 F2.50 
G01 X16.9 Y26.05 Z255 F2.50 
G01 X16.9 Y26.1 Z255 F2.50 
G01 X16.95 Y26.05 Z255 F2.50 
G01 X16.95 Y26.05 Z255 F2.50 
G00 X16.8 Y26.05 Z0 F100.00 

G01 X16.75 Y26.1 Z255 F2.50 
G01 X16.75 Y26.15 Z255 F2.50 
G01 X16.8 Y26.1 Z255 F2.50 
G01 X16.8 Y26.1 Z255 F2.50 
G00 X16.65 Y26.15 Z0 F100.00 

G01 X16.45 Y26.4 Z255 F2.50 
G01 X16.4 Y26.45 Z255 F2.50 
G01 X16.4 Y26.5 Z255 F2.50 
G01 X16.45 Y26.55 Z255 F2.50 
G01 X16.45 Y26.6 Z255 F2.50 
G01 X16.5 Y26.65 Z255 F2.50 
G01 X16.6 Y26.7 Z255 F2.50 
G01 X16.65 Y26.75 Z255 F2.50 
G01 X16.6 Y26.8 Z255 F2.50 
G01 X16.6 Y26.85 Z255 F2.50 
G01 X16.65 Y27.05 Z255 F2.50 
G01 X16.65 Y27.1 Z255 F2.50 
G01 X16.7 Y27.3 Z255 F2.50 
G01 X16.7 Y27.35 Z255 F2.50 
G01 X16.75 Y27.4 Z255 F2.50 
G01 X16.95 Y27.65 Z255 F2.50 
G01 X17.0 Y27.7 Z255 F2.50 
G01 X17.1 Y27.75 Z255 F2.50 
G01 X17.15 Y27.8 Z255 F2.50 
G01 X17.2 Y27.8 Z255 F2.50 
G01 X17.3 Y27.85 Z255 F2.50 
G01 X17.35 Y27.85 Z255 F2.50 
G01 X17.4 Y27.9 Z255 F2.50 
G01 X17.4 Y27.95 Z255 F2.50 
G01 X17.35 Y28.0 Z255 F2.50 
G01 X17.35 Y28.05 Z255 F2.50 
G01 X17.3 Y28.2 Z255 F2.50 
G01 X17.25 Y28.2 Z255 F2.50 
G01 X17.3 Y28.25 Z255 F2.50 
G01 X17.3 Y28.25 Z255 F2.50 
G00 X17.15 Y28.2 Z0 F100.00 

G01 X17.1 Y28.15 Z255 F2.50 
G01 X17.05 Y28.15 Z255 F2.50 
G01 X17.05 Y28.15 Z255 F2.50 
G00 X17.05 Y28.0 Z0 F100.00 

G01 X17.0 Y27.95 Z255 F2.50 
G01 X17.0 Y27.9 Z255 F2.50 
G01 X16.95 Y27.85 Z255 F2.50 
G01 X16.65 Y27.6 Z255 F2.50 
G01 X16.6 Y27.55 Z255 F2.50 
G01 X16.55 Y27.55 Z255 F2.50 
G01 X16.3 Y27.6 Z255 F2.50 
G01 X16.2 Y27.6 Z255 F2.50 
G01 X16.1 Y27.45 Z255 F2.50 
G01 X16.15 Y27.4 Z255 F2.50 
G01 X16.15 Y27.35 Z255 F2.50 
G01 X16.1 Y27.25 Z255 F2.50 
G01 X16.05 Y27.25 Z255 F2.50 
G01 X16.0 Y27.2 Z255 F2.50 
G01 X15.95 Y27.2 Z255 F2.50 
G01 X15.9 Y27.15 Z255 F2.50 
G01 X15.85 Y27.15 Z255 F2.50 
G01 X15.6 Y27.1 Z255 F2.50 
G01 X15.55 Y27.1 Z255 F2.50 
G01 X15.25 Y27.15 Z255 F2.50 
G01 X15.2 Y27.15 Z255 F2.50 
G01 X15.1 Y27.2 Z255 F2.50 
G01 X15.05 Y27.3 Z255 F2.50 
G01 X15.1 Y27.55 Z255 F2.50 
G01 X15.1 Y27.6 Z255 F2.50 
G01 X15.15 Y27.65 Z255 F2.50 
G01 X15.15 Y27.7 Z255 F2.50 
G01 X15.2 Y27.75 Z255 F2.50 
G01 X15.25 Y27.85 Z255 F2.50 
G01 X15.3 Y27.9 Z255 F2.50 
G01 X15.3 Y27.95 Z255 F2.50 
G01 X15.35 Y28.0 Z255 F2.50 
G01 X15.65 Y28.25 Z255 F2.50 
G01 X15.7 Y28.3 Z255 F2.50 
G01 X15.75 Y28.3 Z255 F2.50 
G01 X15.8 Y28.35 Z255 F2.50 
G01 X15.85 Y28.35 Z255 F2.50 
G01 X15.9 Y28.4 Z255 F2.50 
G01 X15.95 Y28.4 Z255 F2.50 
G01 X16.0 Y28.45 Z255 F2.50 
G01 X16.0 Y28.5 Z255 F2.50 
G01 X16.05 Y28.6 Z255 F2.50 
G01 X16.05 Y28.65 Z255 F2.50 
G01 X16.1 Y28.75 Z255 F2.50 
G01 X16.1 Y28.8 Z255 F2.50 
G01 X16.15 Y28.85 Z255 F2.50 
G01 X16.15 Y28.9 Z255 F2.50 
G01 X16.2 Y28.95 Z255 F2.50 
G01 X16.25 Y29.05 Z255 F2.50 
G01 X16.3 Y29.1 Z255 F2.50 
G01 X16.25 Y29.15 Z255 F2.50 
G01 X16.2 Y29.15 Z255 F2.50 
G01 X15.5 Y29.1 Z255 F2.50 
G01 X15.5 Y29.15 Z255 F2.50 
G01 X15.5 Y29.15 Z255 F2.50 
G00 X15.5 Y29.0 Z0 F100.00 

G01 X15.45 Y28.85 Z255 F2.50 
G01 X15.45 Y28.8 Z255 F2.50 
G01 X15.4 Y28.65 Z255 F2.50 
G01 X15.4 Y28.6 Z255 F2.50 
G01 X15.35 Y28.5 Z255 F2.50 
G01 X15.35 Y28.45 Z255 F2.50 
G01 X15.3 Y28.35 Z255 F2.50 
G01 X15.25 Y28.25 Z255 F2.50 
G01 X15.2 Y28.2 Z255 F2.50 
G01 X15.1 Y28.05 Z255 F2.50 
G01 X15.05 Y27.95 Z255 F2.50 
G01 X15.05 Y27.9 Z255 F2.50 
G01 X15.0 Y27.85 Z255 F2.50 
G01 X15.0 Y27.8 Z255 F2.50 
G01 X14.95 Y27.75 Z255 F2.50 
G01 X14.95 Y27.7 Z255 F2.50 
G01 X14.9 Y27.65 Z255 F2.50 
G01 X14.9 Y27.6 Z255 F2.50 
G01 X14.85 Y27.55 Z255 F2.50 
G01 X14.8 Y27.55 Z255 F2.50 
G01 X14.75 Y27.6 Z255 F2.50 
G01 X14.75 Y27.65 Z255 F2.50 
G01 X14.8 Y27.95 Z255 F2.50 
G01 X14.8 Y28.0 Z255 F2.50 
G01 X14.85 Y28.1 Z255 F2.50 
G01 X14.85 Y28.15 Z255 F2.50 
G01 X14.8 Y28.2 Z255 F2.50 
G01 X14.75 Y28.3 Z255 F2.50 
G01 X14.7 Y28.35 Z255 F2.50 
G01 X14.65 Y28.45 Z255 F2.50 
G01 X14.6 Y28.5 Z255 F2.50 
G01 X14.6 Y28.55 Z255 F2.50 
G01 X14.65 Y28.6 Z255 F2.50 
G01 X14.7 Y28.6 Z255 F2.50 
G01 X14.75 Y28.55 Z255 F2.50 
G01 X14.85 Y28.5 Z255 F2.50 
G01 X14.9 Y28.45 Z255 F2.50 
G01 X15.0 Y28.4 Z255 F2.50 
G01 X15.05 Y28.35 Z255 F2.50 
G01 X15.1 Y28.35 Z255 F2.50 
G01 X15.2 Y28.4 Z255 F2.50 
G01 X15.2 Y28.45 Z255 F2.50 
G01 X15.25 Y28.5 Z255 F2.50 
G01 X15.25 Y28.55 Z255 F2.50 
G01 X15.3 Y28.65 Z255 F2.50 
G01 X15.3 Y28.7 Z255 F2.50 
G01 X15.35 Y28.9 Z255 F2.50 
G01 X15.35 Y28.95 Z255 F2.50 
G01 X15.3 Y29.65 Z255 F2.50 
G01 X15.3 Y29.7 Z255 F2.50 
G01 X15.25 Y29.85 Z255 F2.50 
G01 X15.25 Y29.9 Z255 F2.50 
G01 X15.2 Y30.0 Z255 F2.50 
G01 X15.15 Y30.1 Z255 F2.50 
G01 X15.1 Y30.15 Z255 F2.50 
G01 X15.1 Y30.2 Z255 F2.50 
G01 X15.05 Y30.25 Z255 F2.50 
G01 X15.1 Y30.3 Z255 F2.50 
G01 X15.15 Y30.3 Z255 F2.50 
G01 X15.2 Y30.35 Z255 F2.50 
G01 X15.2 Y30.4 Z255 F2.50 
G01 X15.15 Y30.65 Z255 F2.50 
G01 X15.15 Y30.7 Z255 F2.50 
G01 X15.15 Y30.7 Z255 F2.50 
G00 X15.1 Y30.35 Z0 F100.00 

G01 X15.05 Y30.3 Z255 F2.50 
G01 X15.0 Y30.35 Z255 F2.50 
G01 X15.0 Y30.35 Z255 F2.50 
G00 X15.2 Y30.25 Z0 F100.00 

G01 X15.25 Y30.2 Z255 F2.50 
G01 X15.2 Y30.2 Z255 F2.50 
G01 X15.25 Y30.15 Z255 F2.50 
G01 X15.25 Y30.15 Z255 F2.50 
G00 X14.9 Y29.35 Z0 F100.00 

G01 X14.85 Y29.3 Z255 F2.50 
G01 X14.8 Y29.3 Z255 F2.50 
G01 X14.75 Y29.35 Z255 F2.50 
G01 X14.8 Y29.4 Z255 F2.50 
G01 X14.8 Y29.4 Z255 F2.50 
G00 X14.65 Y28.8 Z0 F100.00 

G01 X14.6 Y28.75 Z255 F2.50 
G01 X14.55 Y28.8 Z255 F2.50 
G01 X14.55 Y28.8 Z255 F2.50 
G00 X14.3 Y28.05 Z0 F100.00 

G01 X14.45 Y27.85 Z255 F2.50 
G01 X14.5 Y27.8 Z255 F2.50 
G01 X14.55 Y27.7 Z255 F2.50 
G01 X14.6 Y27.65 Z255 F2.50 
G01 X14.6 Y27.6 Z255 F2.50 
G01 X14.65 Y27.55 Z255 F2.50 
G01 X14.65 Y27.5 Z255 F2.50 
G01 X14.7 Y27.4 Z255 F2.50 
G01 X14.7 Y27.35 Z255 F2.50 
G01 X14.75 Y27.3 Z255 F2.50 
G01 X14.75 Y27.25 Z255 F2.50 
G01 X14.8 Y27.05 Z255 F2.50 
G01 X14.8 Y27.0 Z255 F2.50 
G01 X14.85 Y26.85 Z255 F2.50 
G01 X14.8 Y26.8 Z255 F2.50 
G01 X14.65 Y26.7 Z255 F2.50 
G01 X14.35 Y26.65 Z255 F2.50 
G01 X14.3 Y26.7 Z255 F2.50 
G01 X14.25 Y26.65 Z255 F2.50 
G01 X14.0 Y26.45 Z255 F2.50 
G01 X13.95 Y26.5 Z255 F2.50 
G01 X13.9 Y26.5 Z255 F2.50 
G01 X13.95 Y26.55 Z255 F2.50 
G01 X13.95 Y26.6 Z255 F2.50 
G01 X14.0 Y26.7 Z255 F2.50 
G01 X14.2 Y26.95 Z255 F2.50 
G01 X14.25 Y27.0 Z255 F2.50 
G01 X14.25 Y27.05 Z255 F2.50 
G01 X14.3 Y27.1 Z255 F2.50 
G01 X14.35 Y27.2 Z255 F2.50 
G01 X14.4 Y27.25 Z255 F2.50 
G01 X14.4 Y27.3 Z255 F2.50 
G01 X14.35 Y27.45 Z255 F2.50 
G01 X14.35 Y27.5 Z255 F2.50 
G01 X14.3 Y27.6 Z255 F2.50 
G01 X14.3 Y27.65 Z255 F2.50 
G01 X14.25 Y27.8 Z255 F2.50 
G01 X14.25 Y27.85 Z255 F2.50 
G01 X14.2 Y27.95 Z255 F2.50 
G01 X14.2 Y28.0 Z255 F2.50 
G01 X14.2 Y28.05 Z255 F2.50 
G00 X14.4 Y26.95 Z0 F100.00 

G01 X14.45 Y26.9 Z255 F2.50 
G01 X14.4 Y26.85 Z255 F2.50 
G01 X14.35 Y26.9 Z255 F2.50 
G01 X14.35 Y26.85 Z255 F2.50 
G01 X14.3 Y26.8 Z255 F2.50 
G01 X14.35 Y26.8 Z255 F2.50 
G01 X14.35 Y26.8 Z255 F2.50 
G00 X13.95 Y26.4 Z0 F100.00 

G01 X14.0 Y26.35 Z255 F2.50 
G01 X14.0 Y26.3 Z255 F2.50 
G01 X13.95 Y26.1 Z255 F2.50 
G01 X13.9 Y26.1 Z255 F2.50 
G01 X13.9 Y26.1 Z255 F2.50 
G00 X13.9 Y25.95 Z0 F100.00 

G01 X13.85 Y25.9 Z255 F2.50 
G01 X13.85 Y25.85 Z255 F2.50 
G01 X13.8 Y25.55 Z255 F2.50 
G01 X13.7 Y25.55 Z255 F2.50 
G01 X13.65 Y25.5 Z255 F2.50 
G01 X13.6 Y25.55 Z255 F2.50 
G01 X13.55 Y25.5 Z255 F2.50 
G01 X13.55 Y25.45 Z255 F2.50 
G01 X13.6 Y25.4 Z255 F2.50 
G01 X13.65 Y25.45 Z255 F2.50 
G01 X13.65 Y25.45 Z255 F2.50 
G00 X13.7 Y25.65 Z0 F100.00 

G01 X13.75 Y25.75 Z255 F2.50 
G01 X13.75 Y25.8 Z255 F2.50 
G01 X13.7 Y26.55 Z255 F2.50 
G01 X13.7 Y26.6 Z255 F2.50 
G01 X13.75 Y26.65 Z255 F2.50 
G01 X13.8 Y26.6 Z255 F2.50 
G01 X13.85 Y26.55 Z255 F2.50 
G00 X12.35 Y27.5 Z0 F100.00 

G01 X12.2 Y27.3 Z255 F2.50 
G01 X12.15 Y27.25 Z255 F2.50 
G01 X11.6 Y26.75 Z255 F2.50 
G01 X11.55 Y26.7 Z255 F2.50 
G01 X11.45 Y26.65 Z255 F2.50 
G01 X11.4 Y26.6 Z255 F2.50 
G01 X11.3 Y26.55 Z255 F2.50 
G01 X11.25 Y26.5 Z255 F2.50 
G01 X11.2 Y26.5 Z255 F2.50 
G01 X11.15 Y26.45 Z255 F2.50 
G01 X11.05 Y26.45 Z255 F2.50 
G01 X11.0 Y26.4 Z255 F2.50 
G01 X10.95 Y26.4 Z255 F2.50 
G01 X11.0 Y26.45 Z255 F2.50 
G01 X11.0 Y26.45 Z255 F2.50 
G00 X11.15 Y26.4 Z0 F100.00 

G01 X11.2 Y26.3 Z255 F2.50 
G01 X11.15 Y26.1 Z255 F2.50 
G01 X11.0 Y26.0 Z255 F2.50 
G01 X10.9 Y25.95 Z255 F2.50 
G01 X10.85 Y25.95 Z255 F2.50 
G01 X10.45 Y25.9 Z255 F2.50 
G01 X10.4 Y25.9 Z255 F2.50 
G01 X10.35 Y25.95 Z255 F2.50 
G01 X10.25 Y26.1 Z255 F2.50 
G01 X10.3 Y26.15 Z255 F2.50 
G01 X10.3 Y26.2 Z255 F2.50 
G01 X10.35 Y26.25 Z255 F2.50 
G01 X10.3 Y26.3 Z255 F2.50 
G01 X10.35 Y26.3 Z255 F2.50 
G01 X10.4 Y26.35 Z255 F2.50 
G01 X10.45 Y26.3 Z255 F2.50 
G01 X10.5 Y26.35 Z255 F2.50 
G01 X10.55 Y26.35 Z255 F2.50 
G01 X10.5 Y26.3 Z255 F2.50 
G01 X10.45 Y26.35 Z255 F2.50 
G01 X10.45 Y26.35 Z255 F2.50 
G00 X10.2 Y26.3 Z0 F100.00 

G01 X10.15 Y26.35 Z255 F2.50 
G01 X10.1 Y26.35 Z255 F2.50 
G01 X10.05 Y26.4 Z255 F2.50 
G01 X10.0 Y26.5 Z255 F2.50 
G01 X9.95 Y26.55 Z255 F2.50 
G01 X9.95 Y26.6 Z255 F2.50 
G01 X9.9 Y26.7 Z255 F2.50 
G01 X9.95 Y26.75 Z255 F2.50 
G01 X9.9 Y26.8 Z255 F2.50 
G01 X9.95 Y26.85 Z255 F2.50 
G01 X10.2 Y27.05 Z255 F2.50 
G01 X10.2 Y27.05 Z255 F2.50 
G00 X10.35 Y27.3 Z0 F100.00 

G01 X10.3 Y27.3 Z255 F2.50 
G01 X10.35 Y27.35 Z255 F2.50 
G01 X10.35 Y27.4 Z255 F2.50 
G01 X10.4 Y27.45 Z255 F2.50 
G01 X10.35 Y27.5 Z255 F2.50 
G01 X10.4 Y27.5 Z255 F2.50 
G01 X10.45 Y27.55 Z255 F2.50 
G01 X10.45 Y27.6 Z255 F2.50 
G01 X10.4 Y27.65 Z255 F2.50 
G01 X10.4 Y27.7 Z255 F2.50 
G01 X10.45 Y27.75 Z255 F2.50 
G01 X10.45 Y27.8 Z255 F2.50 
G01 X10.5 Y27.9 Z255 F2.50 
G01 X10.45 Y27.95 Z255 F2.50 
G01 X10.35 Y28.1 Z255 F2.50 
G01 X10.4 Y28.35 Z255 F2.50 
G01 X10.45 Y28.45 Z255 F2.50 
G01 X10.5 Y28.5 Z255 F2.50 
G01 X10.5 Y28.55 Z255 F2.50 
G01 X10.55 Y28.75 Z255 F2.50 
G01 X10.55 Y28.8 Z255 F2.50 
G01 X10.6 Y28.9 Z255 F2.50 
G01 X10.6 Y28.95 Z255 F2.50 
G01 X10.65 Y29.05 Z255 F2.50 
G01 X10.75 Y29.25 Z255 F2.50 
G01 X10.8 Y29.3 Z255 F2.50 
G01 X10.85 Y29.3 Z255 F2.50 
G01 X10.85 Y29.3 Z255 F2.50 
G00 X10.7 Y29.25 Z0 F100.00 

G01 X10.65 Y29.25 Z255 F2.50 
G01 X10.6 Y29.2 Z255 F2.50 
G01 X10.55 Y29.05 Z255 F2.50 
G01 X10.5 Y29.0 Z255 F2.50 
G01 X10.45 Y29.05 Z255 F2.50 
G01 X10.35 Y29.05 Z255 F2.50 
G01 X10.35 Y29.0 Z255 F2.50 
G01 X10.3 Y28.85 Z255 F2.50 
G01 X10.3 Y28.8 Z255 F2.50 
G01 X10.25 Y28.75 Z255 F2.50 
G01 X10.2 Y28.65 Z255 F2.50 
G01 X10.15 Y28.6 Z255 F2.50 
G01 X10.15 Y28.55 Z255 F2.50 
G01 X10.1 Y28.5 Z255 F2.50 
G01 X10.1 Y28.45 Z255 F2.50 
G01 X10.05 Y28.25 Z255 F2.50 
G01 X10.05 Y28.2 Z255 F2.50 
G01 X10.0 Y28.15 Z255 F2.50 
G01 X10.0 Y28.1 Z255 F2.50 
G01 X10.05 Y28.05 Z255 F2.50 
G01 X10.05 Y27.95 Z255 F2.50 
G01 X10.1 Y27.9 Z255 F2.50 
G01 X10.2 Y27.85 Z255 F2.50 
G01 X10.25 Y27.8 Z255 F2.50 
G01 X10.3 Y27.8 Z255 F2.50 
G01 X10.35 Y27.75 Z255 F2.50 
G01 X10.35 Y27.75 Z255 F2.50 
G00 X10.35 Y27.6 Z0 F100.00 

G01 X10.35 Y27.55 Z255 F2.50 
G00 X10.65 Y27.7 Z0 F100.00 

G01 X10.7 Y27.75 Z255 F2.50 
G01 X10.7 Y27.8 Z255 F2.50 
G01 X10.65 Y27.85 Z255 F2.50 
G01 X10.7 Y27.85 Z255 F2.50 
G01 X10.65 Y27.9 Z255 F2.50 
G01 X10.65 Y27.9 Z255 F2.50 
G00 X10.6 Y27.75 Z0 F100.00 

G01 X10.55 Y27.75 Z255 F2.50 
G01 X10.55 Y27.75 Z255 F2.50 
G00 X10.25 Y27.95 Z0 F100.00 

G01 X10.2 Y27.95 Z255 F2.50 
G01 X10.15 Y27.9 Z255 F2.50 
G01 X10.1 Y27.85 Z255 F2.50 
G00 X9.95 Y27.9 Z0 F100.00 

G01 X9.9 Y27.95 Z255 F2.50 
G01 X9.85 Y27.9 Z255 F2.50 
G01 X9.75 Y27.85 Z255 F2.50 
G01 X9.7 Y27.8 Z255 F2.50 
G01 X9.75 Y27.75 Z255 F2.50 
G01 X9.7 Y27.7 Z255 F2.50 
G01 X9.65 Y27.75 Z255 F2.50 
G01 X9.65 Y27.8 Z255 F2.50 
G01 X9.6 Y27.75 Z255 F2.50 
G01 X9.65 Y27.7 Z255 F2.50 
G01 X9.65 Y27.7 Z255 F2.50 
G00 X9.5 Y27.75 Z0 F100.00 

G01 X9.55 Y27.8 Z255 F2.50 
G01 X9.5 Y27.8 Z255 F2.50 
G01 X9.4 Y27.85 Z255 F2.50 
G01 X9.4 Y27.9 Z255 F2.50 
G01 X9.35 Y27.95 Z255 F2.50 
G01 X9.35 Y28.0 Z255 F2.50 
G01 X9.3 Y28.1 Z255 F2.50 
G01 X9.35 Y28.15 Z255 F2.50 
G01 X9.35 Y28.1 Z255 F2.50 
G01 X9.35 Y28.1 Z255 F2.50 
G00 X9.2 Y28.15 Z0 F100.00 

G01 X8.95 Y28.2 Z255 F2.50 
G01 X8.9 Y28.15 Z255 F2.50 
G01 X8.8 Y28.15 Z255 F2.50 
G01 X8.6 Y28.25 Z255 F2.50 
G01 X8.55 Y28.3 Z255 F2.50 
G01 X8.55 Y28.35 Z255 F2.50 
G01 X8.6 Y28.4 Z255 F2.50 
G01 X8.65 Y28.35 Z255 F2.50 
G01 X8.65 Y28.35 Z255 F2.50 
G00 X8.5 Y28.4 Z0 F100.00 

G01 X8.5 Y28.45 Z255 F2.50 
G01 X8.55 Y28.5 Z255 F2.50 
G01 X8.55 Y28.55 Z255 F2.50 
G01 X8.5 Y28.65 Z255 F2.50 
G01 X8.55 Y28.7 Z255 F2.50 
G01 X8.55 Y28.65 Z255 F2.50 
G01 X8.55 Y28.65 Z255 F2.50 
G00 X8.4 Y28.55 Z0 F100.00 

G01 X8.45 Y28.5 Z255 F2.50 
G01 X8.4 Y28.5 Z255 F2.50 
G01 X8.4 Y28.5 Z255 F2.50 
G00 X8.65 Y28.15 Z0 F100.00 

G01 X8.7 Y28.2 Z255 F2.50 
G01 X8.7 Y28.2 Z255 F2.50 
G00 X8.85 Y28.15 Z0 F100.00 

G01 X8.85 Y28.15 Z255 F2.50 
G00 X8.85 Y28.0 Z0 F100.00 

G01 X8.9 Y27.85 Z255 F2.50 
G01 X8.95 Y27.85 Z255 F2.50 
G01 X9.0 Y27.8 Z255 F2.50 
G01 X9.05 Y27.7 Z255 F2.50 
G01 X9.1 Y27.65 Z255 F2.50 
G01 X9.1 Y27.6 Z255 F2.50 
G01 X9.05 Y27.35 Z255 F2.50 
G01 X9.05 Y27.3 Z255 F2.50 
G01 X9.0 Y27.25 Z255 F2.50 
G01 X8.85 Y27.15 Z255 F2.50 
G01 X8.65 Y27.2 Z255 F2.50 
G01 X8.65 Y27.15 Z255 F2.50 
G01 X8.6 Y26.8 Z255 F2.50 
G01 X8.5 Y26.75 Z255 F2.50 
G01 X8.4 Y26.8 Z255 F2.50 
G01 X8.25 Y27.0 Z255 F2.50 
G01 X8.3 Y27.4 Z255 F2.50 
G01 X8.4 Y27.45 Z255 F2.50 
G01 X8.35 Y27.5 Z255 F2.50 
G01 X8.3 Y27.6 Z255 F2.50 
G01 X8.35 Y27.65 Z255 F2.50 
G01 X8.45 Y27.7 Z255 F2.50 
G01 X8.5 Y27.75 Z255 F2.50 
G01 X8.45 Y27.8 Z255 F2.50 
G01 X8.5 Y27.85 Z255 F2.50 
G01 X8.65 Y27.9 Z255 F2.50 
G01 X8.6 Y27.9 Z255 F2.50 
G01 X8.55 Y27.95 Z255 F2.50 
G01 X8.6 Y28.0 Z255 F2.50 
G01 X8.6 Y28.05 Z255 F2.50 
G01 X8.65 Y28.1 Z255 F2.50 
G01 X8.6 Y28.15 Z255 F2.50 
G01 X8.6 Y28.1 Z255 F2.50 
G01 X8.6 Y28.1 Z255 F2.50 
G00 X8.6 Y27.8 Z0 F100.00 

G01 X8.65 Y27.8 Z255 F2.50 
G01 X8.7 Y27.75 Z255 F2.50 
G01 X8.65 Y27.7 Z255 F2.50 
G01 X8.6 Y27.6 Z255 F2.50 
G01 X8.55 Y27.45 Z255 F2.50 
G01 X8.6 Y27.4 Z255 F2.50 
G01 X8.6 Y27.45 Z255 F2.50 
G01 X8.6 Y27.45 Z255 F2.50 
G00 X8.45 Y27.45 Z0 F100.00 

G01 X8.45 Y27.45 Z255 F2.50 
G00 X8.25 Y27.5 Z0 F100.00 

G01 X8.25 Y27.5 Z255 F2.50 
G00 X8.15 Y27.6 Z0 F100.00 

G01 X8.05 Y27.65 Z255 F2.50 
G01 X8.0 Y27.6 Z255 F2.50 
G01 X7.8 Y27.35 Z255 F2.50 
G01 X7.75 Y27.3 Z255 F2.50 
G01 X7.55 Y27.15 Z255 F2.50 
G01 X7.5 Y27.2 Z255 F2.50 
G01 X7.5 Y27.25 Z255 F2.50 
G01 X7.45 Y27.3 Z255 F2.50 
G01 X7.45 Y27.35 Z255 F2.50 
G01 X7.4 Y27.7 Z255 F2.50 
G01 X7.25 Y27.9 Z255 F2.50 
G01 X7.2 Y27.95 Z255 F2.50 
G01 X6.95 Y28.25 Z255 F2.50 
G01 X6.9 Y28.3 Z255 F2.50 
G01 X6.85 Y28.4 Z255 F2.50 
G01 X6.8 Y28.45 Z255 F2.50 
G01 X6.7 Y28.6 Z255 F2.50 
G01 X6.65 Y28.65 Z255 F2.50 
G01 X6.65 Y28.7 Z255 F2.50 
G01 X6.6 Y28.8 Z255 F2.50 
G01 X6.6 Y28.85 Z255 F2.50 
G01 X6.55 Y28.9 Z255 F2.50 
G01 X6.55 Y28.95 Z255 F2.50 
G01 X6.5 Y29.1 Z255 F2.50 
G01 X6.5 Y29.15 Z255 F2.50 
G01 X6.45 Y29.3 Z255 F2.50 
G01 X6.45 Y29.35 Z255 F2.50 
G01 X6.4 Y29.6 Z255 F2.50 
G01 X6.4 Y29.65 Z255 F2.50 
G01 X6.45 Y30.3 Z255 F2.50 
G01 X6.45 Y30.35 Z255 F2.50 
G01 X6.5 Y30.5 Z255 F2.50 
G01 X6.5 Y30.55 Z255 F2.50 
G01 X6.55 Y30.65 Z255 F2.50 
G01 X6.55 Y30.7 Z255 F2.50 
G01 X6.55 Y30.7 Z255 F2.50 
G00 X6.05 Y30.7 Z0 F100.00 

G01 X6.0 Y30.65 Z255 F2.50 
G01 X6.0 Y30.6 Z255 F2.50 
G01 X5.95 Y30.4 Z255 F2.50 
G01 X6.0 Y30.35 Z255 F2.50 
G01 X6.0 Y30.3 Z255 F2.50 
G01 X6.05 Y30.15 Z255 F2.50 
G01 X6.05 Y30.1 Z255 F2.50 
G01 X6.1 Y29.95 Z255 F2.50 
G01 X6.15 Y30.0 Z255 F2.50 
G01 X6.2 Y29.95 Z255 F2.50 
G01 X6.2 Y29.9 Z255 F2.50 
G01 X6.25 Y29.7 Z255 F2.50 
G01 X6.25 Y29.65 Z255 F2.50 
G01 X6.2 Y29.55 Z255 F2.50 
G01 X6.15 Y29.6 Z255 F2.50 
G01 X6.15 Y29.65 Z255 F2.50 
G01 X6.1 Y29.7 Z255 F2.50 
G01 X6.1 Y29.75 Z255 F2.50 
G01 X6.1 Y29.9 Z255 F2.50 
G00 X6.15 Y30.1 Z0 F100.00 

G01 X6.1 Y30.4 Z255 F2.50 
G01 X6.1 Y30.45 Z255 F2.50 
G01 X6.1 Y30.6 Z255 F2.50 
G00 X5.7 Y30.45 Z0 F100.00 

G01 X5.65 Y30.45 Z255 F2.50 
G01 X5.6 Y30.4 Z255 F2.50 
G01 X5.55 Y30.45 Z255 F2.50 
G01 X5.55 Y30.5 Z255 F2.50 
G01 X5.6 Y30.7 Z255 F2.50 
G01 X5.6 Y30.7 Z255 F2.50 
G00 X5.5 Y30.35 Z0 F100.00 

G01 X5.55 Y30.3 Z255 F2.50 
G01 X5.5 Y30.25 Z255 F2.50 
G01 X5.4 Y30.1 Z255 F2.50 
G01 X5.35 Y30.05 Z255 F2.50 
G01 X5.35 Y30.0 Z255 F2.50 
G01 X5.35 Y30.0 Z255 F2.50 
G00 X5.6 Y30.05 Z0 F100.00 

G01 X5.65 Y30.15 Z255 F2.50 
G01 X5.7 Y30.2 Z255 F2.50 
G01 X5.7 Y30.25 Z255 F2.50 
G01 X5.75 Y30.3 Z255 F2.50 
G01 X5.75 Y30.35 Z255 F2.50 
G01 X5.75 Y30.35 Z255 F2.50 
G00 X5.5 Y30.3 Z0 F100.00 

G01 X5.45 Y30.25 Z255 F2.50 
G00 X5.65 Y29.95 Z0 F100.00 

G01 X5.7 Y29.85 Z255 F2.50 
G01 X5.65 Y29.75 Z255 F2.50 
G01 X5.6 Y29.75 Z255 F2.50 
G01 X5.5 Y29.7 Z255 F2.50 
G01 X5.35 Y29.5 Z255 F2.50 
G01 X5.3 Y29.45 Z255 F2.50 
G01 X5.35 Y29.4 Z255 F2.50 
G01 X5.35 Y29.35 Z255 F2.50 
G01 X5.3 Y29.2 Z255 F2.50 
G01 X5.3 Y29.15 Z255 F2.50 
G01 X5.35 Y29.1 Z255 F2.50 
G01 X5.4 Y29.15 Z255 F2.50 
G01 X5.5 Y29.15 Z255 F2.50 
G01 X5.5 Y29.1 Z255 F2.50 
G01 X5.45 Y28.95 Z255 F2.50 
G01 X5.35 Y28.8 Z255 F2.50 
G01 X5.3 Y28.7 Z255 F2.50 
G01 X5.3 Y28.65 Z255 F2.50 
G01 X5.25 Y28.6 Z255 F2.50 
G01 X5.25 Y28.55 Z255 F2.50 
G01 X5.2 Y28.5 Z255 F2.50 
G01 X5.25 Y28.5 Z255 F2.50 
G01 X5.3 Y28.45 Z255 F2.50 
G01 X5.25 Y28.4 Z255 F2.50 
G01 X5.2 Y28.45 Z255 F2.50 
G01 X5.2 Y28.4 Z255 F2.50 
G01 X5.25 Y28.25 Z255 F2.50 
G01 X5.25 Y28.2 Z255 F2.50 
G01 X5.3 Y28.15 Z255 F2.50 
G01 X5.35 Y28.05 Z255 F2.50 
G01 X5.3 Y27.95 Z255 F2.50 
G01 X5.25 Y28.0 Z255 F2.50 
G01 X5.25 Y28.05 Z255 F2.50 
G01 X5.25 Y28.15 Z255 F2.50 
G00 X5.25 Y27.9 Z0 F100.00 

G01 X5.3 Y27.65 Z255 F2.50 
G01 X5.35 Y27.7 Z255 F2.50 
G01 X5.45 Y27.85 Z255 F2.50 
G01 X5.5 Y27.9 Z255 F2.50 
G01 X5.5 Y27.95 Z255 F2.50 
G01 X5.55 Y28.0 Z255 F2.50 
G01 X5.65 Y28.0 Z255 F2.50 
G01 X5.6 Y27.95 Z255 F2.50 
G01 X5.6 Y27.9 Z255 F2.50 
G01 X5.55 Y27.75 Z255 F2.50 
G01 X5.55 Y27.7 Z255 F2.50 
G01 X5.5 Y27.65 Z255 F2.50 
G01 X5.5 Y27.6 Z255 F2.50 
G01 X5.45 Y27.55 Z255 F2.50 
G01 X5.3 Y27.35 Z255 F2.50 
G01 X5.35 Y27.15 Z255 F2.50 
G01 X5.35 Y27.1 Z255 F2.50 
G01 X5.3 Y27.05 Z255 F2.50 
G01 X5.25 Y26.95 Z255 F2.50 
G01 X5.3 Y26.9 Z255 F2.50 
G01 X5.3 Y26.85 Z255 F2.50 
G01 X5.35 Y26.8 Z255 F2.50 
G01 X5.4 Y26.85 Z255 F2.50 
G01 X5.5 Y27.0 Z255 F2.50 
G01 X5.55 Y27.05 Z255 F2.50 
G01 X5.65 Y27.2 Z255 F2.50 
G01 X5.7 Y27.25 Z255 F2.50 
G01 X5.75 Y27.35 Z255 F2.50 
G01 X5.8 Y27.4 Z255 F2.50 
G01 X5.8 Y27.45 Z255 F2.50 
G01 X5.85 Y27.5 Z255 F2.50 
G01 X5.85 Y27.55 Z255 F2.50 
G01 X5.9 Y27.6 Z255 F2.50 
G01 X5.9 Y27.65 Z255 F2.50 
G01 X5.95 Y27.7 Z255 F2.50 
G01 X6.0 Y27.8 Z255 F2.50 
G01 X6.05 Y27.85 Z255 F2.50 
G01 X6.1 Y27.85 Z255 F2.50 
G01 X6.2 Y27.8 Z255 F2.50 
G01 X6.2 Y27.75 Z255 F2.50 
G01 X6.15 Y27.65 Z255 F2.50 
G01 X6.15 Y27.6 Z255 F2.50 
G01 X6.1 Y27.5 Z255 F2.50 
G01 X6.1 Y27.45 Z255 F2.50 
G01 X6.05 Y27.35 Z255 F2.50 
G01 X6.05 Y27.3 Z255 F2.50 
G01 X6.0 Y27.25 Z255 F2.50 
G01 X6.0 Y27.2 Z255 F2.50 
G01 X5.95 Y27.15 Z255 F2.50 
G01 X5.95 Y27.1 Z255 F2.50 
G01 X5.9 Y27.05 Z255 F2.50 
G01 X5.9 Y27.0 Z255 F2.50 
G01 X5.85 Y26.95 Z255 F2.50 
G01 X5.85 Y26.9 Z255 F2.50 
G01 X5.8 Y26.85 Z255 F2.50 
G01 X5.8 Y26.8 Z255 F2.50 
G01 X5.75 Y26.75 Z255 F2.50 
G01 X5.75 Y26.7 Z255 F2.50 
G01 X5.7 Y26.65 Z255 F2.50 
G01 X5.7 Y26.6 Z255 F2.50 
G01 X5.65 Y26.55 Z255 F2.50 
G01 X5.6 Y26.45 Z255 F2.50 
G01 X5.55 Y26.4 Z255 F2.50 
G01 X5.55 Y26.35 Z255 F2.50 
G01 X5.6 Y26.25 Z255 F2.50 
G01 X5.75 Y26.05 Z255 F2.50 
G01 X5.8 Y26.0 Z255 F2.50 
G01 X5.9 Y25.95 Z255 F2.50 
G01 X5.95 Y25.9 Z255 F2.50 
G01 X6.0 Y25.9 Z255 F2.50 
G01 X6.1 Y25.85 Z255 F2.50 
G01 X6.1 Y25.8 Z255 F2.50 
G01 X6.15 Y25.55 Z255 F2.50 
G01 X6.2 Y25.6 Z255 F2.50 
G01 X6.25 Y25.55 Z255 F2.50 
G01 X6.25 Y25.5 Z255 F2.50 
G01 X6.2 Y25.45 Z255 F2.50 
G01 X6.15 Y25.5 Z255 F2.50 
G01 X6.1 Y25.5 Z255 F2.50 
G01 X6.1 Y25.5 Z255 F2.50 
G00 X6.15 Y25.35 Z0 F100.00 

G01 X6.1 Y25.3 Z255 F2.50 
G01 X6.1 Y25.25 Z255 F2.50 
G01 X6.15 Y25.05 Z255 F2.50 
G01 X6.15 Y25.0 Z255 F2.50 
G01 X6.1 Y24.95 Z255 F2.50 
G01 X6.1 Y24.9 Z255 F2.50 
G01 X6.15 Y24.8 Z255 F2.50 
G01 X6.2 Y24.85 Z255 F2.50 
G01 X6.25 Y24.8 Z255 F2.50 
G01 X6.2 Y24.75 Z255 F2.50 
G01 X6.1 Y24.75 Z255 F2.50 
G01 X6.1 Y24.8 Z255 F2.50 
G01 X6.1 Y24.8 Z255 F2.50 
G00 X6.15 Y24.6 Z0 F100.00 

G01 X6.1 Y24.4 Z255 F2.50 
G01 X6.1 Y24.35 Z255 F2.50 
G01 X6.05 Y24.25 Z255 F2.50 
G01 X6.05 Y24.2 Z255 F2.50 
G01 X6.0 Y24.15 Z255 F2.50 
G01 X6.0 Y24.1 Z255 F2.50 
G01 X6.05 Y24.05 Z255 F2.50 
G01 X6.05 Y23.95 Z255 F2.50 
G01 X6.0 Y23.85 Z255 F2.50 
G01 X5.95 Y23.8 Z255 F2.50 
G01 X5.7 Y23.5 Z255 F2.50 
G01 X5.65 Y23.45 Z255 F2.50 
G01 X5.65 Y23.4 Z255 F2.50 
G01 X5.6 Y23.35 Z255 F2.50 
G01 X5.55 Y23.25 Z255 F2.50 
G01 X5.5 Y23.2 Z255 F2.50 
G01 X5.5 Y23.15 Z255 F2.50 
G01 X5.45 Y23.1 Z255 F2.50 
G01 X5.45 Y23.05 Z255 F2.50 
G01 X5.4 Y22.95 Z255 F2.50 
G01 X5.4 Y22.9 Z255 F2.50 
G01 X5.35 Y22.85 Z255 F2.50 
G01 X5.35 Y22.8 Z255 F2.50 
G01 X5.3 Y22.75 Z255 F2.50 
G01 X5.3 Y22.7 Z255 F2.50 
G01 X5.35 Y22.6 Z255 F2.50 
G01 X5.5 Y22.55 Z255 F2.50 
G01 X5.55 Y22.55 Z255 F2.50 
G01 X5.6 Y22.5 Z255 F2.50 
G01 X5.75 Y22.45 Z255 F2.50 
G01 X5.75 Y22.5 Z255 F2.50 
G01 X5.8 Y22.6 Z255 F2.50 
G01 X5.8 Y22.65 Z255 F2.50 
G01 X5.85 Y22.7 Z255 F2.50 
G01 X5.9 Y22.65 Z255 F2.50 
G01 X5.9 Y22.6 Z255 F2.50 
G01 X5.95 Y22.05 Z255 F2.50 
G01 X6.0 Y22.1 Z255 F2.50 
G01 X6.0 Y22.15 Z255 F2.50 
G01 X6.05 Y22.2 Z255 F2.50 
G01 X6.05 Y22.25 Z255 F2.50 
G01 X6.1 Y22.3 Z255 F2.50 
G01 X6.2 Y22.3 Z255 F2.50 
G01 X6.2 Y22.25 Z255 F2.50 
G01 X6.15 Y22.15 Z255 F2.50 
G01 X6.15 Y22.1 Z255 F2.50 
G01 X6.1 Y22.05 Z255 F2.50 
G01 X6.1 Y22.0 Z255 F2.50 
G01 X6.05 Y21.95 Z255 F2.50 
G01 X6.05 Y21.9 Z255 F2.50 
G01 X6.0 Y21.85 Z255 F2.50 
G01 X6.0 Y21.8 Z255 F2.50 
G01 X5.95 Y21.75 Z255 F2.50 
G01 X5.95 Y21.7 Z255 F2.50 
G01 X5.9 Y21.65 Z255 F2.50 
G01 X5.95 Y21.6 Z255 F2.50 
G01 X5.95 Y21.55 Z255 F2.50 
G01 X6.0 Y21.4 Z255 F2.50 
G01 X6.05 Y21.45 Z255 F2.50 
G01 X6.25 Y21.7 Z255 F2.50 
G01 X6.3 Y21.75 Z255 F2.50 
G01 X6.35 Y21.85 Z255 F2.50 
G01 X6.4 Y22.0 Z255 F2.50 
G01 X6.4 Y22.05 Z255 F2.50 
