/#############################################################/ 
/###########Gcode generated with PathImg.py V0.4##############/ 
/######written by Nick Sidney Lemberger aka Holysocks#########/ 
/#############################################################/ 

/Sylvanas3.jpg/ 
/laser_engraver(diode, 445nm)/ 



F50 


G00 X0 Y0 Z0 F50.00
G00 X0.8 Y1.9 Z0 F50.00 

G01 X0.5 Y2.1 Z255 F3.00 
G01 X0.4 Y2.2 Z255 F3.00 
G01 X0.0 Y2.5 Z255 F3.00 
G01 X0.0 Y2.5 Z255 F3.00 
G00 X1.1 Y1.7 Z0 F50.00 

G01 X1.2 Y1.7 Z255 F3.00 
G01 X1.3 Y1.6 Z255 F3.00 
G01 X1.6 Y1.4 Z255 F3.00 
G01 X1.7 Y1.3 Z255 F3.00 
G01 X1.9 Y1.2 Z255 F3.00 
G01 X2.0 Y1.1 Z255 F3.00 
G01 X2.2 Y1.1 Z255 F3.00 
G01 X2.2 Y1.2 Z255 F3.00 
G01 X2.3 Y1.7 Z255 F3.00 
G01 X2.3 Y1.8 Z255 F3.00 
G01 X2.4 Y2.9 Z255 F3.00 
G01 X2.5 Y2.9 Z255 F3.00 
G01 X2.6 Y2.8 Z255 F3.00 
G01 X2.6 Y2.7 Z255 F3.00 
G01 X2.7 Y1.5 Z255 F3.00 
G01 X2.7 Y1.4 Z255 F3.00 
G01 X2.8 Y0.6 Z255 F3.00 
G01 X2.8 Y0.5 Z255 F3.00 
G01 X2.9 Y0.2 Z255 F3.00 
G01 X3.0 Y0.2 Z255 F3.00 
G01 X3.1 Y0.3 Z255 F3.00 
G01 X3.1 Y0.4 Z255 F3.00 
G01 X3.2 Y1.3 Z255 F3.00 
G01 X3.2 Y1.4 Z255 F3.00 
G01 X3.3 Y2.1 Z255 F3.00 
G01 X3.4 Y2.1 Z255 F3.00 
G01 X3.5 Y2.0 Z255 F3.00 
G01 X3.5 Y1.9 Z255 F3.00 
G01 X3.6 Y1.6 Z255 F3.00 
G01 X3.6 Y1.5 Z255 F3.00 
G01 X3.7 Y0.7 Z255 F3.00 
G01 X3.7 Y0.6 Z255 F3.00 
G01 X3.8 Y0.1 Z255 F3.00 
G01 X3.8 Y0.0 Z255 F3.00 
G01 X3.8 Y0.0 Z255 F3.00 
G00 X2.2 Y1.0 Z0 F50.00 

G01 X2.2 Y1.0 Z255 F3.00 
G00 X3.9 Y3.6 Z0 F50.00 

G01 X3.7 Y3.7 Z255 F3.00 
G01 X3.6 Y3.8 Z255 F3.00 
G01 X3.4 Y3.9 Z255 F3.00 
G01 X3.3 Y4.0 Z255 F3.00 
G01 X3.1 Y4.1 Z255 F3.00 
G01 X2.9 Y4.2 Z255 F3.00 
G01 X1.8 Y5.4 Z255 F3.00 
G01 X1.7 Y5.5 Z255 F3.00 
G01 X1.6 Y5.7 Z255 F3.00 
G01 X1.5 Y5.9 Z255 F3.00 
G01 X1.4 Y6.1 Z255 F3.00 
G01 X1.3 Y6.2 Z255 F3.00 
G01 X1.3 Y6.3 Z255 F3.00 
G01 X1.2 Y6.4 Z255 F3.00 
G01 X1.2 Y6.5 Z255 F3.00 
G01 X1.1 Y6.6 Z255 F3.00 
G01 X1.1 Y6.7 Z255 F3.00 
G01 X1.0 Y6.9 Z255 F3.00 
G01 X0.9 Y7.1 Z255 F3.00 
G01 X0.8 Y7.2 Z255 F3.00 
G01 X0.8 Y7.3 Z255 F3.00 
G01 X0.7 Y7.4 Z255 F3.00 
G01 X0.6 Y7.6 Z255 F3.00 
G01 X0.5 Y7.7 Z255 F3.00 
G01 X0.5 Y7.8 Z255 F3.00 
G01 X0.4 Y8.0 Z255 F3.00 
G01 X0.0 Y8.4 Z255 F3.00 
G00 X3.6 Y11.5 Z0 F50.00 

G01 X3.7 Y11.5 Z255 F3.00 
G01 X3.8 Y11.4 Z255 F3.00 
G01 X4.1 Y11.3 Z255 F3.00 
G01 X4.2 Y11.5 Z255 F3.00 
G01 X4.1 Y12.8 Z255 F3.00 
G01 X4.1 Y12.9 Z255 F3.00 
G01 X4.0 Y13.0 Z255 F3.00 
G01 X3.9 Y13.2 Z255 F3.00 
G01 X3.8 Y13.3 Z255 F3.00 
G01 X3.7 Y13.5 Z255 F3.00 
G01 X3.6 Y13.6 Z255 F3.00 
G01 X3.5 Y13.8 Z255 F3.00 
G01 X3.4 Y13.9 Z255 F3.00 
G01 X3.4 Y14.0 Z255 F3.00 
G01 X3.3 Y14.1 Z255 F3.00 
G01 X3.3 Y14.2 Z255 F3.00 
G01 X3.2 Y14.3 Z255 F3.00 
G01 X3.2 Y14.4 Z255 F3.00 
G01 X3.1 Y14.5 Z255 F3.00 
G01 X3.1 Y14.6 Z255 F3.00 
G01 X3.0 Y15.3 Z255 F3.00 
G01 X3.0 Y15.4 Z255 F3.00 
G01 X2.9 Y15.7 Z255 F3.00 
G01 X2.9 Y15.8 Z255 F3.00 
G01 X2.8 Y16.0 Z255 F3.00 
G01 X2.8 Y16.1 Z255 F3.00 
G01 X2.9 Y16.2 Z255 F3.00 
G01 X2.8 Y16.3 Z255 F3.00 
G01 X2.8 Y16.4 Z255 F3.00 
G01 X2.7 Y16.5 Z255 F3.00 
G01 X2.7 Y16.6 Z255 F3.00 
G01 X2.8 Y16.8 Z255 F3.00 
G01 X2.8 Y16.9 Z255 F3.00 
G01 X2.9 Y17.3 Z255 F3.00 
G01 X2.8 Y17.4 Z255 F3.00 
G01 X2.8 Y17.5 Z255 F3.00 
G01 X2.9 Y17.6 Z255 F3.00 
G01 X3.0 Y17.8 Z255 F3.00 
G01 X2.9 Y18.3 Z255 F3.00 
G01 X2.9 Y18.4 Z255 F3.00 
G01 X3.0 Y18.6 Z255 F3.00 
G01 X2.9 Y18.7 Z255 F3.00 
G01 X2.8 Y18.9 Z255 F3.00 
G01 X2.7 Y19.3 Z255 F3.00 
G01 X2.7 Y19.4 Z255 F3.00 
G01 X2.8 Y21.2 Z255 F3.00 
G01 X2.8 Y21.3 Z255 F3.00 
G01 X2.9 Y22.2 Z255 F3.00 
G01 X3.2 Y22.3 Z255 F3.00 
G01 X3.2 Y22.2 Z255 F3.00 
G01 X3.3 Y22.1 Z255 F3.00 
G01 X3.3 Y22.0 Z255 F3.00 
G01 X3.2 Y21.7 Z255 F3.00 
G01 X3.2 Y21.6 Z255 F3.00 
G01 X3.3 Y21.5 Z255 F3.00 
G01 X3.3 Y21.4 Z255 F3.00 
G01 X3.4 Y21.2 Z255 F3.00 
G01 X3.5 Y21.2 Z255 F3.00 
G01 X3.6 Y21.1 Z255 F3.00 
G01 X3.6 Y20.9 Z255 F3.00 
G01 X3.7 Y20.8 Z255 F3.00 
G01 X3.6 Y20.7 Z255 F3.00 
G01 X3.6 Y20.8 Z255 F3.00 
G01 X3.7 Y20.9 Z255 F3.00 
G01 X3.6 Y21.0 Z255 F3.00 
G01 X3.7 Y21.1 Z255 F3.00 
G01 X3.9 Y21.4 Z255 F3.00 
G01 X3.8 Y21.6 Z255 F3.00 
G01 X3.8 Y21.7 Z255 F3.00 
G01 X3.9 Y21.8 Z255 F3.00 
G01 X4.0 Y22.0 Z255 F3.00 
G01 X4.1 Y22.1 Z255 F3.00 
G01 X4.2 Y22.0 Z255 F3.00 
G01 X4.3 Y22.1 Z255 F3.00 
G01 X4.3 Y22.2 Z255 F3.00 
G01 X4.4 Y22.8 Z255 F3.00 
G01 X4.4 Y22.9 Z255 F3.00 
G01 X4.5 Y23.2 Z255 F3.00 
G01 X4.5 Y23.3 Z255 F3.00 
G01 X4.6 Y23.5 Z255 F3.00 
G01 X4.6 Y23.6 Z255 F3.00 
G01 X4.5 Y23.9 Z255 F3.00 
G01 X4.6 Y24.0 Z255 F3.00 
G01 X4.5 Y24.1 Z255 F3.00 
G01 X4.5 Y24.2 Z255 F3.00 
G01 X4.6 Y24.3 Z255 F3.00 
G01 X4.7 Y24.3 Z255 F3.00 
G01 X4.8 Y24.4 Z255 F3.00 
G01 X4.7 Y24.5 Z255 F3.00 
G01 X4.7 Y24.6 Z255 F3.00 
G01 X4.8 Y24.7 Z255 F3.00 
G01 X4.8 Y24.8 Z255 F3.00 
G01 X4.9 Y24.9 Z255 F3.00 
G01 X5.1 Y25.3 Z255 F3.00 
G01 X5.0 Y25.3 Z255 F3.00 
G01 X5.1 Y25.4 Z255 F3.00 
G01 X5.1 Y25.4 Z255 F3.00 
G00 X5.4 Y25.6 Z0 F50.00 

G01 X5.3 Y25.6 Z255 F3.00 
G01 X5.4 Y25.5 Z255 F3.00 
G01 X5.4 Y25.5 Z255 F3.00 
G00 X5.2 Y25.1 Z0 F50.00 

G01 X5.2 Y25.0 Z255 F3.00 
G01 X5.2 Y25.0 Z255 F3.00 
G00 X5.0 Y24.8 Z0 F50.00 

G01 X5.1 Y24.7 Z255 F3.00 
G01 X5.2 Y24.6 Z255 F3.00 
G00 X5.8 Y24.6 Z0 F50.00 

G01 X5.9 Y24.5 Z255 F3.00 
G01 X5.9 Y24.5 Z255 F3.00 
G00 X5.4 Y24.8 Z0 F50.00 

G01 X5.4 Y24.8 Z255 F3.00 
G00 X4.8 Y25.3 Z0 F50.00 

G01 X4.7 Y25.3 Z255 F3.00 
G01 X3.9 Y25.2 Z255 F3.00 
G01 X3.4 Y24.8 Z255 F3.00 
G01 X3.2 Y24.7 Z255 F3.00 
G01 X3.1 Y24.7 Z255 F3.00 
G01 X2.4 Y24.6 Z255 F3.00 
G01 X2.1 Y24.4 Z255 F3.00 
G01 X2.0 Y24.3 Z255 F3.00 
G01 X1.9 Y24.3 Z255 F3.00 
G01 X1.8 Y24.2 Z255 F3.00 
G01 X1.7 Y24.2 Z255 F3.00 
G01 X1.6 Y24.1 Z255 F3.00 
G01 X1.5 Y24.1 Z255 F3.00 
G01 X1.4 Y24.0 Z255 F3.00 
G01 X1.3 Y24.0 Z255 F3.00 
G01 X1.2 Y23.9 Z255 F3.00 
G01 X1.1 Y23.9 Z255 F3.00 
G01 X1.0 Y23.8 Z255 F3.00 
G01 X0.9 Y23.8 Z255 F3.00 
G01 X0.8 Y23.7 Z255 F3.00 
G01 X0.8 Y23.6 Z255 F3.00 
G01 X0.7 Y23.5 Z255 F3.00 
G01 X0.6 Y23.5 Z255 F3.00 
G01 X0.5 Y23.4 Z255 F3.00 
G01 X0.1 Y23.1 Z255 F3.00 
G01 X0.0 Y23.0 Z255 F3.00 
G01 X0.0 Y23.0 Z255 F3.00 
G00 X0.3 Y22.7 Z0 F50.00 

G01 X0.3 Y22.6 Z255 F3.00 
G01 X0.4 Y22.5 Z255 F3.00 
G01 X0.3 Y22.4 Z255 F3.00 
G01 X0.3 Y22.3 Z255 F3.00 
G01 X0.4 Y22.0 Z255 F3.00 
G01 X0.5 Y22.1 Z255 F3.00 
G01 X0.6 Y22.3 Z255 F3.00 
G01 X0.7 Y23.1 Z255 F3.00 
G01 X0.7 Y23.3 Z255 F3.00 
G01 X0.6 Y23.2 Z255 F3.00 
G01 X0.6 Y23.2 Z255 F3.00 
G00 X0.8 Y22.9 Z0 F50.00 

G01 X0.9 Y22.0 Z255 F3.00 
G01 X0.9 Y21.9 Z255 F3.00 
G01 X1.0 Y21.8 Z255 F3.00 
G01 X1.0 Y21.7 Z255 F3.00 
G01 X0.9 Y21.4 Z255 F3.00 
G01 X1.0 Y21.3 Z255 F3.00 
G01 X0.9 Y21.2 Z255 F3.00 
G01 X0.6 Y21.0 Z255 F3.00 
G01 X0.5 Y20.9 Z255 F3.00 
G01 X0.4 Y20.9 Z255 F3.00 
G01 X0.3 Y20.8 Z255 F3.00 
G01 X0.2 Y20.8 Z255 F3.00 
G01 X0.1 Y20.7 Z255 F3.00 
G01 X0.0 Y20.6 Z255 F3.00 
G00 X0.4 Y21.6 Z0 F50.00 

G01 X0.5 Y21.8 Z255 F3.00 
G01 X0.4 Y21.9 Z255 F3.00 
G01 X0.5 Y22.0 Z255 F3.00 
G01 X0.5 Y21.9 Z255 F3.00 
G01 X0.4 Y21.8 Z255 F3.00 
G01 X0.4 Y21.8 Z255 F3.00 
G00 X0.0 Y22.0 Z0 F50.00 

G01 X0.1 Y22.2 Z255 F3.00 
G01 X0.1 Y22.3 Z255 F3.00 
G01 X0.1 Y22.7 Z255 F3.00 
G00 X0.0 Y23.5 Z0 F50.00 

G01 X0.1 Y23.7 Z255 F3.00 
G01 X0.2 Y23.9 Z255 F3.00 
G01 X0.3 Y24.0 Z255 F3.00 
G01 X0.4 Y24.0 Z255 F3.00 
G01 X0.5 Y24.1 Z255 F3.00 
G01 X0.7 Y24.2 Z255 F3.00 
G01 X0.8 Y24.3 Z255 F3.00 
G01 X0.9 Y24.2 Z255 F3.00 
G01 X1.0 Y24.2 Z255 F3.00 
G01 X1.1 Y24.3 Z255 F3.00 
G01 X1.0 Y24.4 Z255 F3.00 
G01 X0.9 Y24.3 Z255 F3.00 
G01 X0.9 Y24.3 Z255 F3.00 
G00 X1.3 Y24.4 Z0 F50.00 

G01 X1.7 Y24.7 Z255 F3.00 
G01 X1.8 Y24.8 Z255 F3.00 
G01 X1.9 Y24.7 Z255 F3.00 
G01 X2.0 Y24.8 Z255 F3.00 
G01 X2.0 Y24.9 Z255 F3.00 
G01 X1.9 Y25.1 Z255 F3.00 
G01 X1.8 Y25.1 Z255 F3.00 
G01 X1.7 Y25.2 Z255 F3.00 
G01 X1.1 Y25.7 Z255 F3.00 
G01 X1.0 Y25.8 Z255 F3.00 
G01 X0.6 Y26.3 Z255 F3.00 
G01 X0.5 Y26.4 Z255 F3.00 
G01 X0.0 Y27.0 Z255 F3.00 
G01 X0.0 Y27.0 Z255 F3.00 
G00 X0.0 Y27.3 Z0 F50.00 

G01 X0.0 Y27.3 Z255 F3.00 
G00 X0.3 Y27.1 Z0 F50.00 

G01 X0.5 Y27.1 Z255 F3.00 
G01 X0.6 Y27.1 Z255 F3.00 
G01 X0.8 Y27.0 Z255 F3.00 
G01 X0.9 Y27.0 Z255 F3.00 
G01 X1.0 Y26.9 Z255 F3.00 
G01 X1.1 Y26.9 Z255 F3.00 
G01 X1.0 Y26.8 Z255 F3.00 
G01 X1.0 Y26.8 Z255 F3.00 
G00 X1.4 Y26.7 Z0 F50.00 

G01 X1.5 Y26.8 Z255 F3.00 
G01 X1.5 Y26.9 Z255 F3.00 
G01 X1.4 Y27.1 Z255 F3.00 
G01 X1.4 Y27.2 Z255 F3.00 
G01 X1.3 Y27.3 Z255 F3.00 
G01 X1.2 Y27.3 Z255 F3.00 
G01 X1.0 Y27.4 Z255 F3.00 
G01 X0.9 Y27.6 Z255 F3.00 
G01 X0.8 Y27.7 Z255 F3.00 
G01 X0.7 Y27.7 Z255 F3.00 
G01 X0.1 Y27.8 Z255 F3.00 
G01 X0.1 Y27.9 Z255 F3.00 
G01 X0.0 Y28.0 Z255 F3.00 
G01 X0.0 Y28.0 Z255 F3.00 
G00 X0.3 Y28.2 Z0 F50.00 

G01 X0.4 Y28.1 Z255 F3.00 
G01 X0.5 Y28.2 Z255 F3.00 
G01 X0.4 Y28.2 Z255 F3.00 
G01 X0.4 Y28.2 Z255 F3.00 
G00 X0.5 Y28.4 Z0 F50.00 

G01 X0.7 Y28.5 Z255 F3.00 
G01 X0.8 Y28.5 Z255 F3.00 
G01 X0.9 Y28.4 Z255 F3.00 
G01 X1.0 Y28.4 Z255 F3.00 
G01 X1.1 Y28.3 Z255 F3.00 
G01 X1.2 Y28.3 Z255 F3.00 
G01 X1.5 Y28.4 Z255 F3.00 
G01 X1.4 Y28.5 Z255 F3.00 
G01 X1.4 Y28.6 Z255 F3.00 
G01 X1.3 Y28.7 Z255 F3.00 
G01 X1.2 Y28.6 Z255 F3.00 
G01 X1.1 Y28.7 Z255 F3.00 
G01 X1.1 Y28.8 Z255 F3.00 
G01 X1.2 Y29.1 Z255 F3.00 
G01 X1.6 Y29.3 Z255 F3.00 
G01 X1.8 Y29.2 Z255 F3.00 
G01 X1.9 Y29.3 Z255 F3.00 
G01 X1.9 Y29.4 Z255 F3.00 
G01 X2.0 Y29.6 Z255 F3.00 
G01 X2.1 Y29.6 Z255 F3.00 
G01 X2.3 Y29.7 Z255 F3.00 
G01 X2.4 Y29.7 Z255 F3.00 
G01 X2.5 Y29.8 Z255 F3.00 
G01 X2.7 Y30.1 Z255 F3.00 
G01 X2.8 Y30.2 Z255 F3.00 
G01 X2.8 Y30.3 Z255 F3.00 
G01 X2.9 Y30.5 Z255 F3.00 
G01 X2.9 Y30.6 Z255 F3.00 
G01 X3.0 Y30.7 Z255 F3.00 
G01 X3.0 Y30.8 Z255 F3.00 
G01 X3.1 Y30.9 Z255 F3.00 
G01 X3.2 Y30.8 Z255 F3.00 
G01 X3.2 Y30.7 Z255 F3.00 
G01 X3.3 Y30.6 Z255 F3.00 
G01 X3.3 Y30.4 Z255 F3.00 
G01 X3.3 Y30.5 Z255 F3.00 
G01 X3.3 Y30.5 Z255 F3.00 
G00 X3.6 Y30.5 Z0 F50.00 

G01 X3.7 Y30.4 Z255 F3.00 
G01 X3.8 Y30.4 Z255 F3.00 
G01 X4.0 Y30.5 Z255 F3.00 
G01 X4.0 Y30.6 Z255 F3.00 
G01 X4.1 Y30.7 Z255 F3.00 
G01 X4.2 Y30.7 Z255 F3.00 
G01 X4.3 Y30.8 Z255 F3.00 
G01 X4.2 Y30.9 Z255 F3.00 
G01 X4.2 Y31.0 Z255 F3.00 
G01 X4.3 Y31.1 Z255 F3.00 
G01 X4.3 Y31.2 Z255 F3.00 
G01 X4.4 Y31.3 Z255 F3.00 
G01 X4.7 Y31.5 Z255 F3.00 
G01 X5.0 Y31.6 Z255 F3.00 
G01 X5.0 Y31.8 Z255 F3.00 
G01 X4.8 Y31.8 Z255 F3.00 
G01 X4.7 Y31.8 Z255 F3.00 
G01 X4.5 Y31.9 Z255 F3.00 
G01 X4.2 Y32.3 Z255 F3.00 
G01 X4.1 Y32.5 Z255 F3.00 
G01 X4.0 Y32.4 Z255 F3.00 
G01 X3.9 Y32.5 Z255 F3.00 
G01 X3.9 Y32.6 Z255 F3.00 
G01 X4.0 Y32.7 Z255 F3.00 
G01 X4.2 Y32.7 Z255 F3.00 
G01 X4.3 Y32.8 Z255 F3.00 
G01 X4.3 Y32.9 Z255 F3.00 
G01 X4.3 Y32.9 Z255 F3.00 
G00 X4.3 Y32.6 Z0 F50.00 

G01 X4.2 Y32.5 Z255 F3.00 
G01 X4.1 Y32.6 Z255 F3.00 
G01 X4.1 Y32.6 Z255 F3.00 
G00 X4.1 Y33.0 Z0 F50.00 

G01 X4.2 Y33.1 Z255 F3.00 
G01 X4.2 Y33.2 Z255 F3.00 
G01 X4.3 Y33.3 Z255 F3.00 
G01 X4.4 Y33.3 Z255 F3.00 
G01 X4.5 Y33.4 Z255 F3.00 
G01 X4.6 Y33.3 Z255 F3.00 
G01 X4.6 Y33.2 Z255 F3.00 
G01 X4.7 Y33.1 Z255 F3.00 
G01 X4.7 Y33.0 Z255 F3.00 
G01 X4.8 Y32.8 Z255 F3.00 
G01 X4.8 Y32.7 Z255 F3.00 
G01 X4.9 Y32.6 Z255 F3.00 
G01 X4.9 Y32.5 Z255 F3.00 
G01 X5.0 Y32.4 Z255 F3.00 
G01 X5.0 Y32.3 Z255 F3.00 
G01 X5.1 Y32.2 Z255 F3.00 
G01 X5.1 Y32.1 Z255 F3.00 
G01 X5.2 Y32.0 Z255 F3.00 
G01 X5.2 Y31.9 Z255 F3.00 
G01 X5.3 Y31.8 Z255 F3.00 
G01 X5.4 Y31.6 Z255 F3.00 
G01 X5.5 Y31.5 Z255 F3.00 
G01 X5.6 Y31.3 Z255 F3.00 
G01 X5.7 Y31.2 Z255 F3.00 
G01 X5.9 Y30.9 Z255 F3.00 
G01 X6.0 Y30.8 Z255 F3.00 
G01 X6.3 Y30.4 Z255 F3.00 
G01 X6.4 Y30.3 Z255 F3.00 
G01 X6.6 Y30.3 Z255 F3.00 
G01 X6.7 Y30.2 Z255 F3.00 
G01 X6.8 Y29.9 Z255 F3.00 
G01 X6.7 Y30.0 Z255 F3.00 
G01 X6.6 Y30.1 Z255 F3.00 
G00 X6.6 Y30.5 Z0 F50.00 

G01 X6.7 Y30.7 Z255 F3.00 
G01 X6.7 Y30.8 Z255 F3.00 
G01 X6.8 Y31.1 Z255 F3.00 
G01 X7.3 Y31.5 Z255 F3.00 
G01 X7.4 Y31.6 Z255 F3.00 
G01 X7.5 Y31.6 Z255 F3.00 
G01 X7.7 Y31.5 Z255 F3.00 
G01 X7.8 Y31.5 Z255 F3.00 
G01 X8.0 Y31.6 Z255 F3.00 
G01 X8.1 Y31.9 Z255 F3.00 
G01 X8.1 Y32.1 Z255 F3.00 
G01 X8.2 Y32.1 Z255 F3.00 
G01 X8.3 Y32.0 Z255 F3.00 
G01 X8.4 Y32.0 Z255 F3.00 
G01 X8.5 Y31.9 Z255 F3.00 
G01 X8.6 Y31.9 Z255 F3.00 
G01 X8.8 Y32.0 Z255 F3.00 
G01 X8.7 Y32.1 Z255 F3.00 
G01 X8.6 Y32.1 Z255 F3.00 
G01 X8.5 Y32.2 Z255 F3.00 
G01 X8.4 Y32.2 Z255 F3.00 
G01 X8.3 Y32.3 Z255 F3.00 
G01 X8.2 Y32.3 Z255 F3.00 
G01 X8.0 Y32.4 Z255 F3.00 
G01 X7.9 Y32.4 Z255 F3.00 
G01 X7.8 Y32.5 Z255 F3.00 
G01 X7.7 Y32.5 Z255 F3.00 
G01 X7.5 Y32.6 Z255 F3.00 
G01 X7.4 Y32.6 Z255 F3.00 
G01 X7.3 Y32.7 Z255 F3.00 
G01 X7.2 Y32.7 Z255 F3.00 
G01 X7.1 Y32.8 Z255 F3.00 
G01 X7.2 Y32.9 Z255 F3.00 
G01 X7.5 Y33.1 Z255 F3.00 
G01 X7.6 Y33.2 Z255 F3.00 
G01 X8.2 Y33.9 Z255 F3.00 
G01 X8.3 Y34.0 Z255 F3.00 
G01 X8.3 Y34.1 Z255 F3.00 
G01 X8.4 Y34.3 Z255 F3.00 
G01 X8.5 Y34.5 Z255 F3.00 
G01 X8.6 Y34.8 Z255 F3.00 
G01 X8.7 Y35.0 Z255 F3.00 
G01 X8.8 Y35.1 Z255 F3.00 
G01 X8.8 Y35.3 Z255 F3.00 
G01 X8.6 Y35.3 Z255 F3.00 
G01 X8.5 Y35.3 Z255 F3.00 
G01 X8.4 Y35.2 Z255 F3.00 
G01 X8.3 Y35.0 Z255 F3.00 
G01 X8.2 Y34.9 Z255 F3.00 
G01 X7.8 Y34.4 Z255 F3.00 
G01 X7.7 Y34.3 Z255 F3.00 
G01 X7.2 Y33.7 Z255 F3.00 
G01 X7.1 Y33.6 Z255 F3.00 
G01 X7.0 Y33.4 Z255 F3.00 
G01 X6.9 Y33.3 Z255 F3.00 
G01 X6.8 Y33.1 Z255 F3.00 
G01 X6.7 Y33.0 Z255 F3.00 
G01 X6.5 Y32.7 Z255 F3.00 
G01 X6.4 Y32.6 Z255 F3.00 
G01 X6.4 Y32.5 Z255 F3.00 
G01 X6.3 Y32.4 Z255 F3.00 
G01 X6.1 Y32.1 Z255 F3.00 
G01 X6.2 Y32.0 Z255 F3.00 
G01 X6.3 Y32.0 Z255 F3.00 
G01 X6.6 Y32.1 Z255 F3.00 
G01 X6.7 Y32.1 Z255 F3.00 
G01 X7.0 Y32.2 Z255 F3.00 
G01 X7.1 Y32.2 Z255 F3.00 
G01 X7.3 Y32.1 Z255 F3.00 
G01 X7.4 Y32.1 Z255 F3.00 
G01 X7.5 Y32.0 Z255 F3.00 
G01 X7.6 Y32.0 Z255 F3.00 
G01 X7.7 Y31.9 Z255 F3.00 
G01 X7.8 Y31.9 Z255 F3.00 
G01 X7.9 Y31.8 Z255 F3.00 
G01 X8.5 Y31.1 Z255 F3.00 
G01 X8.6 Y31.0 Z255 F3.00 
G01 X8.7 Y30.8 Z255 F3.00 
G01 X8.8 Y30.7 Z255 F3.00 
G01 X9.0 Y30.7 Z255 F3.00 
G01 X9.1 Y30.6 Z255 F3.00 
G01 X9.1 Y30.5 Z255 F3.00 
G01 X9.2 Y30.4 Z255 F3.00 
G01 X9.2 Y30.3 Z255 F3.00 
G01 X9.3 Y30.1 Z255 F3.00 
G01 X9.3 Y30.0 Z255 F3.00 
G01 X9.4 Y29.7 Z255 F3.00 
G01 X9.4 Y29.6 Z255 F3.00 
G01 X9.5 Y29.4 Z255 F3.00 
G01 X9.5 Y29.3 Z255 F3.00 
G01 X9.6 Y29.0 Z255 F3.00 
G01 X9.6 Y28.9 Z255 F3.00 
G01 X9.7 Y28.6 Z255 F3.00 
G01 X9.8 Y28.6 Z255 F3.00 
G01 X9.9 Y28.5 Z255 F3.00 
G01 X9.9 Y28.4 Z255 F3.00 
G01 X10.0 Y28.2 Z255 F3.00 
G01 X10.0 Y28.1 Z255 F3.00 
G01 X10.1 Y27.6 Z255 F3.00 
G01 X10.1 Y27.5 Z255 F3.00 
G01 X10.2 Y27.0 Z255 F3.00 
G01 X10.2 Y26.9 Z255 F3.00 
G01 X10.3 Y26.5 Z255 F3.00 
G01 X10.3 Y26.4 Z255 F3.00 
G01 X10.4 Y25.9 Z255 F3.00 
G01 X10.4 Y25.8 Z255 F3.00 
G01 X10.5 Y25.2 Z255 F3.00 
G01 X10.5 Y25.1 Z255 F3.00 
G01 X10.4 Y24.8 Z255 F3.00 
G01 X10.5 Y24.7 Z255 F3.00 
G01 X11.2 Y24.2 Z255 F3.00 
G01 X11.2 Y24.3 Z255 F3.00 
G01 X11.1 Y24.4 Z255 F3.00 
G01 X11.0 Y24.3 Z255 F3.00 
G01 X11.0 Y24.1 Z255 F3.00 
G01 X11.0 Y24.0 Z255 F3.00 
G01 X11.1 Y23.8 Z255 F3.00 
G01 X11.2 Y23.9 Z255 F3.00 
G01 X11.3 Y23.8 Z255 F3.00 
G01 X11.3 Y23.7 Z255 F3.00 
G01 X11.2 Y23.6 Z255 F3.00 
G01 X11.1 Y23.7 Z255 F3.00 
G01 X11.0 Y23.7 Z255 F3.00 
G01 X11.1 Y23.6 Z255 F3.00 
G01 X11.3 Y23.3 Z255 F3.00 
G01 X11.4 Y23.2 Z255 F3.00 
G01 X11.4 Y23.0 Z255 F3.00 
G01 X11.3 Y23.1 Z255 F3.00 
G01 X11.2 Y23.1 Z255 F3.00 
G01 X11.3 Y23.2 Z255 F3.00 
G01 X11.3 Y23.2 Z255 F3.00 
G00 X11.0 Y23.1 Z0 F50.00 

G01 X10.9 Y23.1 Z255 F3.00 
G01 X11.0 Y23.2 Z255 F3.00 
G01 X11.0 Y23.2 Z255 F3.00 
G00 X10.7 Y23.0 Z0 F50.00 

G01 X10.5 Y23.1 Z255 F3.00 
G01 X10.4 Y23.1 Z255 F3.00 
G01 X10.3 Y23.2 Z255 F3.00 
G01 X10.2 Y23.2 Z255 F3.00 
G01 X10.1 Y23.3 Z255 F3.00 
G01 X10.0 Y23.3 Z255 F3.00 
G01 X9.9 Y23.4 Z255 F3.00 
G01 X9.7 Y23.5 Z255 F3.00 
G01 X9.6 Y23.6 Z255 F3.00 
G01 X9.5 Y23.6 Z255 F3.00 
G01 X9.4 Y23.7 Z255 F3.00 
G01 X9.3 Y23.8 Z255 F3.00 
G00 X9.2 Y23.5 Z0 F50.00 

G01 X9.3 Y23.4 Z255 F3.00 
G01 X9.3 Y23.3 Z255 F3.00 
G01 X9.4 Y23.1 Z255 F3.00 
G01 X9.6 Y23.0 Z255 F3.00 
G01 X9.7 Y22.9 Z255 F3.00 
G01 X9.8 Y22.9 Z255 F3.00 
G01 X10.0 Y22.8 Z255 F3.00 
G01 X10.1 Y22.8 Z255 F3.00 
G01 X10.2 Y22.7 Z255 F3.00 
G01 X10.3 Y22.7 Z255 F3.00 
G01 X10.5 Y22.6 Z255 F3.00 
G01 X10.6 Y22.6 Z255 F3.00 
G01 X10.9 Y22.5 Z255 F3.00 
G01 X11.0 Y22.5 Z255 F3.00 
G01 X11.2 Y22.4 Z255 F3.00 
G01 X11.3 Y22.4 Z255 F3.00 
G01 X11.4 Y22.3 Z255 F3.00 
G01 X11.5 Y22.4 Z255 F3.00 
G01 X11.6 Y22.3 Z255 F3.00 
G01 X11.5 Y22.2 Z255 F3.00 
G01 X11.4 Y22.2 Z255 F3.00 
G01 X11.5 Y22.1 Z255 F3.00 
G01 X11.7 Y22.1 Z255 F3.00 
G01 X11.8 Y22.0 Z255 F3.00 
G01 X11.7 Y21.9 Z255 F3.00 
G01 X11.7 Y21.9 Z255 F3.00 
G00 X11.4 Y22.0 Z0 F50.00 

G01 X11.2 Y22.0 Z255 F3.00 
G01 X11.1 Y22.0 Z255 F3.00 
G01 X10.9 Y22.1 Z255 F3.00 
G01 X10.8 Y22.1 Z255 F3.00 
G01 X10.6 Y22.0 Z255 F3.00 
G01 X10.7 Y21.9 Z255 F3.00 
G01 X10.8 Y21.9 Z255 F3.00 
G01 X11.0 Y21.8 Z255 F3.00 
G01 X10.9 Y21.7 Z255 F3.00 
G01 X10.8 Y21.7 Z255 F3.00 
G01 X10.5 Y21.6 Z255 F3.00 
G01 X10.4 Y21.6 Z255 F3.00 
G01 X10.4 Y21.6 Z255 F3.00 
G00 X10.4 Y21.3 Z0 F50.00 

G01 X10.5 Y21.2 Z255 F3.00 
G01 X10.4 Y21.1 Z255 F3.00 
G01 X10.3 Y21.2 Z255 F3.00 
G01 X10.1 Y21.5 Z255 F3.00 
G01 X10.0 Y21.6 Z255 F3.00 
G01 X10.0 Y21.7 Z255 F3.00 
G01 X10.1 Y21.9 Z255 F3.00 
G01 X10.3 Y22.0 Z255 F3.00 
G01 X10.6 Y22.1 Z255 F3.00 
G01 X10.5 Y22.2 Z255 F3.00 
G01 X10.4 Y22.2 Z255 F3.00 
G01 X10.1 Y22.3 Z255 F3.00 
G01 X10.0 Y22.3 Z255 F3.00 
G01 X9.8 Y22.4 Z255 F3.00 
G01 X9.7 Y22.4 Z255 F3.00 
G01 X9.5 Y22.5 Z255 F3.00 
G01 X9.4 Y22.4 Z255 F3.00 
G01 X9.5 Y22.3 Z255 F3.00 
G01 X9.5 Y22.2 Z255 F3.00 
G01 X9.6 Y22.1 Z255 F3.00 
G01 X9.6 Y22.0 Z255 F3.00 
G01 X9.7 Y21.8 Z255 F3.00 
G01 X9.7 Y21.7 Z255 F3.00 
G01 X9.8 Y21.5 Z255 F3.00 
G01 X9.7 Y21.4 Z255 F3.00 
G01 X9.6 Y21.4 Z255 F3.00 
G01 X9.5 Y21.5 Z255 F3.00 
G01 X9.4 Y21.5 Z255 F3.00 
G01 X9.5 Y21.6 Z255 F3.00 
G01 X9.5 Y21.6 Z255 F3.00 
G00 X9.4 Y21.9 Z0 F50.00 

G01 X9.3 Y22.0 Z255 F3.00 
G01 X9.3 Y22.1 Z255 F3.00 
G01 X9.2 Y22.2 Z255 F3.00 
G01 X9.2 Y22.3 Z255 F3.00 
G01 X9.1 Y22.4 Z255 F3.00 
G01 X9.1 Y22.4 Z255 F3.00 
G00 X9.1 Y23.7 Z0 F50.00 

G01 X9.1 Y23.6 Z255 F3.00 
G01 X9.1 Y23.6 Z255 F3.00 
G00 X8.1 Y21.7 Z0 F50.00 

G01 X8.2 Y21.7 Z255 F3.00 
G01 X8.2 Y21.7 Z255 F3.00 
G00 X8.1 Y21.3 Z0 F50.00 

G01 X8.2 Y21.3 Z255 F3.00 
G00 X9.2 Y21.4 Z0 F50.00 

G01 X9.3 Y21.5 Z255 F3.00 
G01 X9.2 Y21.5 Z255 F3.00 
G01 X9.2 Y21.5 Z255 F3.00 
G00 X9.4 Y21.3 Z0 F50.00 

G01 X9.5 Y21.2 Z255 F3.00 
G01 X9.6 Y21.2 Z255 F3.00 
G01 X9.7 Y21.1 Z255 F3.00 
G01 X10.0 Y20.9 Z255 F3.00 
G01 X10.1 Y20.8 Z255 F3.00 
G01 X10.2 Y20.8 Z255 F3.00 
G01 X10.3 Y20.7 Z255 F3.00 
G01 X10.4 Y20.7 Z255 F3.00 
G01 X10.5 Y20.6 Z255 F3.00 
G01 X10.6 Y20.6 Z255 F3.00 
G01 X10.7 Y20.5 Z255 F3.00 
G01 X10.9 Y20.4 Z255 F3.00 
G01 X11.1 Y20.3 Z255 F3.00 
G01 X11.2 Y20.3 Z255 F3.00 
G01 X11.4 Y20.2 Z255 F3.00 
G01 X11.5 Y20.2 Z255 F3.00 
G01 X11.7 Y20.1 Z255 F3.00 
G01 X11.8 Y20.1 Z255 F3.00 
G01 X12.1 Y20.0 Z255 F3.00 
G01 X12.2 Y20.0 Z255 F3.00 
G01 X12.4 Y20.1 Z255 F3.00 
G01 X12.5 Y20.1 Z255 F3.00 
G01 X12.7 Y20.2 Z255 F3.00 
G01 X12.8 Y20.2 Z255 F3.00 
G01 X12.9 Y20.3 Z255 F3.00 
G01 X13.0 Y20.3 Z255 F3.00 
G01 X13.1 Y20.4 Z255 F3.00 
G01 X13.2 Y20.6 Z255 F3.00 
G01 X13.1 Y21.0 Z255 F3.00 
G01 X13.1 Y21.1 Z255 F3.00 
G01 X13.0 Y21.2 Z255 F3.00 
G01 X13.0 Y21.4 Z255 F3.00 
G01 X13.1 Y21.4 Z255 F3.00 
G01 X13.3 Y21.5 Z255 F3.00 
G01 X13.4 Y21.5 Z255 F3.00 
G01 X15.0 Y21.4 Z255 F3.00 
G01 X15.1 Y21.4 Z255 F3.00 
G01 X15.4 Y21.3 Z255 F3.00 
G01 X15.5 Y21.3 Z255 F3.00 
G01 X15.6 Y21.2 Z255 F3.00 
G01 X15.7 Y21.2 Z255 F3.00 
G01 X15.8 Y21.1 Z255 F3.00 
G01 X15.9 Y21.1 Z255 F3.00 
G01 X16.0 Y21.2 Z255 F3.00 
G01 X15.9 Y21.3 Z255 F3.00 
G01 X15.7 Y21.4 Z255 F3.00 
G01 X15.6 Y21.5 Z255 F3.00 
G01 X15.5 Y21.5 Z255 F3.00 
G01 X15.4 Y21.6 Z255 F3.00 
G01 X15.3 Y21.6 Z255 F3.00 
G01 X15.1 Y21.7 Z255 F3.00 
G01 X15.0 Y21.7 Z255 F3.00 
G01 X14.1 Y21.8 Z255 F3.00 
G01 X14.2 Y21.9 Z255 F3.00 
G01 X14.1 Y22.0 Z255 F3.00 
G01 X14.0 Y22.0 Z255 F3.00 
G01 X13.7 Y21.9 Z255 F3.00 
G01 X13.4 Y21.8 Z255 F3.00 
G01 X13.2 Y21.9 Z255 F3.00 
G01 X13.1 Y21.8 Z255 F3.00 
G01 X13.2 Y21.7 Z255 F3.00 
G01 X13.3 Y21.7 Z255 F3.00 
G01 X13.4 Y21.7 Z255 F3.00 
G00 X13.0 Y21.7 Z0 F50.00 

G01 X12.8 Y21.6 Z255 F3.00 
G01 X12.7 Y21.6 Z255 F3.00 
G01 X12.6 Y21.5 Z255 F3.00 
G01 X12.7 Y21.4 Z255 F3.00 
G01 X12.8 Y21.4 Z255 F3.00 
G01 X12.9 Y21.4 Z255 F3.00 
G00 X12.8 Y21.0 Z0 F50.00 

G01 X12.9 Y20.8 Z255 F3.00 
G01 X13.0 Y20.7 Z255 F3.00 
G01 X13.0 Y20.6 Z255 F3.00 
G01 X13.0 Y20.5 Z255 F3.00 
G00 X13.0 Y20.1 Z0 F50.00 

G01 X13.0 Y20.0 Z255 F3.00 
G01 X12.9 Y19.9 Z255 F3.00 
G01 X12.8 Y19.9 Z255 F3.00 
G01 X12.7 Y19.8 Z255 F3.00 
G01 X12.6 Y19.8 Z255 F3.00 
G01 X11.5 Y19.9 Z255 F3.00 
G01 X11.4 Y19.9 Z255 F3.00 
G01 X10.8 Y20.0 Z255 F3.00 
G01 X10.7 Y20.0 Z255 F3.00 
G01 X10.5 Y20.1 Z255 F3.00 
G01 X10.4 Y20.1 Z255 F3.00 
G01 X10.2 Y20.2 Z255 F3.00 
G01 X10.1 Y20.2 Z255 F3.00 
G01 X10.0 Y20.3 Z255 F3.00 
G01 X9.9 Y20.3 Z255 F3.00 
G01 X9.8 Y20.4 Z255 F3.00 
G01 X9.7 Y20.4 Z255 F3.00 
G01 X9.5 Y20.5 Z255 F3.00 
G01 X9.3 Y20.6 Z255 F3.00 
G01 X9.2 Y20.7 Z255 F3.00 
G01 X9.0 Y20.7 Z255 F3.00 
G01 X9.1 Y20.6 Z255 F3.00 
G01 X9.1 Y20.5 Z255 F3.00 
G01 X9.2 Y20.4 Z255 F3.00 
G01 X9.2 Y20.3 Z255 F3.00 
G01 X9.3 Y20.1 Z255 F3.00 
G01 X9.3 Y20.0 Z255 F3.00 
G01 X9.4 Y19.9 Z255 F3.00 
G01 X9.4 Y19.8 Z255 F3.00 
G01 X9.5 Y19.7 Z255 F3.00 
G01 X9.5 Y19.5 Z255 F3.00 
G01 X9.5 Y19.6 Z255 F3.00 
G01 X9.6 Y19.7 Z255 F3.00 
G01 X9.6 Y19.9 Z255 F3.00 
G01 X9.7 Y20.0 Z255 F3.00 
G01 X9.8 Y20.0 Z255 F3.00 
G01 X9.9 Y19.9 Z255 F3.00 
G01 X10.0 Y19.9 Z255 F3.00 
G01 X10.2 Y19.8 Z255 F3.00 
G01 X10.3 Y19.8 Z255 F3.00 
G01 X10.5 Y19.7 Z255 F3.00 
G01 X10.6 Y19.7 Z255 F3.00 
G01 X10.7 Y19.6 Z255 F3.00 
G01 X10.8 Y19.6 Z255 F3.00 
G01 X10.9 Y19.5 Z255 F3.00 
G01 X10.9 Y19.4 Z255 F3.00 
G01 X10.8 Y19.3 Z255 F3.00 
G01 X10.5 Y19.1 Z255 F3.00 
G01 X10.4 Y19.0 Z255 F3.00 
G01 X10.0 Y18.7 Z255 F3.00 
G01 X9.9 Y18.6 Z255 F3.00 
G01 X9.3 Y17.8 Z255 F3.00 
G01 X9.2 Y17.7 Z255 F3.00 
G01 X9.1 Y17.8 Z255 F3.00 
G01 X9.0 Y17.7 Z255 F3.00 
G01 X9.1 Y17.6 Z255 F3.00 
G01 X9.0 Y17.6 Z255 F3.00 
G01 X8.9 Y17.5 Z255 F3.00 
G01 X8.8 Y17.4 Z255 F3.00 
G00 X8.9 Y18.2 Z0 F50.00 

G01 X8.9 Y18.3 Z255 F3.00 
G01 X9.0 Y18.4 Z255 F3.00 
G01 X9.0 Y18.5 Z255 F3.00 
G01 X9.1 Y18.7 Z255 F3.00 
G01 X9.1 Y18.8 Z255 F3.00 
G01 X9.2 Y18.9 Z255 F3.00 
G01 X9.2 Y18.9 Z255 F3.00 
G00 X9.1 Y19.9 Z0 F50.00 

G01 X9.0 Y20.0 Z255 F3.00 
G01 X9.0 Y20.1 Z255 F3.00 
G01 X8.9 Y20.2 Z255 F3.00 
G01 X8.9 Y20.3 Z255 F3.00 
G01 X8.8 Y20.4 Z255 F3.00 
G01 X8.9 Y20.4 Z255 F3.00 
G01 X8.8 Y20.5 Z255 F3.00 
G01 X8.8 Y20.5 Z255 F3.00 
G00 X11.0 Y21.0 Z0 F50.00 

G01 X11.1 Y21.0 Z255 F3.00 
G01 X11.2 Y21.1 Z255 F3.00 
G01 X11.2 Y21.2 Z255 F3.00 
G01 X11.1 Y21.3 Z255 F3.00 
G01 X11.0 Y21.3 Z255 F3.00 
G01 X10.9 Y21.2 Z255 F3.00 
G01 X10.9 Y21.2 Z255 F3.00 
G00 X12.0 Y21.5 Z0 F50.00 

G01 X12.1 Y21.5 Z255 F3.00 
G01 X12.5 Y21.5 Z255 F3.00 
G00 X12.4 Y21.2 Z0 F50.00 

G01 X12.5 Y21.2 Z255 F3.00 
G01 X12.6 Y21.2 Z255 F3.00 
G00 X12.1 Y21.3 Z0 F50.00 

G01 X12.0 Y21.3 Z255 F3.00 
G00 X12.0 Y19.5 Z0 F50.00 

G01 X11.9 Y19.4 Z255 F3.00 
G01 X12.0 Y19.3 Z255 F3.00 
G01 X12.2 Y19.0 Z255 F3.00 
G01 X12.1 Y18.7 Z255 F3.00 
G01 X12.2 Y18.6 Z255 F3.00 
G01 X12.3 Y18.6 Z255 F3.00 
G01 X12.4 Y18.7 Z255 F3.00 
G01 X12.5 Y18.9 Z255 F3.00 
G01 X12.4 Y19.2 Z255 F3.00 
G01 X12.1 Y19.5 Z255 F3.00 
G00 X11.0 Y18.9 Z0 F50.00 

G01 X10.9 Y18.8 Z255 F3.00 
G01 X11.0 Y18.7 Z255 F3.00 
G01 X11.0 Y18.7 Z255 F3.00 
G00 X11.2 Y18.3 Z0 F50.00 

G01 X11.3 Y18.3 Z255 F3.00 
G01 X11.4 Y18.4 Z255 F3.00 
G01 X11.5 Y18.3 Z255 F3.00 
G01 X11.8 Y18.2 Z255 F3.00 
G01 X11.9 Y18.1 Z255 F3.00 
G01 X11.9 Y17.9 Z255 F3.00 
G01 X11.8 Y18.0 Z255 F3.00 
G01 X11.7 Y17.9 Z255 F3.00 
G01 X11.5 Y17.9 Z255 F3.00 
G01 X11.3 Y18.0 Z255 F3.00 
G01 X11.4 Y17.9 Z255 F3.00 
G01 X11.8 Y17.3 Z255 F3.00 
G01 X11.7 Y17.3 Z255 F3.00 
G01 X11.6 Y17.4 Z255 F3.00 
G01 X11.5 Y17.5 Z255 F3.00 
G00 X11.5 Y17.2 Z0 F50.00 

G01 X11.6 Y17.3 Z255 F3.00 
G01 X11.6 Y17.3 Z255 F3.00 
G00 X11.4 Y17.1 Z0 F50.00 

G01 X11.5 Y17.0 Z255 F3.00 
G01 X11.4 Y16.9 Z255 F3.00 
G01 X11.4 Y16.7 Z255 F3.00 
G01 X11.5 Y16.7 Z255 F3.00 
G01 X11.6 Y16.6 Z255 F3.00 
G01 X11.7 Y16.6 Z255 F3.00 
G01 X11.6 Y16.7 Z255 F3.00 
G01 X11.7 Y16.8 Z255 F3.00 
G01 X11.8 Y16.8 Z255 F3.00 
G01 X12.0 Y16.7 Z255 F3.00 
G01 X12.1 Y16.7 Z255 F3.00 
G01 X12.2 Y16.6 Z255 F3.00 
G01 X12.2 Y16.5 Z255 F3.00 
G01 X12.1 Y16.4 Z255 F3.00 
G01 X12.2 Y16.3 Z255 F3.00 
G01 X12.3 Y16.3 Z255 F3.00 
G01 X12.4 Y16.4 Z255 F3.00 
G01 X12.5 Y16.4 Z255 F3.00 
G01 X12.6 Y16.3 Z255 F3.00 
G01 X12.7 Y16.3 Z255 F3.00 
G01 X12.8 Y16.2 Z255 F3.00 
G01 X12.9 Y16.2 Z255 F3.00 
G01 X13.2 Y16.1 Z255 F3.00 
G01 X13.3 Y16.1 Z255 F3.00 
G01 X13.6 Y16.0 Z255 F3.00 
G01 X13.5 Y15.9 Z255 F3.00 
G01 X13.4 Y15.9 Z255 F3.00 
G01 X13.3 Y15.8 Z255 F3.00 
G01 X13.3 Y15.9 Z255 F3.00 
G01 X13.3 Y15.9 Z255 F3.00 
G00 X13.3 Y15.6 Z0 F50.00 

G01 X13.4 Y15.1 Z255 F3.00 
G01 X14.2 Y14.4 Z255 F3.00 
G01 X14.3 Y14.3 Z255 F3.00 
G01 X14.5 Y14.3 Z255 F3.00 
G01 X14.7 Y14.4 Z255 F3.00 
G01 X14.9 Y14.3 Z255 F3.00 
G01 X15.0 Y14.3 Z255 F3.00 
G01 X15.1 Y14.2 Z255 F3.00 
G01 X15.2 Y14.3 Z255 F3.00 
G01 X15.3 Y14.2 Z255 F3.00 
G01 X15.2 Y14.1 Z255 F3.00 
G01 X15.3 Y14.1 Z255 F3.00 
G01 X15.4 Y14.2 Z255 F3.00 
G01 X15.5 Y14.2 Z255 F3.00 
G01 X15.9 Y14.1 Z255 F3.00 
G01 X16.0 Y14.1 Z255 F3.00 
G01 X16.1 Y14.0 Z255 F3.00 
G01 X16.2 Y14.0 Z255 F3.00 
G01 X16.3 Y13.9 Z255 F3.00 
G01 X16.3 Y13.7 Z255 F3.00 
G01 X16.2 Y13.7 Z255 F3.00 
G01 X15.7 Y13.8 Z255 F3.00 
G01 X15.6 Y13.8 Z255 F3.00 
G01 X15.5 Y13.9 Z255 F3.00 
G01 X15.4 Y14.0 Z255 F3.00 
G00 X15.0 Y13.9 Z0 F50.00 

G01 X14.9 Y13.9 Z255 F3.00 
G01 X14.8 Y14.0 Z255 F3.00 
G01 X14.7 Y14.0 Z255 F3.00 
G01 X14.8 Y14.1 Z255 F3.00 
G01 X15.0 Y14.1 Z255 F3.00 
G01 X15.0 Y14.1 Z255 F3.00 
G00 X14.6 Y14.1 Z0 F50.00 

G01 X14.5 Y14.2 Z255 F3.00 
G01 X14.5 Y14.4 Z255 F3.00 
G01 X14.4 Y14.5 Z255 F3.00 
G01 X14.3 Y14.4 Z255 F3.00 
G01 X14.3 Y14.4 Z255 F3.00 
G00 X14.7 Y13.8 Z0 F50.00 

G01 X14.8 Y13.8 Z255 F3.00 
G01 X14.9 Y13.7 Z255 F3.00 
G01 X14.9 Y13.5 Z255 F3.00 
G01 X14.7 Y13.5 Z255 F3.00 
G01 X14.6 Y13.4 Z255 F3.00 
G01 X14.5 Y13.5 Z255 F3.00 
G01 X13.9 Y14.0 Z255 F3.00 
G01 X13.8 Y14.1 Z255 F3.00 
G01 X13.7 Y14.0 Z255 F3.00 
G01 X13.8 Y13.9 Z255 F3.00 
G01 X14.0 Y13.8 Z255 F3.00 
G01 X14.2 Y13.7 Z255 F3.00 
G01 X14.1 Y13.6 Z255 F3.00 
G01 X14.1 Y13.6 Z255 F3.00 
G00 X14.4 Y13.5 Z0 F50.00 

G01 X14.6 Y13.5 Z255 F3.00 
G01 X14.6 Y13.5 Z255 F3.00 
G00 X14.5 Y13.2 Z0 F50.00 

G01 X14.4 Y13.3 Z255 F3.00 
G01 X14.3 Y13.2 Z255 F3.00 
G01 X14.4 Y13.1 Z255 F3.00 
G01 X14.5 Y13.1 Z255 F3.00 
G01 X14.6 Y13.0 Z255 F3.00 
G01 X14.9 Y12.8 Z255 F3.00 
G01 X15.0 Y12.7 Z255 F3.00 
G01 X15.1 Y12.7 Z255 F3.00 
G01 X15.2 Y12.6 Z255 F3.00 
G01 X15.1 Y12.5 Z255 F3.00 
G01 X15.0 Y12.5 Z255 F3.00 
G01 X15.1 Y12.4 Z255 F3.00 
G01 X15.3 Y12.1 Z255 F3.00 
G01 X15.2 Y11.9 Z255 F3.00 
G01 X15.3 Y11.9 Z255 F3.00 
G01 X15.4 Y11.8 Z255 F3.00 
G01 X15.5 Y11.8 Z255 F3.00 
G01 X15.8 Y11.7 Z255 F3.00 
G01 X15.7 Y11.6 Z255 F3.00 
G01 X15.6 Y11.6 Z255 F3.00 
G01 X15.5 Y11.5 Z255 F3.00 
G01 X15.4 Y11.6 Z255 F3.00 
G01 X15.5 Y11.6 Z255 F3.00 
G01 X15.5 Y11.6 Z255 F3.00 
G00 X15.6 Y11.3 Z0 F50.00 

G01 X15.7 Y11.3 Z255 F3.00 
G01 X15.8 Y11.2 Z255 F3.00 
G01 X16.0 Y11.1 Z255 F3.00 
G01 X16.1 Y11.0 Z255 F3.00 
G01 X16.0 Y10.9 Z255 F3.00 
G01 X16.0 Y10.8 Z255 F3.00 
G01 X16.1 Y10.7 Z255 F3.00 
G01 X16.4 Y10.3 Z255 F3.00 
G01 X16.5 Y10.1 Z255 F3.00 
G01 X16.5 Y10.0 Z255 F3.00 
G01 X16.6 Y9.9 Z255 F3.00 
G01 X16.7 Y9.7 Z255 F3.00 
G01 X16.8 Y9.6 Z255 F3.00 
G01 X17.6 Y8.9 Z255 F3.00 
G01 X17.7 Y8.8 Z255 F3.00 
G01 X17.8 Y8.8 Z255 F3.00 
G01 X17.9 Y8.7 Z255 F3.00 
G01 X18.0 Y8.7 Z255 F3.00 
G01 X18.1 Y8.6 Z255 F3.00 
G01 X18.2 Y8.6 Z255 F3.00 
G01 X18.4 Y8.5 Z255 F3.00 
G01 X18.5 Y8.5 Z255 F3.00 
G01 X18.7 Y8.4 Z255 F3.00 
G01 X18.8 Y8.4 Z255 F3.00 
G01 X19.2 Y8.3 Z255 F3.00 
G01 X19.3 Y8.3 Z255 F3.00 
G01 X19.5 Y8.2 Z255 F3.00 
G01 X19.6 Y8.2 Z255 F3.00 
G01 X19.9 Y8.1 Z255 F3.00 
G01 X20.0 Y8.1 Z255 F3.00 
G01 X20.9 Y8.0 Z255 F3.00 
G01 X21.0 Y8.1 Z255 F3.00 
G01 X21.1 Y8.1 Z255 F3.00 
G01 X21.8 Y8.2 Z255 F3.00 
G01 X22.0 Y8.2 Z255 F3.00 
G01 X22.1 Y8.3 Z255 F3.00 
G01 X22.1 Y8.5 Z255 F3.00 
G01 X22.1 Y8.7 Z255 F3.00 
G01 X22.2 Y8.7 Z255 F3.00 
G01 X22.3 Y8.8 Z255 F3.00 
G01 X22.5 Y8.8 Z255 F3.00 
G01 X22.6 Y8.9 Z255 F3.00 
G01 X22.6 Y9.0 Z255 F3.00 
G01 X22.7 Y9.2 Z255 F3.00 
G01 X22.9 Y9.3 Z255 F3.00 
G01 X23.2 Y9.2 Z255 F3.00 
G01 X23.3 Y9.3 Z255 F3.00 
G01 X23.5 Y9.3 Z255 F3.00 
G01 X23.7 Y8.9 Z255 F3.00 
G01 X23.8 Y8.8 Z255 F3.00 
G01 X24.5 Y7.9 Z255 F3.00 
G01 X24.6 Y7.8 Z255 F3.00 
G01 X24.8 Y7.7 Z255 F3.00 
G01 X24.9 Y7.6 Z255 F3.00 
G01 X25.3 Y7.4 Z255 F3.00 
G01 X25.4 Y7.3 Z255 F3.00 
G01 X25.6 Y7.3 Z255 F3.00 
G01 X25.6 Y7.4 Z255 F3.00 
G01 X25.5 Y7.5 Z255 F3.00 
G01 X25.5 Y7.6 Z255 F3.00 
G01 X25.4 Y7.7 Z255 F3.00 
G01 X25.1 Y7.8 Z255 F3.00 
G01 X25.2 Y7.7 Z255 F3.00 
G01 X25.2 Y7.6 Z255 F3.00 
G01 X25.3 Y7.5 Z255 F3.00 
G01 X25.3 Y7.5 Z255 F3.00 
G00 X25.4 Y7.2 Z0 F50.00 

G01 X25.3 Y7.1 Z255 F3.00 
G01 X25.4 Y7.1 Z255 F3.00 
G01 X25.5 Y7.0 Z255 F3.00 
G01 X25.6 Y7.0 Z255 F3.00 
G01 X25.8 Y6.9 Z255 F3.00 
G01 X26.1 Y6.7 Z255 F3.00 
G01 X26.3 Y6.8 Z255 F3.00 
G01 X26.4 Y6.7 Z255 F3.00 
G01 X26.5 Y6.7 Z255 F3.00 
G01 X26.4 Y6.6 Z255 F3.00 
G01 X26.4 Y6.6 Z255 F3.00 
G00 X26.7 Y6.7 Z0 F50.00 

G01 X26.8 Y6.6 Z255 F3.00 
G01 X26.9 Y6.6 Z255 F3.00 
G01 X27.3 Y6.7 Z255 F3.00 
G01 X27.4 Y6.9 Z255 F3.00 
G01 X27.5 Y7.0 Z255 F3.00 
G01 X27.5 Y7.1 Z255 F3.00 
G01 X27.6 Y7.2 Z255 F3.00 
G01 X27.7 Y7.1 Z255 F3.00 
G01 X27.7 Y7.0 Z255 F3.00 
G01 X27.8 Y6.9 Z255 F3.00 
G01 X27.9 Y6.9 Z255 F3.00 
G01 X28.1 Y6.8 Z255 F3.00 
G01 X28.2 Y6.8 Z255 F3.00 
G01 X28.4 Y6.9 Z255 F3.00 
G01 X28.4 Y7.0 Z255 F3.00 
G01 X28.5 Y7.4 Z255 F3.00 
G01 X28.6 Y7.3 Z255 F3.00 
G01 X28.7 Y7.1 Z255 F3.00 
G01 X28.8 Y7.0 Z255 F3.00 
G01 X28.9 Y6.8 Z255 F3.00 
G01 X28.8 Y6.3 Z255 F3.00 
G01 X28.7 Y6.4 Z255 F3.00 
G01 X28.7 Y6.6 Z255 F3.00 
G01 X28.6 Y6.6 Z255 F3.00 
G01 X28.7 Y6.7 Z255 F3.00 
G01 X28.7 Y6.8 Z255 F3.00 
G01 X28.7 Y7.0 Z255 F3.00 
G00 X28.3 Y6.4 Z0 F50.00 

G01 X28.2 Y6.4 Z255 F3.00 
G01 X28.3 Y6.3 Z255 F3.00 
G01 X28.3 Y6.3 Z255 F3.00 
G00 X28.0 Y6.4 Z0 F50.00 

G01 X28.1 Y6.5 Z255 F3.00 
G01 X28.0 Y6.6 Z255 F3.00 
G01 X27.9 Y6.6 Z255 F3.00 
G01 X27.8 Y6.7 Z255 F3.00 
G01 X27.7 Y6.6 Z255 F3.00 
G01 X27.7 Y6.5 Z255 F3.00 
G01 X27.8 Y6.4 Z255 F3.00 
G01 X27.9 Y6.4 Z255 F3.00 
G01 X27.9 Y6.4 Z255 F3.00 
G00 X28.1 Y6.1 Z0 F50.00 

G01 X28.1 Y6.1 Z255 F3.00 
G00 X28.2 Y5.7 Z0 F50.00 

G01 X28.7 Y5.4 Z255 F3.00 
G01 X28.8 Y5.6 Z255 F3.00 
G01 X28.7 Y5.7 Z255 F3.00 
G01 X28.8 Y5.8 Z255 F3.00 
G01 X28.8 Y5.9 Z255 F3.00 
G01 X28.7 Y6.0 Z255 F3.00 
G01 X28.6 Y6.0 Z255 F3.00 
G01 X28.7 Y6.1 Z255 F3.00 
G01 X28.7 Y6.2 Z255 F3.00 
G01 X28.6 Y6.3 Z255 F3.00 
G01 X28.6 Y6.3 Z255 F3.00 
G00 X29.4 Y6.4 Z0 F50.00 

G01 X29.6 Y6.4 Z255 F3.00 
G01 X29.7 Y6.4 Z255 F3.00 
G01 X29.9 Y6.5 Z255 F3.00 
G01 X29.9 Y6.6 Z255 F3.00 
G01 X29.8 Y6.8 Z255 F3.00 
G01 X29.7 Y6.8 Z255 F3.00 
G01 X29.4 Y6.9 Z255 F3.00 
G01 X29.3 Y6.8 Z255 F3.00 
G01 X29.3 Y6.7 Z255 F3.00 
G01 X29.3 Y6.6 Z255 F3.00 
G00 X29.2 Y6.1 Z0 F50.00 

G01 X29.3 Y6.0 Z255 F3.00 
G01 X29.5 Y6.0 Z255 F3.00 
G01 X29.5 Y6.1 Z255 F3.00 
G01 X29.4 Y6.2 Z255 F3.00 
G01 X29.4 Y6.2 Z255 F3.00 
G00 X29.3 Y5.8 Z0 F50.00 

G01 X29.3 Y5.6 Z255 F3.00 
G01 X29.2 Y5.7 Z255 F3.00 
G01 X29.1 Y5.6 Z255 F3.00 
G01 X29.0 Y5.4 Z255 F3.00 
G01 X29.1 Y5.3 Z255 F3.00 
G01 X29.3 Y5.3 Z255 F3.00 
G01 X29.4 Y5.3 Z255 F3.00 
G01 X29.5 Y5.4 Z255 F3.00 
G01 X29.5 Y5.4 Z255 F3.00 
G00 X29.2 Y5.3 Z0 F50.00 

G01 X29.2 Y5.3 Z255 F3.00 
G00 X28.9 Y5.3 Z0 F50.00 

G01 X28.6 Y5.4 Z255 F3.00 
G01 X28.6 Y5.4 Z255 F3.00 
G00 X28.6 Y5.1 Z0 F50.00 

G01 X28.5 Y5.0 Z255 F3.00 
G01 X28.4 Y5.1 Z255 F3.00 
G01 X28.4 Y5.1 Z255 F3.00 
G00 X28.8 Y5.1 Z0 F50.00 

G01 X29.0 Y5.0 Z255 F3.00 
G01 X29.0 Y4.9 Z255 F3.00 
G01 X29.1 Y4.7 Z255 F3.00 
G01 X29.2 Y4.8 Z255 F3.00 
G01 X29.2 Y4.8 Z255 F3.00 
G00 X29.5 Y4.9 Z0 F50.00 

G01 X29.7 Y5.2 Z255 F3.00 
G01 X29.8 Y5.3 Z255 F3.00 
G01 X29.8 Y5.4 Z255 F3.00 
G01 X29.7 Y5.7 Z255 F3.00 
G01 X29.6 Y5.7 Z255 F3.00 
G01 X29.5 Y5.7 Z255 F3.00 
G00 X30.1 Y5.9 Z0 F50.00 

G01 X30.3 Y5.9 Z255 F3.00 
G01 X30.4 Y6.1 Z255 F3.00 
G01 X30.5 Y6.2 Z255 F3.00 
G01 X30.5 Y6.4 Z255 F3.00 
G01 X30.6 Y6.5 Z255 F3.00 
G01 X30.5 Y6.6 Z255 F3.00 
G01 X30.6 Y6.7 Z255 F3.00 
G01 X30.8 Y6.8 Z255 F3.00 
G01 X31.0 Y6.9 Z255 F3.00 
G01 X31.1 Y6.8 Z255 F3.00 
G01 X31.0 Y6.7 Z255 F3.00 
G01 X30.9 Y6.5 Z255 F3.00 
G01 X30.8 Y6.1 Z255 F3.00 
G01 X30.7 Y6.1 Z255 F3.00 
G01 X30.6 Y6.2 Z255 F3.00 
G01 X30.6 Y6.4 Z255 F3.00 
G01 X30.6 Y6.4 Z255 F3.00 
G00 X30.3 Y6.5 Z0 F50.00 

G01 X30.2 Y6.3 Z255 F3.00 
G01 X30.1 Y6.2 Z255 F3.00 
G01 X30.0 Y6.1 Z255 F3.00 
G00 X30.4 Y5.5 Z0 F50.00 

G01 X30.5 Y5.4 Z255 F3.00 
G01 X30.7 Y5.3 Z255 F3.00 
G01 X30.8 Y5.4 Z255 F3.00 
G01 X30.8 Y5.5 Z255 F3.00 
G01 X30.9 Y5.6 Z255 F3.00 
G01 X30.9 Y5.8 Z255 F3.00 
G01 X30.8 Y5.7 Z255 F3.00 
G01 X30.6 Y5.6 Z255 F3.00 
G01 X30.6 Y5.6 Z255 F3.00 
G00 X32.0 Y5.9 Z0 F50.00 

G01 X32.1 Y5.8 Z255 F3.00 
G01 X32.0 Y5.7 Z255 F3.00 
G01 X32.0 Y5.7 Z255 F3.00 
G00 X32.7 Y5.6 Z0 F50.00 

G01 X32.9 Y5.7 Z255 F3.00 
G01 X33.1 Y5.6 Z255 F3.00 
G01 X33.2 Y5.6 Z255 F3.00 
G01 X33.3 Y5.5 Z255 F3.00 
G01 X33.5 Y5.1 Z255 F3.00 
G01 X33.4 Y4.8 Z255 F3.00 
G01 X33.3 Y4.7 Z255 F3.00 
G01 X33.4 Y4.6 Z255 F3.00 
G01 X33.3 Y4.5 Z255 F3.00 
G01 X33.1 Y4.2 Z255 F3.00 
G01 X33.0 Y4.1 Z255 F3.00 
G01 X32.9 Y3.9 Z255 F3.00 
G01 X33.0 Y3.8 Z255 F3.00 
G01 X33.0 Y3.6 Z255 F3.00 
G01 X33.1 Y3.5 Z255 F3.00 
G01 X33.2 Y3.5 Z255 F3.00 
G01 X33.3 Y3.6 Z255 F3.00 
G01 X33.4 Y3.5 Z255 F3.00 
G01 X33.5 Y3.5 Z255 F3.00 
G01 X33.4 Y3.6 Z255 F3.00 
G01 X33.3 Y3.5 Z255 F3.00 
G01 X33.3 Y3.5 Z255 F3.00 
G00 X32.8 Y3.6 Z0 F50.00 

G01 X32.7 Y3.7 Z255 F3.00 
G01 X32.6 Y3.6 Z255 F3.00 
G01 X32.6 Y3.5 Z255 F3.00 
G01 X32.7 Y3.4 Z255 F3.00 
G01 X32.9 Y3.3 Z255 F3.00 
G01 X33.0 Y3.2 Z255 F3.00 
G01 X33.1 Y3.2 Z255 F3.00 
G01 X33.0 Y3.1 Z255 F3.00 
G01 X33.1 Y3.0 Z255 F3.00 
G01 X33.2 Y2.8 Z255 F3.00 
G01 X33.3 Y2.7 Z255 F3.00 
G01 X33.3 Y2.6 Z255 F3.00 
G01 X33.4 Y2.5 Z255 F3.00 
G01 X33.6 Y2.4 Z255 F3.00 
G01 X34.0 Y2.3 Z255 F3.00 
G01 X34.3 Y2.1 Z255 F3.00 
G01 X34.4 Y2.0 Z255 F3.00 
G01 X34.5 Y2.0 Z255 F3.00 
G01 X34.6 Y1.9 Z255 F3.00 
G01 X34.6 Y1.7 Z255 F3.00 
G01 X34.6 Y1.6 Z255 F3.00 
G01 X34.7 Y1.5 Z255 F3.00 
G01 X34.6 Y1.5 Z255 F3.00 
G01 X34.5 Y1.4 Z255 F3.00 
G01 X34.6 Y1.3 Z255 F3.00 
G01 X34.5 Y1.2 Z255 F3.00 
G01 X34.6 Y1.2 Z255 F3.00 
G01 X34.6 Y1.2 Z255 F3.00 
G00 X34.3 Y1.1 Z0 F50.00 

G01 X34.2 Y1.2 Z255 F3.00 
G01 X34.1 Y1.2 Z255 F3.00 
G01 X34.0 Y1.3 Z255 F3.00 
G01 X33.9 Y1.3 Z255 F3.00 
G01 X33.5 Y1.4 Z255 F3.00 
G01 X33.6 Y1.5 Z255 F3.00 
G01 X33.5 Y1.6 Z255 F3.00 
G01 X33.4 Y1.5 Z255 F3.00 
G01 X33.4 Y1.3 Z255 F3.00 
G01 X33.5 Y1.3 Z255 F3.00 
G01 X33.5 Y1.3 Z255 F3.00 
G00 X33.4 Y1.0 Z0 F50.00 

G01 X33.3 Y0.9 Z255 F3.00 
G01 X33.1 Y0.9 Z255 F3.00 
G01 X33.0 Y0.9 Z255 F3.00 
G01 X32.9 Y1.0 Z255 F3.00 
G01 X33.0 Y1.1 Z255 F3.00 
G01 X32.9 Y1.2 Z255 F3.00 
G01 X32.8 Y1.2 Z255 F3.00 
G01 X32.8 Y1.2 Z255 F3.00 
G00 X32.9 Y0.8 Z0 F50.00 

G01 X32.9 Y0.6 Z255 F3.00 
G01 X32.9 Y0.5 Z255 F3.00 
G01 X32.8 Y0.4 Z255 F3.00 
G01 X32.7 Y0.5 Z255 F3.00 
G01 X32.5 Y0.8 Z255 F3.00 
G01 X32.5 Y0.8 Z255 F3.00 
G00 X32.5 Y0.5 Z0 F50.00 

G01 X32.6 Y0.3 Z255 F3.00 
G01 X32.8 Y0.2 Z255 F3.00 
G01 X32.9 Y0.1 Z255 F3.00 
G01 X33.1 Y0.1 Z255 F3.00 
G01 X33.2 Y0.0 Z255 F3.00 
G01 X33.2 Y0.0 Z255 F3.00 
G00 X32.2 Y0.1 Z0 F50.00 

G01 X32.3 Y0.2 Z255 F3.00 
G01 X32.2 Y0.3 Z255 F3.00 
G01 X32.2 Y0.2 Z255 F3.00 
G01 X32.3 Y0.1 Z255 F3.00 
G01 X32.2 Y0.0 Z255 F3.00 
G01 X32.2 Y0.0 Z255 F3.00 
G00 X32.0 Y0.5 Z0 F50.00 

G01 X32.1 Y0.6 Z255 F3.00 
G01 X32.1 Y0.7 Z255 F3.00 
G01 X32.0 Y0.8 Z255 F3.00 
G01 X32.0 Y1.0 Z255 F3.00 
G01 X32.1 Y1.0 Z255 F3.00 
G01 X32.2 Y1.1 Z255 F3.00 
G01 X32.1 Y1.2 Z255 F3.00 
G01 X32.0 Y1.1 Z255 F3.00 
G01 X32.0 Y1.2 Z255 F3.00 
G01 X32.1 Y1.3 Z255 F3.00 
G01 X32.0 Y1.4 Z255 F3.00 
G01 X31.9 Y1.4 Z255 F3.00 
G01 X31.8 Y1.3 Z255 F3.00 
G01 X31.7 Y1.4 Z255 F3.00 
G01 X31.6 Y1.3 Z255 F3.00 
G01 X31.7 Y1.2 Z255 F3.00 
G01 X31.7 Y1.0 Z255 F3.00 
G01 X31.8 Y1.0 Z255 F3.00 
G01 X31.7 Y1.1 Z255 F3.00 
G01 X31.8 Y1.2 Z255 F3.00 
G01 X31.9 Y1.3 Z255 F3.00 
G00 X31.6 Y1.6 Z0 F50.00 

G01 X31.7 Y1.7 Z255 F3.00 
G01 X31.7 Y1.9 Z255 F3.00 
G01 X31.8 Y2.0 Z255 F3.00 
G01 X31.9 Y2.0 Z255 F3.00 
G01 X32.0 Y1.9 Z255 F3.00 
G01 X32.0 Y1.9 Z255 F3.00 
G00 X31.7 Y1.8 Z0 F50.00 

G01 X31.8 Y1.7 Z255 F3.00 
G01 X31.8 Y1.7 Z255 F3.00 
G00 X31.5 Y1.6 Z0 F50.00 

G01 X31.4 Y1.7 Z255 F3.00 
G01 X31.3 Y1.7 Z255 F3.00 
G01 X31.4 Y1.8 Z255 F3.00 
G01 X31.4 Y1.9 Z255 F3.00 
G01 X31.5 Y2.0 Z255 F3.00 
G01 X31.5 Y2.1 Z255 F3.00 
G01 X31.6 Y2.2 Z255 F3.00 
G01 X31.6 Y2.3 Z255 F3.00 
G01 X31.7 Y2.5 Z255 F3.00 
G01 X31.8 Y2.7 Z255 F3.00 
G01 X31.9 Y2.8 Z255 F3.00 
G01 X32.1 Y2.8 Z255 F3.00 
G01 X32.2 Y2.6 Z255 F3.00 
G01 X32.1 Y2.5 Z255 F3.00 
G01 X32.2 Y2.4 Z255 F3.00 
G01 X32.2 Y2.3 Z255 F3.00 
G01 X32.3 Y2.1 Z255 F3.00 
G01 X32.5 Y2.0 Z255 F3.00 
G01 X32.7 Y2.1 Z255 F3.00 
G01 X32.7 Y2.3 Z255 F3.00 
G01 X32.6 Y2.2 Z255 F3.00 
G01 X32.6 Y2.2 Z255 F3.00 
G00 X32.8 Y1.8 Z0 F50.00 

G01 X32.9 Y1.8 Z255 F3.00 
G01 X33.0 Y1.7 Z255 F3.00 
G01 X33.0 Y1.6 Z255 F3.00 
G01 X33.1 Y1.5 Z255 F3.00 
G01 X33.1 Y1.4 Z255 F3.00 
G01 X33.1 Y1.4 Z255 F3.00 
G00 X33.2 Y1.1 Z0 F50.00 

G01 X33.2 Y1.1 Z255 F3.00 
G00 X33.4 Y0.7 Z0 F50.00 

G01 X33.5 Y0.8 Z255 F3.00 
G01 X33.8 Y1.0 Z255 F3.00 
G01 X34.2 Y0.9 Z255 F3.00 
G01 X34.3 Y1.0 Z255 F3.00 
G01 X34.2 Y1.0 Z255 F3.00 
G01 X34.3 Y0.9 Z255 F3.00 
G01 X34.6 Y0.8 Z255 F3.00 
G01 X34.5 Y0.8 Z255 F3.00 
G01 X34.4 Y0.7 Z255 F3.00 
G01 X34.3 Y0.5 Z255 F3.00 
G01 X34.3 Y0.4 Z255 F3.00 
G00 X34.2 Y0.0 Z0 F50.00 

G01 X34.2 Y0.0 Z255 F3.00 
G00 X33.9 Y0.2 Z0 F50.00 

G01 X33.9 Y0.3 Z255 F3.00 
G01 X34.0 Y0.8 Z255 F3.00 
G01 X34.1 Y0.8 Z255 F3.00 
G01 X34.1 Y0.8 Z255 F3.00 
G00 X33.5 Y1.0 Z0 F50.00 

G01 X33.5 Y1.0 Z255 F3.00 
G00 X32.4 Y1.4 Z0 F50.00 

G01 X32.5 Y1.5 Z255 F3.00 
G01 X32.4 Y1.6 Z255 F3.00 
G01 X32.3 Y1.6 Z255 F3.00 
G01 X32.4 Y1.7 Z255 F3.00 
G01 X32.4 Y1.7 Z255 F3.00 
G00 X32.5 Y1.4 Z0 F50.00 

G01 X32.5 Y1.4 Z255 F3.00 
G00 X31.7 Y0.8 Z0 F50.00 

G01 X31.7 Y0.9 Z255 F3.00 
G01 X31.7 Y0.9 Z255 F3.00 
G00 X31.9 Y0.5 Z0 F50.00 

G01 X31.9 Y0.5 Z255 F3.00 
G00 X31.4 Y1.1 Z0 F50.00 

G01 X31.4 Y1.1 Z255 F3.00 
G00 X31.5 Y1.4 Z0 F50.00 

G01 X31.4 Y1.5 Z255 F3.00 
G01 X31.4 Y1.6 Z255 F3.00 
G01 X31.4 Y1.6 Z255 F3.00 
G00 X31.1 Y1.6 Z0 F50.00 

G01 X31.0 Y1.7 Z255 F3.00 
G01 X30.9 Y1.7 Z255 F3.00 
G01 X30.5 Y1.6 Z255 F3.00 
G01 X30.3 Y1.5 Z255 F3.00 
G01 X30.4 Y1.4 Z255 F3.00 
G01 X30.4 Y1.4 Z255 F3.00 
G00 X30.1 Y1.3 Z0 F50.00 

G01 X30.2 Y1.3 Z255 F3.00 
G01 X30.2 Y1.3 Z255 F3.00 
G00 X29.9 Y1.4 Z0 F50.00 

G01 X29.7 Y1.5 Z255 F3.00 
G01 X29.6 Y1.6 Z255 F3.00 
G01 X29.5 Y1.6 Z255 F3.00 
G01 X29.4 Y1.7 Z255 F3.00 
G01 X29.1 Y1.9 Z255 F3.00 
G01 X29.0 Y2.0 Z255 F3.00 
G01 X28.8 Y2.1 Z255 F3.00 
G01 X28.7 Y2.2 Z255 F3.00 
G01 X28.6 Y2.2 Z255 F3.00 
G01 X28.2 Y2.3 Z255 F3.00 
G01 X28.1 Y2.3 Z255 F3.00 
G01 X28.0 Y2.4 Z255 F3.00 
G01 X27.9 Y2.4 Z255 F3.00 
G01 X27.8 Y2.5 Z255 F3.00 
G01 X27.7 Y2.5 Z255 F3.00 
G01 X27.5 Y2.4 Z255 F3.00 
G01 X27.4 Y2.1 Z255 F3.00 
G01 X27.5 Y1.9 Z255 F3.00 
G01 X27.6 Y2.0 Z255 F3.00 
G01 X27.5 Y2.1 Z255 F3.00 
G01 X27.4 Y2.2 Z255 F3.00 
G00 X27.1 Y2.4 Z0 F50.00 

G01 X27.2 Y2.5 Z255 F3.00 
G01 X27.2 Y2.6 Z255 F3.00 
G01 X27.1 Y2.9 Z255 F3.00 
G01 X27.0 Y3.1 Z255 F3.00 
G01 X26.9 Y3.2 Z255 F3.00 
G01 X26.9 Y3.3 Z255 F3.00 
G01 X26.8 Y3.4 Z255 F3.00 
G01 X26.8 Y3.5 Z255 F3.00 
G01 X26.7 Y3.6 Z255 F3.00 
G01 X26.6 Y3.6 Z255 F3.00 
G01 X26.5 Y3.7 Z255 F3.00 
G01 X26.5 Y3.8 Z255 F3.00 
G01 X26.4 Y3.9 Z255 F3.00 
G01 X26.2 Y4.0 Z255 F3.00 
G01 X26.1 Y4.1 Z255 F3.00 
G01 X26.0 Y4.1 Z255 F3.00 
G01 X25.9 Y4.0 Z255 F3.00 
G01 X25.9 Y3.9 Z255 F3.00 
G01 X26.0 Y3.3 Z255 F3.00 
G01 X26.0 Y3.2 Z255 F3.00 
G01 X26.1 Y3.1 Z255 F3.00 
G01 X26.2 Y3.1 Z255 F3.00 
G01 X26.3 Y3.0 Z255 F3.00 
G01 X26.3 Y2.9 Z255 F3.00 
G01 X26.2 Y2.8 Z255 F3.00 
G01 X26.1 Y2.8 Z255 F3.00 
G01 X26.0 Y2.7 Z255 F3.00 
G01 X25.8 Y2.7 Z255 F3.00 
G01 X25.6 Y2.8 Z255 F3.00 
G01 X25.5 Y2.9 Z255 F3.00 
G01 X25.4 Y3.1 Z255 F3.00 
G01 X25.3 Y3.2 Z255 F3.00 
G01 X25.3 Y3.3 Z255 F3.00 
G01 X25.4 Y3.4 Z255 F3.00 
G01 X25.4 Y3.5 Z255 F3.00 
G01 X25.5 Y3.9 Z255 F3.00 
G01 X25.5 Y4.0 Z255 F3.00 
G01 X25.6 Y4.2 Z255 F3.00 
G01 X25.6 Y4.3 Z255 F3.00 
G01 X25.7 Y4.7 Z255 F3.00 
G01 X25.8 Y4.6 Z255 F3.00 
G01 X26.0 Y4.5 Z255 F3.00 
G01 X26.3 Y4.4 Z255 F3.00 
G01 X26.5 Y4.3 Z255 F3.00 
G01 X26.9 Y4.2 Z255 F3.00 
G01 X27.0 Y4.2 Z255 F3.00 
G01 X27.1 Y4.1 Z255 F3.00 
G01 X27.4 Y3.7 Z255 F3.00 
G01 X27.5 Y3.6 Z255 F3.00 
G01 X27.7 Y3.3 Z255 F3.00 
G01 X27.8 Y3.2 Z255 F3.00 
G01 X28.1 Y3.0 Z255 F3.00 
G01 X28.2 Y2.9 Z255 F3.00 
G01 X28.4 Y2.8 Z255 F3.00 
G01 X28.5 Y2.7 Z255 F3.00 
G01 X28.6 Y2.7 Z255 F3.00 
G01 X28.7 Y2.6 Z255 F3.00 
G01 X28.8 Y2.6 Z255 F3.00 
G01 X29.0 Y2.5 Z255 F3.00 
G01 X29.1 Y2.5 Z255 F3.00 
G01 X29.2 Y2.4 Z255 F3.00 
G01 X29.3 Y2.5 Z255 F3.00 
G01 X29.5 Y2.5 Z255 F3.00 
G01 X29.6 Y2.5 Z255 F3.00 
G01 X29.7 Y2.4 Z255 F3.00 
G01 X29.8 Y2.4 Z255 F3.00 
G01 X30.1 Y2.3 Z255 F3.00 
G01 X30.0 Y2.2 Z255 F3.00 
G01 X29.9 Y2.2 Z255 F3.00 
G01 X29.5 Y2.3 Z255 F3.00 
G01 X29.4 Y2.3 Z255 F3.00 
G01 X29.3 Y2.3 Z255 F3.00 
G00 X29.2 Y2.7 Z0 F50.00 

G01 X29.1 Y2.8 Z255 F3.00 
G01 X28.6 Y3.2 Z255 F3.00 
G01 X28.5 Y3.3 Z255 F3.00 
G01 X28.4 Y3.3 Z255 F3.00 
G01 X28.2 Y3.4 Z255 F3.00 
G01 X28.0 Y3.5 Z255 F3.00 
G01 X28.1 Y3.6 Z255 F3.00 
G01 X28.3 Y3.7 Z255 F3.00 
G01 X28.5 Y3.8 Z255 F3.00 
G01 X28.5 Y3.9 Z255 F3.00 
G01 X28.6 Y4.0 Z255 F3.00 
G01 X28.5 Y4.1 Z255 F3.00 
G01 X28.6 Y4.1 Z255 F3.00 
G01 X28.7 Y4.2 Z255 F3.00 
G01 X28.7 Y4.3 Z255 F3.00 
G01 X28.8 Y4.5 Z255 F3.00 
G01 X28.8 Y4.6 Z255 F3.00 
G01 X28.9 Y4.7 Z255 F3.00 
G01 X29.0 Y4.7 Z255 F3.00 
G01 X29.1 Y4.6 Z255 F3.00 
G01 X29.0 Y4.5 Z255 F3.00 
G01 X29.1 Y4.5 Z255 F3.00 
G01 X29.2 Y4.6 Z255 F3.00 
G01 X29.3 Y4.6 Z255 F3.00 
G01 X29.4 Y4.7 Z255 F3.00 
G01 X29.4 Y4.7 Z255 F3.00 
G00 X29.5 Y4.3 Z0 F50.00 

G01 X29.4 Y4.2 Z255 F3.00 
G01 X29.4 Y4.1 Z255 F3.00 
G01 X29.3 Y4.0 Z255 F3.00 
G01 X29.4 Y3.9 Z255 F3.00 
G01 X29.3 Y3.8 Z255 F3.00 
G01 X28.9 Y3.5 Z255 F3.00 
G01 X28.7 Y3.6 Z255 F3.00 
G01 X28.6 Y3.6 Z255 F3.00 
G01 X28.5 Y3.7 Z255 F3.00 
G01 X28.5 Y3.7 Z255 F3.00 
G00 X28.5 Y4.3 Z0 F50.00 

G01 X28.4 Y4.5 Z255 F3.00 
G01 X28.3 Y4.5 Z255 F3.00 
G01 X28.2 Y4.4 Z255 F3.00 
G01 X28.1 Y4.2 Z255 F3.00 
G01 X28.0 Y4.1 Z255 F3.00 
G01 X27.9 Y4.2 Z255 F3.00 
G01 X27.7 Y4.3 Z255 F3.00 
G01 X27.6 Y4.4 Z255 F3.00 
G01 X27.6 Y4.5 Z255 F3.00 
G01 X27.5 Y4.6 Z255 F3.00 
G01 X27.3 Y4.7 Z255 F3.00 
G01 X27.2 Y4.8 Z255 F3.00 
G01 X27.3 Y4.9 Z255 F3.00 
G01 X27.2 Y5.0 Z255 F3.00 
G01 X27.1 Y4.9 Z255 F3.00 
G01 X27.0 Y5.0 Z255 F3.00 
G01 X26.8 Y5.0 Z255 F3.00 
G01 X26.9 Y5.0 Z255 F3.00 
G01 X27.0 Y5.1 Z255 F3.00 
G01 X27.0 Y5.1 Z255 F3.00 
G00 X27.1 Y4.8 Z0 F50.00 

G01 X27.1 Y4.8 Z255 F3.00 
G00 X27.5 Y4.9 Z0 F50.00 

G01 X27.7 Y4.8 Z255 F3.00 
G01 X27.8 Y4.9 Z255 F3.00 
G01 X27.9 Y4.8 Z255 F3.00 
G01 X28.1 Y4.7 Z255 F3.00 
G01 X28.2 Y4.8 Z255 F3.00 
G01 X28.1 Y4.9 Z255 F3.00 
G01 X27.9 Y4.9 Z255 F3.00 
G01 X27.8 Y5.0 Z255 F3.00 
G01 X27.6 Y5.1 Z255 F3.00 
G01 X27.5 Y5.2 Z255 F3.00 
G01 X27.5 Y5.3 Z255 F3.00 
G01 X27.6 Y5.4 Z255 F3.00 
G01 X27.7 Y5.4 Z255 F3.00 
G01 X27.8 Y5.5 Z255 F3.00 
G01 X27.9 Y5.5 Z255 F3.00 
G01 X28.1 Y5.6 Z255 F3.00 
G01 X28.1 Y5.7 Z255 F3.00 
G01 X28.1 Y5.7 Z255 F3.00 
G00 X27.2 Y5.3 Z0 F50.00 

G01 X27.1 Y5.3 Z255 F3.00 
G00 X25.6 Y5.2 Z0 F50.00 

G01 X25.7 Y5.3 Z255 F3.00 
G01 X25.6 Y5.4 Z255 F3.00 
G01 X25.5 Y5.3 Z255 F3.00 
G01 X25.5 Y5.3 Z255 F3.00 
G00 X25.7 Y5.2 Z0 F50.00 

G01 X25.7 Y5.2 Z255 F3.00 
G00 X25.7 Y6.8 Z0 F50.00 

G01 X25.7 Y6.7 Z255 F3.00 
G01 X25.7 Y6.7 Z255 F3.00 
G00 X25.1 Y7.2 Z0 F50.00 

G01 X24.8 Y7.5 Z255 F3.00 
G00 X25.2 Y8.0 Z0 F50.00 

G01 X25.3 Y7.9 Z255 F3.00 
G01 X25.4 Y8.0 Z255 F3.00 
G01 X25.5 Y7.9 Z255 F3.00 
G01 X25.5 Y7.7 Z255 F3.00 
G01 X25.4 Y7.8 Z255 F3.00 
G01 X25.4 Y7.8 Z255 F3.00 
G00 X25.0 Y8.0 Z0 F50.00 

G01 X25.0 Y8.1 Z255 F3.00 
G01 X25.1 Y8.2 Z255 F3.00 
G01 X25.0 Y8.3 Z255 F3.00 
G01 X24.9 Y8.2 Z255 F3.00 
G01 X24.7 Y8.2 Z255 F3.00 
G01 X24.3 Y8.7 Z255 F3.00 
G01 X24.2 Y8.8 Z255 F3.00 
G01 X24.1 Y9.0 Z255 F3.00 
G01 X24.0 Y9.1 Z255 F3.00 
G01 X23.9 Y9.3 Z255 F3.00 
G01 X23.8 Y9.4 Z255 F3.00 
G01 X23.5 Y9.8 Z255 F3.00 
G01 X23.4 Y9.9 Z255 F3.00 
G01 X23.2 Y10.2 Z255 F3.00 
G01 X23.1 Y10.3 Z255 F3.00 
G01 X21.5 Y11.7 Z255 F3.00 
G01 X21.6 Y11.6 Z255 F3.00 
G01 X21.6 Y11.5 Z255 F3.00 
G01 X21.7 Y11.4 Z255 F3.00 
G01 X21.8 Y11.2 Z255 F3.00 
G01 X21.9 Y11.1 Z255 F3.00 
G01 X22.8 Y10.0 Z255 F3.00 
G01 X22.7 Y10.1 Z255 F3.00 
G01 X21.6 Y11.1 Z255 F3.00 
G01 X21.5 Y11.0 Z255 F3.00 
G01 X21.5 Y10.9 Z255 F3.00 
G01 X21.4 Y10.7 Z255 F3.00 
G01 X21.4 Y10.6 Z255 F3.00 
G01 X21.3 Y10.3 Z255 F3.00 
G01 X21.3 Y10.2 Z255 F3.00 
G01 X21.2 Y9.9 Z255 F3.00 
G01 X21.2 Y9.8 Z255 F3.00 
G01 X21.3 Y9.5 Z255 F3.00 
G01 X21.4 Y9.6 Z255 F3.00 
G01 X21.4 Y9.7 Z255 F3.00 
G01 X21.5 Y9.8 Z255 F3.00 
G01 X21.6 Y9.7 Z255 F3.00 
G01 X21.7 Y9.4 Z255 F3.00 
G01 X21.6 Y9.5 Z255 F3.00 
G01 X21.6 Y9.6 Z255 F3.00 
G01 X21.6 Y9.6 Z255 F3.00 
G00 X21.4 Y9.4 Z0 F50.00 

G01 X21.5 Y9.3 Z255 F3.00 
G01 X21.6 Y9.3 Z255 F3.00 
G01 X21.6 Y9.3 Z255 F3.00 
G00 X22.1 Y8.8 Z0 F50.00 

G01 X22.0 Y8.7 Z255 F3.00 
G01 X21.9 Y8.8 Z255 F3.00 
G01 X21.9 Y8.8 Z255 F3.00 
G00 X22.3 Y8.6 Z0 F50.00 

G01 X22.3 Y8.6 Z255 F3.00 
G00 X22.0 Y8.1 Z0 F50.00 

G01 X22.1 Y8.0 Z255 F3.00 
G01 X22.2 Y8.0 Z255 F3.00 
G01 X22.2 Y8.0 Z255 F3.00 
G00 X21.4 Y7.9 Z0 F50.00 

G01 X21.3 Y7.8 Z255 F3.00 
G01 X21.2 Y7.9 Z255 F3.00 
G01 X21.1 Y7.8 Z255 F3.00 
G01 X21.2 Y7.8 Z255 F3.00 
G01 X21.3 Y7.9 Z255 F3.00 
G01 X21.3 Y7.9 Z255 F3.00 
G00 X20.9 Y7.8 Z0 F50.00 

G01 X20.5 Y7.7 Z255 F3.00 
G01 X20.6 Y7.6 Z255 F3.00 
G01 X20.7 Y7.6 Z255 F3.00 
G01 X20.7 Y7.6 Z255 F3.00 
G00 X20.4 Y7.7 Z0 F50.00 

G01 X20.3 Y7.8 Z255 F3.00 
G01 X20.4 Y7.8 Z255 F3.00 
G01 X20.4 Y7.8 Z255 F3.00 
G00 X22.2 Y6.8 Z0 F50.00 

G01 X22.3 Y6.9 Z255 F3.00 
G01 X22.4 Y6.8 Z255 F3.00 
G01 X22.5 Y6.8 Z255 F3.00 
G01 X22.5 Y6.8 Z255 F3.00 
G00 X22.8 Y7.1 Z0 F50.00 

G01 X23.0 Y7.1 Z255 F3.00 
G01 X23.1 Y7.1 Z255 F3.00 
G01 X23.2 Y7.0 Z255 F3.00 
G01 X23.3 Y7.0 Z255 F3.00 
G01 X23.4 Y6.9 Z255 F3.00 
G01 X23.5 Y7.0 Z255 F3.00 
G01 X23.5 Y7.1 Z255 F3.00 
G01 X23.4 Y7.2 Z255 F3.00 
G01 X23.5 Y7.3 Z255 F3.00 
G01 X23.5 Y7.4 Z255 F3.00 
G01 X23.4 Y7.7 Z255 F3.00 
G01 X23.3 Y7.7 Z255 F3.00 
G01 X23.2 Y7.6 Z255 F3.00 
G01 X23.3 Y7.5 Z255 F3.00 
G01 X23.2 Y7.4 Z255 F3.00 
G01 X23.1 Y7.4 Z255 F3.00 
G01 X22.8 Y7.5 Z255 F3.00 
G01 X22.9 Y7.6 Z255 F3.00 
G01 X23.1 Y7.6 Z255 F3.00 
G01 X23.2 Y7.7 Z255 F3.00 
G01 X23.1 Y7.7 Z255 F3.00 
G01 X23.0 Y7.6 Z255 F3.00 
G01 X22.9 Y7.7 Z255 F3.00 
G01 X22.8 Y7.7 Z255 F3.00 
G01 X22.7 Y7.6 Z255 F3.00 
G01 X22.6 Y7.3 Z255 F3.00 
G01 X22.7 Y7.3 Z255 F3.00 
G01 X22.8 Y7.2 Z255 F3.00 
G01 X22.7 Y7.1 Z255 F3.00 
G01 X22.8 Y7.0 Z255 F3.00 
G01 X22.8 Y7.0 Z255 F3.00 
G00 X23.1 Y6.7 Z0 F50.00 

G01 X23.0 Y6.7 Z255 F3.00 
G01 X23.1 Y6.8 Z255 F3.00 
G01 X23.2 Y6.9 Z255 F3.00 
G00 X22.0 Y7.0 Z0 F50.00 

G01 X22.0 Y7.0 Z255 F3.00 
G00 X23.4 Y8.9 Z0 F50.00 

G01 X23.4 Y8.9 Z255 F3.00 
G00 X23.5 Y9.1 Z0 F50.00 

G01 X23.4 Y9.2 Z255 F3.00 
G00 X23.3 Y9.6 Z0 F50.00 

G01 X23.2 Y9.7 Z255 F3.00 
G01 X22.8 Y9.9 Z255 F3.00 
G01 X22.9 Y9.8 Z255 F3.00 
G01 X22.8 Y9.7 Z255 F3.00 
G01 X22.7 Y9.8 Z255 F3.00 
G01 X22.5 Y10.2 Z255 F3.00 
G01 X22.4 Y10.2 Z255 F3.00 
G01 X22.3 Y10.3 Z255 F3.00 
G01 X22.1 Y10.4 Z255 F3.00 
G01 X22.2 Y10.5 Z255 F3.00 
G01 X22.2 Y10.5 Z255 F3.00 
G00 X21.9 Y10.5 Z0 F50.00 

G01 X22.0 Y10.6 Z255 F3.00 
G01 X22.0 Y10.6 Z255 F3.00 
G00 X21.7 Y10.6 Z0 F50.00 

G01 X21.7 Y10.5 Z255 F3.00 
G01 X21.8 Y10.4 Z255 F3.00 
G01 X21.8 Y10.2 Z255 F3.00 
G01 X21.7 Y10.2 Z255 F3.00 
G01 X21.6 Y10.1 Z255 F3.00 
G01 X21.6 Y10.2 Z255 F3.00 
G01 X21.6 Y10.2 Z255 F3.00 
G00 X21.5 Y9.9 Z0 F50.00 

G01 X21.5 Y9.9 Z255 F3.00 
G00 X22.7 Y11.5 Z0 F50.00 

G01 X22.9 Y11.5 Z255 F3.00 
G01 X23.0 Y11.4 Z255 F3.00 
G01 X23.1 Y11.5 Z255 F3.00 
G01 X23.1 Y11.6 Z255 F3.00 
G01 X23.2 Y11.7 Z255 F3.00 
G01 X23.2 Y11.8 Z255 F3.00 
G01 X23.1 Y11.9 Z255 F3.00 
G01 X23.2 Y12.0 Z255 F3.00 
G01 X23.3 Y12.3 Z255 F3.00 
G01 X23.4 Y12.4 Z255 F3.00 
G01 X23.4 Y12.6 Z255 F3.00 
G01 X23.3 Y12.6 Z255 F3.00 
G01 X23.2 Y12.7 Z255 F3.00 
G01 X23.1 Y12.6 Z255 F3.00 
G01 X23.1 Y12.4 Z255 F3.00 
G01 X23.2 Y12.2 Z255 F3.00 
G01 X23.1 Y12.1 Z255 F3.00 
G01 X23.0 Y11.8 Z255 F3.00 
G01 X23.0 Y11.7 Z255 F3.00 
G01 X22.9 Y11.6 Z255 F3.00 
G01 X22.9 Y11.6 Z255 F3.00 
G00 X22.8 Y11.9 Z0 F50.00 

G01 X22.8 Y11.9 Z255 F3.00 
G00 X22.5 Y11.8 Z0 F50.00 

G01 X22.3 Y12.1 Z255 F3.00 
G01 X22.2 Y12.2 Z255 F3.00 
G01 X22.2 Y12.3 Z255 F3.00 
G01 X22.1 Y12.4 Z255 F3.00 
G01 X22.0 Y12.6 Z255 F3.00 
G01 X22.1 Y12.7 Z255 F3.00 
G01 X22.1 Y12.8 Z255 F3.00 
G01 X22.2 Y13.0 Z255 F3.00 
G01 X22.2 Y13.1 Z255 F3.00 
G01 X22.3 Y13.5 Z255 F3.00 
G01 X22.3 Y13.6 Z255 F3.00 
G01 X22.4 Y13.7 Z255 F3.00 
G01 X22.5 Y13.6 Z255 F3.00 
G01 X22.6 Y13.6 Z255 F3.00 
G01 X22.5 Y13.5 Z255 F3.00 
G01 X22.5 Y13.5 Z255 F3.00 
G00 X22.8 Y13.6 Z0 F50.00 

G01 X22.9 Y13.7 Z255 F3.00 
G01 X23.3 Y14.0 Z255 F3.00 
G01 X23.4 Y14.1 Z255 F3.00 
G01 X23.4 Y14.2 Z255 F3.00 
G01 X23.5 Y14.3 Z255 F3.00 
G01 X23.6 Y14.5 Z255 F3.00 
G01 X23.7 Y14.6 Z255 F3.00 
G01 X23.7 Y14.7 Z255 F3.00 
G01 X23.8 Y14.8 Z255 F3.00 
G01 X23.8 Y14.9 Z255 F3.00 
G01 X23.7 Y15.2 Z255 F3.00 
G01 X23.7 Y15.3 Z255 F3.00 
G01 X23.6 Y15.4 Z255 F3.00 
G01 X23.6 Y15.5 Z255 F3.00 
G01 X23.5 Y15.6 Z255 F3.00 
G01 X23.3 Y15.9 Z255 F3.00 
G01 X23.4 Y16.0 Z255 F3.00 
G01 X23.5 Y15.9 Z255 F3.00 
G01 X23.6 Y15.9 Z255 F3.00 
G01 X23.8 Y15.8 Z255 F3.00 
G01 X23.9 Y15.6 Z255 F3.00 
G01 X24.0 Y15.5 Z255 F3.00 
G01 X24.0 Y15.4 Z255 F3.00 
G01 X24.1 Y15.3 Z255 F3.00 
G01 X24.2 Y15.4 Z255 F3.00 
G01 X24.3 Y15.3 Z255 F3.00 
G01 X24.3 Y15.2 Z255 F3.00 
G01 X24.2 Y15.1 Z255 F3.00 
G01 X24.3 Y15.0 Z255 F3.00 
G01 X24.3 Y15.1 Z255 F3.00 
G01 X24.3 Y15.1 Z255 F3.00 
G00 X24.4 Y14.8 Z0 F50.00 

G01 X24.3 Y14.8 Z255 F3.00 
G01 X24.3 Y14.8 Z255 F3.00 
G00 X24.2 Y15.6 Z0 F50.00 

G01 X24.1 Y16.0 Z255 F3.00 
G01 X24.2 Y16.1 Z255 F3.00 
G01 X24.3 Y16.3 Z255 F3.00 
G01 X24.4 Y16.4 Z255 F3.00 
G01 X24.6 Y16.5 Z255 F3.00 
G01 X24.7 Y16.6 Z255 F3.00 
G01 X24.8 Y16.5 Z255 F3.00 
G01 X24.7 Y16.4 Z255 F3.00 
G01 X24.8 Y16.4 Z255 F3.00 
G01 X24.9 Y16.3 Z255 F3.00 
G01 X25.0 Y16.4 Z255 F3.00 
G01 X25.1 Y16.4 Z255 F3.00 
G01 X25.4 Y16.3 Z255 F3.00 
G01 X25.5 Y16.4 Z255 F3.00 
G01 X25.9 Y16.7 Z255 F3.00 
G01 X26.0 Y16.6 Z255 F3.00 
G01 X25.9 Y16.5 Z255 F3.00 
G01 X25.8 Y16.6 Z255 F3.00 
G01 X25.5 Y16.8 Z255 F3.00 
G01 X25.6 Y16.7 Z255 F3.00 
G01 X25.6 Y16.7 Z255 F3.00 
G00 X25.3 Y16.8 Z0 F50.00 

G01 X25.2 Y17.1 Z255 F3.00 
G01 X25.3 Y17.1 Z255 F3.00 
G01 X25.4 Y17.2 Z255 F3.00 
G01 X25.5 Y17.2 Z255 F3.00 
G01 X25.6 Y17.1 Z255 F3.00 
G01 X25.7 Y17.1 Z255 F3.00 
G01 X25.9 Y17.0 Z255 F3.00 
G01 X26.0 Y17.0 Z255 F3.00 
G01 X26.1 Y17.1 Z255 F3.00 
G01 X26.0 Y17.2 Z255 F3.00 
G01 X26.0 Y17.3 Z255 F3.00 
G01 X26.1 Y17.4 Z255 F3.00 
G01 X26.2 Y17.6 Z255 F3.00 
G01 X26.3 Y17.7 Z255 F3.00 
G01 X26.5 Y17.8 Z255 F3.00 
G01 X26.6 Y17.9 Z255 F3.00 
G01 X26.7 Y18.1 Z255 F3.00 
G01 X26.8 Y18.2 Z255 F3.00 
G01 X26.9 Y18.2 Z255 F3.00 
G01 X27.0 Y18.1 Z255 F3.00 
G01 X26.9 Y18.0 Z255 F3.00 
G01 X27.0 Y18.0 Z255 F3.00 
G01 X27.1 Y18.1 Z255 F3.00 
G01 X27.2 Y18.0 Z255 F3.00 
G01 X27.3 Y18.1 Z255 F3.00 
G01 X27.4 Y18.0 Z255 F3.00 
G01 X27.5 Y18.1 Z255 F3.00 
G01 X27.5 Y18.2 Z255 F3.00 
G01 X27.4 Y18.3 Z255 F3.00 
G01 X27.3 Y18.2 Z255 F3.00 
G01 X27.3 Y18.2 Z255 F3.00 
G00 X27.2 Y17.8 Z0 F50.00 

G01 X27.2 Y17.8 Z255 F3.00 
G00 X27.5 Y17.7 Z0 F50.00 

G01 X27.5 Y17.6 Z255 F3.00 
G01 X27.6 Y17.5 Z255 F3.00 
G01 X28.3 Y17.0 Z255 F3.00 
G01 X28.4 Y16.9 Z255 F3.00 
G01 X28.4 Y16.8 Z255 F3.00 
G01 X28.3 Y16.8 Z255 F3.00 
G00 X27.8 Y16.8 Z0 F50.00 

G01 X27.8 Y16.8 Z255 F3.00 
G00 X28.3 Y17.1 Z0 F50.00 

G01 X28.3 Y17.1 Z255 F3.00 
G00 X28.1 Y17.4 Z0 F50.00 

G01 X28.1 Y17.5 Z255 F3.00 
G01 X28.0 Y17.6 Z255 F3.00 
G01 X28.0 Y17.7 Z255 F3.00 
G01 X27.9 Y17.8 Z255 F3.00 
G01 X27.9 Y17.9 Z255 F3.00 
G01 X27.8 Y18.1 Z255 F3.00 
G01 X27.8 Y18.2 Z255 F3.00 
G01 X27.7 Y18.3 Z255 F3.00 
G01 X27.7 Y18.4 Z255 F3.00 
G01 X27.8 Y18.8 Z255 F3.00 
G01 X27.9 Y18.8 Z255 F3.00 
G01 X28.0 Y18.9 Z255 F3.00 
G01 X28.1 Y18.8 Z255 F3.00 
G01 X28.1 Y18.7 Z255 F3.00 
G01 X28.0 Y18.8 Z255 F3.00 
G01 X28.0 Y18.8 Z255 F3.00 
G00 X28.0 Y19.1 Z0 F50.00 

G01 X28.2 Y19.2 Z255 F3.00 
G01 X28.3 Y19.1 Z255 F3.00 
G01 X28.4 Y19.2 Z255 F3.00 
G01 X28.5 Y19.1 Z255 F3.00 
G01 X28.4 Y19.0 Z255 F3.00 
G01 X28.5 Y18.9 Z255 F3.00 
G01 X28.6 Y18.9 Z255 F3.00 
G01 X28.7 Y18.8 Z255 F3.00 
G01 X28.6 Y18.7 Z255 F3.00 
G01 X28.5 Y18.8 Z255 F3.00 
G01 X28.5 Y18.8 Z255 F3.00 
G00 X28.4 Y19.5 Z0 F50.00 

G01 X28.5 Y19.4 Z255 F3.00 
G01 X28.6 Y19.5 Z255 F3.00 
G01 X28.7 Y19.5 Z255 F3.00 
G01 X28.8 Y19.6 Z255 F3.00 
G01 X28.7 Y19.7 Z255 F3.00 
G01 X28.6 Y19.6 Z255 F3.00 
G01 X28.5 Y19.7 Z255 F3.00 
G01 X28.4 Y19.6 Z255 F3.00 
G01 X28.4 Y19.6 Z255 F3.00 
G00 X28.1 Y19.5 Z0 F50.00 

G01 X28.0 Y19.5 Z255 F3.00 
G01 X27.7 Y19.6 Z255 F3.00 
G01 X27.6 Y19.6 Z255 F3.00 
G01 X27.4 Y19.7 Z255 F3.00 
G01 X27.2 Y19.8 Z255 F3.00 
G01 X26.9 Y19.7 Z255 F3.00 
G01 X26.8 Y19.7 Z255 F3.00 
G01 X26.5 Y19.6 Z255 F3.00 
G01 X26.6 Y19.5 Z255 F3.00 
G01 X26.7 Y19.5 Z255 F3.00 
G01 X27.2 Y19.4 Z255 F3.00 
G01 X27.3 Y19.4 Z255 F3.00 
G01 X27.6 Y19.3 Z255 F3.00 
G01 X27.5 Y19.2 Z255 F3.00 
G01 X27.4 Y19.2 Z255 F3.00 
G01 X27.3 Y19.1 Z255 F3.00 
G01 X27.2 Y19.1 Z255 F3.00 
G01 X27.1 Y19.0 Z255 F3.00 
G01 X27.0 Y19.0 Z255 F3.00 
G01 X26.9 Y18.9 Z255 F3.00 
G01 X27.0 Y18.8 Z255 F3.00 
G01 X26.9 Y18.7 Z255 F3.00 
G01 X26.8 Y18.7 Z255 F3.00 
G01 X26.5 Y18.8 Z255 F3.00 
G01 X26.6 Y18.9 Z255 F3.00 
G01 X26.7 Y18.9 Z255 F3.00 
G01 X26.8 Y18.9 Z255 F3.00 
G00 X27.2 Y18.8 Z0 F50.00 

G01 X27.3 Y18.9 Z255 F3.00 
G01 X27.4 Y18.9 Z255 F3.00 
G01 X27.5 Y19.0 Z255 F3.00 
G01 X27.6 Y19.0 Z255 F3.00 
G01 X27.8 Y19.1 Z255 F3.00 
G01 X28.0 Y19.2 Z255 F3.00 
G01 X28.0 Y19.2 Z255 F3.00 
G00 X27.4 Y20.0 Z0 F50.00 

G01 X27.5 Y20.1 Z255 F3.00 
G01 X27.6 Y20.1 Z255 F3.00 
G01 X27.7 Y20.2 Z255 F3.00 
G01 X27.8 Y20.2 Z255 F3.00 
G01 X27.9 Y20.3 Z255 F3.00 
G01 X28.2 Y20.5 Z255 F3.00 
G01 X28.3 Y20.6 Z255 F3.00 
G01 X28.7 Y20.8 Z255 F3.00 
G01 X28.8 Y20.9 Z255 F3.00 
G01 X29.0 Y21.2 Z255 F3.00 
G01 X29.1 Y21.4 Z255 F3.00 
G01 X29.1 Y21.5 Z255 F3.00 
G01 X29.0 Y21.9 Z255 F3.00 
G01 X28.9 Y21.8 Z255 F3.00 
G01 X28.9 Y21.7 Z255 F3.00 
G01 X28.8 Y21.4 Z255 F3.00 
G01 X28.8 Y21.3 Z255 F3.00 
G01 X28.7 Y21.2 Z255 F3.00 
G01 X28.7 Y21.1 Z255 F3.00 
G01 X28.6 Y21.0 Z255 F3.00 
G01 X28.7 Y20.9 Z255 F3.00 
G01 X29.0 Y20.4 Z255 F3.00 
G01 X28.9 Y20.5 Z255 F3.00 
G01 X28.8 Y20.5 Z255 F3.00 
G01 X28.5 Y20.4 Z255 F3.00 
G01 X28.4 Y20.4 Z255 F3.00 
G01 X28.3 Y20.3 Z255 F3.00 
G01 X27.9 Y20.0 Z255 F3.00 
G01 X27.8 Y19.9 Z255 F3.00 
G01 X27.7 Y19.9 Z255 F3.00 
G01 X27.6 Y19.9 Z255 F3.00 
G00 X28.7 Y19.3 Z0 F50.00 

G01 X28.9 Y19.3 Z255 F3.00 
G01 X29.0 Y19.2 Z255 F3.00 
G01 X28.9 Y19.1 Z255 F3.00 
G01 X29.0 Y19.0 Z255 F3.00 
G01 X28.9 Y19.0 Z255 F3.00 
G01 X29.0 Y18.9 Z255 F3.00 
G01 X29.0 Y18.9 Z255 F3.00 
G00 X29.1 Y18.6 Z0 F50.00 

G01 X29.1 Y18.6 Z255 F3.00 
G00 X29.3 Y18.7 Z0 F50.00 

G01 X29.4 Y19.1 Z255 F3.00 
G01 X29.3 Y19.2 Z255 F3.00 
G01 X29.4 Y19.3 Z255 F3.00 
G01 X29.5 Y19.3 Z255 F3.00 
G01 X29.4 Y19.4 Z255 F3.00 
G01 X29.2 Y19.4 Z255 F3.00 
G01 X29.2 Y19.3 Z255 F3.00 
G01 X29.1 Y19.2 Z255 F3.00 
G01 X29.2 Y19.1 Z255 F3.00 
G01 X29.2 Y19.1 Z255 F3.00 
G00 X29.6 Y19.1 Z0 F50.00 

G01 X29.7 Y19.2 Z255 F3.00 
G01 X29.8 Y19.1 Z255 F3.00 
G01 X29.9 Y19.1 Z255 F3.00 
G01 X30.0 Y19.2 Z255 F3.00 
G01 X30.0 Y19.3 Z255 F3.00 
G01 X29.9 Y19.4 Z255 F3.00 
G01 X29.8 Y19.4 Z255 F3.00 
G01 X29.7 Y19.3 Z255 F3.00 
G01 X29.6 Y19.3 Z255 F3.00 
G01 X29.6 Y19.3 Z255 F3.00 
G00 X29.4 Y18.4 Z0 F50.00 

G01 X29.4 Y18.3 Z255 F3.00 
G01 X29.3 Y17.5 Z255 F3.00 
G01 X29.3 Y17.3 Z255 F3.00 
G01 X29.6 Y17.2 Z255 F3.00 
G01 X29.7 Y17.2 Z255 F3.00 
G01 X30.0 Y17.1 Z255 F3.00 
G01 X30.1 Y17.1 Z255 F3.00 
G01 X30.3 Y17.2 Z255 F3.00 
G01 X30.4 Y17.1 Z255 F3.00 
G01 X30.5 Y17.1 Z255 F3.00 
G01 X30.6 Y17.2 Z255 F3.00 
G01 X30.7 Y17.2 Z255 F3.00 
G01 X31.0 Y17.3 Z255 F3.00 
G01 X31.1 Y17.3 Z255 F3.00 
G01 X31.2 Y17.4 Z255 F3.00 
G01 X31.4 Y17.4 Z255 F3.00 
G01 X31.5 Y17.5 Z255 F3.00 
G01 X31.7 Y17.6 Z255 F3.00 
G01 X32.0 Y17.5 Z255 F3.00 
G01 X32.1 Y17.5 Z255 F3.00 
G01 X32.5 Y17.4 Z255 F3.00 
G01 X32.7 Y17.4 Z255 F3.00 
G01 X32.8 Y17.3 Z255 F3.00 
G01 X32.9 Y17.4 Z255 F3.00 
G01 X33.0 Y17.4 Z255 F3.00 
G01 X33.2 Y17.3 Z255 F3.00 
G01 X33.3 Y17.3 Z255 F3.00 
G01 X33.4 Y17.2 Z255 F3.00 
G01 X33.4 Y17.0 Z255 F3.00 
G01 X33.3 Y17.0 Z255 F3.00 
G01 X33.1 Y17.1 Z255 F3.00 
G01 X33.0 Y17.1 Z255 F3.00 
G01 X32.6 Y17.0 Z255 F3.00 
G01 X32.5 Y17.1 Z255 F3.00 
G01 X32.2 Y17.3 Z255 F3.00 
G01 X32.1 Y17.2 Z255 F3.00 
G01 X32.0 Y17.3 Z255 F3.00 
G01 X31.9 Y17.2 Z255 F3.00 
G01 X32.0 Y17.1 Z255 F3.00 
G01 X32.0 Y16.9 Z255 F3.00 
G01 X31.9 Y16.9 Z255 F3.00 
G01 X32.0 Y16.8 Z255 F3.00 
G01 X32.0 Y16.7 Z255 F3.00 
G01 X31.9 Y16.5 Z255 F3.00 
G01 X31.8 Y16.6 Z255 F3.00 
G01 X31.8 Y16.7 Z255 F3.00 
G01 X31.8 Y16.8 Z255 F3.00 
G00 X31.7 Y17.1 Z0 F50.00 

G01 X31.8 Y17.2 Z255 F3.00 
G01 X31.8 Y17.4 Z255 F3.00 
G01 X31.7 Y17.4 Z255 F3.00 
G01 X31.6 Y17.3 Z255 F3.00 
G01 X31.5 Y17.4 Z255 F3.00 
G01 X31.5 Y17.4 Z255 F3.00 
G00 X31.4 Y17.7 Z0 F50.00 

G01 X31.3 Y17.6 Z255 F3.00 
G01 X31.3 Y17.6 Z255 F3.00 
G00 X31.2 Y17.2 Z0 F50.00 

G01 X31.0 Y16.8 Z255 F3.00 
G01 X31.1 Y16.8 Z255 F3.00 
G01 X31.5 Y16.9 Z255 F3.00 
G01 X31.4 Y17.0 Z255 F3.00 
G01 X31.3 Y17.0 Z255 F3.00 
G01 X31.2 Y17.1 Z255 F3.00 
G01 X31.1 Y17.0 Z255 F3.00 
G01 X31.0 Y17.1 Z255 F3.00 
G01 X30.9 Y17.0 Z255 F3.00 
G01 X30.8 Y17.0 Z255 F3.00 
G01 X30.6 Y16.9 Z255 F3.00 
G01 X30.5 Y16.9 Z255 F3.00 
G01 X30.6 Y16.8 Z255 F3.00 
G01 X30.8 Y16.7 Z255 F3.00 
G01 X30.9 Y16.6 Z255 F3.00 
G01 X30.8 Y16.5 Z255 F3.00 
G01 X30.7 Y16.5 Z255 F3.00 
G01 X30.3 Y16.6 Z255 F3.00 
G01 X30.4 Y16.7 Z255 F3.00 
G01 X30.5 Y16.7 Z255 F3.00 
G01 X30.5 Y16.7 Z255 F3.00 
G00 X30.3 Y16.9 Z0 F50.00 

G01 X29.7 Y17.0 Z255 F3.00 
G01 X29.6 Y17.0 Z255 F3.00 
G01 X29.6 Y17.0 Z255 F3.00 
G00 X29.3 Y17.1 Z0 F50.00 

G01 X29.1 Y17.1 Z255 F3.00 
G01 X29.1 Y17.0 Z255 F3.00 
G01 X29.2 Y16.9 Z255 F3.00 
G01 X29.3 Y16.9 Z255 F3.00 
G01 X29.3 Y16.9 Z255 F3.00 
G00 X29.5 Y16.8 Z0 F50.00 

G01 X29.6 Y16.8 Z255 F3.00 
G01 X29.8 Y16.7 Z255 F3.00 
G01 X29.9 Y16.5 Z255 F3.00 
G01 X29.8 Y16.4 Z255 F3.00 
G01 X29.6 Y16.4 Z255 F3.00 
G01 X29.5 Y16.3 Z255 F3.00 
G01 X29.6 Y16.2 Z255 F3.00 
G01 X29.7 Y16.0 Z255 F3.00 
G01 X29.8 Y15.9 Z255 F3.00 
G01 X29.9 Y15.6 Z255 F3.00 
G01 X30.0 Y15.5 Z255 F3.00 
G01 X30.1 Y15.5 Z255 F3.00 
G01 X30.2 Y15.4 Z255 F3.00 
G01 X30.2 Y15.2 Z255 F3.00 
G01 X30.1 Y15.2 Z255 F3.00 
G01 X29.9 Y15.3 Z255 F3.00 
G01 X29.8 Y15.6 Z255 F3.00 
G01 X29.7 Y15.6 Z255 F3.00 
G01 X29.8 Y15.7 Z255 F3.00 
G01 X29.7 Y15.8 Z255 F3.00 
G01 X29.5 Y16.1 Z255 F3.00 
G01 X29.5 Y16.1 Z255 F3.00 
G00 X29.6 Y16.5 Z0 F50.00 

G01 X29.5 Y16.6 Z255 F3.00 
G00 X29.0 Y16.8 Z0 F50.00 

G01 X28.9 Y16.7 Z255 F3.00 
G01 X29.0 Y16.6 Z255 F3.00 
G01 X29.0 Y16.6 Z255 F3.00 
G00 X28.9 Y16.8 Z0 F50.00 

G01 X28.9 Y17.0 Z255 F3.00 
G01 X28.9 Y17.2 Z255 F3.00 
G01 X28.8 Y17.3 Z255 F3.00 
G01 X28.7 Y17.2 Z255 F3.00 
G01 X28.7 Y17.3 Z255 F3.00 
G01 X28.8 Y17.4 Z255 F3.00 
G01 X28.8 Y17.5 Z255 F3.00 
G01 X28.7 Y17.6 Z255 F3.00 
G01 X28.8 Y17.7 Z255 F3.00 
G01 X29.0 Y17.7 Z255 F3.00 
G01 X29.1 Y17.8 Z255 F3.00 
G01 X29.2 Y17.8 Z255 F3.00 
G01 X29.2 Y17.8 Z255 F3.00 
G00 X29.1 Y17.5 Z0 F50.00 

G01 X29.1 Y17.5 Z255 F3.00 
G00 X28.4 Y17.6 Z0 F50.00 

G01 X28.4 Y17.7 Z255 F3.00 
G01 X28.3 Y17.9 Z255 F3.00 
G01 X28.3 Y18.0 Z255 F3.00 
G01 X28.3 Y18.0 Z255 F3.00 
G00 X28.6 Y18.0 Z0 F50.00 

G01 X28.5 Y18.1 Z255 F3.00 
G01 X28.5 Y18.1 Z255 F3.00 
G00 X28.9 Y18.5 Z0 F50.00 

G01 X28.8 Y18.6 Z255 F3.00 
G01 X28.7 Y18.7 Z255 F3.00 
G00 X28.7 Y16.5 Z0 F50.00 

G01 X28.8 Y16.4 Z255 F3.00 
G01 X28.8 Y16.3 Z255 F3.00 
G01 X28.7 Y16.1 Z255 F3.00 
G01 X28.5 Y15.7 Z255 F3.00 
G01 X28.6 Y15.5 Z255 F3.00 
G01 X28.7 Y15.4 Z255 F3.00 
G01 X28.6 Y15.3 Z255 F3.00 
G01 X28.4 Y15.2 Z255 F3.00 
G01 X28.3 Y15.1 Z255 F3.00 
G01 X28.3 Y15.0 Z255 F3.00 
G01 X28.2 Y14.9 Z255 F3.00 
G01 X28.1 Y14.9 Z255 F3.00 
G01 X28.2 Y14.8 Z255 F3.00 
G01 X28.2 Y14.7 Z255 F3.00 
G01 X28.1 Y14.6 Z255 F3.00 
G01 X28.0 Y14.6 Z255 F3.00 
G01 X27.9 Y14.7 Z255 F3.00 
G01 X27.9 Y14.8 Z255 F3.00 
G01 X27.8 Y14.9 Z255 F3.00 
G01 X27.9 Y14.9 Z255 F3.00 
G01 X28.0 Y15.0 Z255 F3.00 
G01 X28.0 Y15.1 Z255 F3.00 
G01 X28.0 Y15.1 Z255 F3.00 
G00 X28.1 Y15.4 Z0 F50.00 

G01 X28.0 Y15.4 Z255 F3.00 
G01 X28.0 Y15.4 Z255 F3.00 
G00 X28.8 Y15.0 Z0 F50.00 

G01 X28.9 Y14.8 Z255 F3.00 
G01 X28.8 Y14.6 Z255 F3.00 
G01 X28.7 Y14.7 Z255 F3.00 
G01 X28.6 Y15.0 Z255 F3.00 
G01 X28.6 Y15.0 Z255 F3.00 
G00 X29.1 Y14.4 Z0 F50.00 

G01 X29.0 Y14.3 Z255 F3.00 
G01 X28.9 Y14.4 Z255 F3.00 
G01 X28.9 Y14.4 Z255 F3.00 
G00 X29.7 Y14.4 Z0 F50.00 

G01 X29.8 Y14.3 Z255 F3.00 
G01 X30.0 Y14.3 Z255 F3.00 
G01 X30.0 Y14.5 Z255 F3.00 
G01 X30.0 Y14.6 Z255 F3.00 
G01 X29.9 Y14.7 Z255 F3.00 
G01 X29.8 Y14.6 Z255 F3.00 
G01 X29.7 Y14.7 Z255 F3.00 
G01 X29.6 Y14.6 Z255 F3.00 
G01 X29.7 Y14.5 Z255 F3.00 
G01 X29.7 Y14.5 Z255 F3.00 
G00 X30.0 Y14.0 Z0 F50.00 

G01 X30.1 Y14.1 Z255 F3.00 
G01 X30.3 Y14.1 Z255 F3.00 
G01 X30.4 Y14.2 Z255 F3.00 
G01 X30.4 Y14.3 Z255 F3.00 
G01 X30.3 Y14.4 Z255 F3.00 
G01 X30.3 Y14.5 Z255 F3.00 
G01 X30.2 Y14.7 Z255 F3.00 
G01 X30.2 Y14.8 Z255 F3.00 
G01 X30.1 Y14.9 Z255 F3.00 
G01 X29.9 Y14.9 Z255 F3.00 
G01 X29.9 Y14.8 Z255 F3.00 
G01 X29.9 Y14.8 Z255 F3.00 
G00 X30.1 Y14.2 Z0 F50.00 

G01 X30.1 Y14.2 Z255 F3.00 
G00 X29.3 Y13.7 Z0 F50.00 

G01 X29.2 Y13.6 Z255 F3.00 
G01 X29.3 Y13.5 Z255 F3.00 
G01 X29.3 Y13.5 Z255 F3.00 
G00 X29.8 Y13.2 Z0 F50.00 

G01 X29.9 Y13.1 Z255 F3.00 
G01 X29.9 Y13.0 Z255 F3.00 
G01 X29.8 Y12.5 Z255 F3.00 
G01 X29.7 Y12.6 Z255 F3.00 
G01 X29.7 Y12.7 Z255 F3.00 
G01 X29.7 Y13.0 Z255 F3.00 
G00 X29.6 Y12.4 Z0 F50.00 

G01 X29.7 Y12.4 Z255 F3.00 
G01 X29.8 Y12.3 Z255 F3.00 
G01 X29.7 Y12.2 Z255 F3.00 
G01 X29.6 Y12.3 Z255 F3.00 
G01 X29.5 Y12.2 Z255 F3.00 
G01 X29.4 Y12.3 Z255 F3.00 
G01 X29.4 Y12.4 Z255 F3.00 
G01 X29.4 Y12.4 Z255 F3.00 
G00 X29.7 Y12.1 Z0 F50.00 

G01 X29.7 Y11.9 Z255 F3.00 
G01 X29.7 Y11.8 Z255 F3.00 
G01 X29.6 Y11.5 Z255 F3.00 
G01 X29.5 Y11.6 Z255 F3.00 
G01 X29.5 Y11.8 Z255 F3.00 
G01 X29.4 Y11.8 Z255 F3.00 
G01 X29.5 Y11.9 Z255 F3.00 
G01 X29.5 Y12.0 Z255 F3.00 
G01 X29.5 Y12.1 Z255 F3.00 
G00 X29.2 Y12.0 Z0 F50.00 

G01 X29.1 Y12.0 Z255 F3.00 
G01 X29.0 Y11.9 Z255 F3.00 
G01 X28.8 Y11.9 Z255 F3.00 
G01 X28.7 Y12.1 Z255 F3.00 
G01 X28.8 Y12.2 Z255 F3.00 
G01 X29.0 Y12.5 Z255 F3.00 
G01 X28.9 Y12.6 Z255 F3.00 
G01 X28.8 Y12.6 Z255 F3.00 
G01 X28.5 Y12.5 Z255 F3.00 
G01 X28.5 Y12.4 Z255 F3.00 
G01 X28.6 Y12.2 Z255 F3.00 
G01 X28.7 Y12.2 Z255 F3.00 
G01 X28.7 Y12.2 Z255 F3.00 
G00 X29.0 Y12.0 Z0 F50.00 

G01 X28.9 Y11.9 Z255 F3.00 
G01 X28.7 Y11.6 Z255 F3.00 
G01 X28.8 Y11.4 Z255 F3.00 
G01 X28.9 Y11.5 Z255 F3.00 
G01 X29.0 Y11.5 Z255 F3.00 
G01 X29.3 Y11.6 Z255 F3.00 
G01 X29.3 Y11.6 Z255 F3.00 
G00 X29.4 Y11.3 Z0 F50.00 

G01 X29.4 Y11.2 Z255 F3.00 
G01 X29.5 Y11.1 Z255 F3.00 
G01 X29.6 Y10.9 Z255 F3.00 
G01 X29.5 Y10.7 Z255 F3.00 
G01 X29.4 Y10.8 Z255 F3.00 
G01 X29.2 Y11.1 Z255 F3.00 
G01 X29.1 Y11.2 Z255 F3.00 
G01 X29.2 Y11.3 Z255 F3.00 
G01 X29.2 Y11.3 Z255 F3.00 
G00 X28.5 Y11.0 Z0 F50.00 

G01 X28.4 Y10.9 Z255 F3.00 
G01 X28.5 Y10.8 Z255 F3.00 
G01 X28.5 Y10.8 Z255 F3.00 
G00 X28.9 Y10.4 Z0 F50.00 

G01 X29.0 Y10.2 Z255 F3.00 
G01 X28.9 Y10.1 Z255 F3.00 
G01 X28.8 Y10.2 Z255 F3.00 
G01 X28.7 Y10.2 Z255 F3.00 
G01 X28.8 Y10.3 Z255 F3.00 
G01 X28.7 Y10.4 Z255 F3.00 
G01 X28.6 Y10.3 Z255 F3.00 
G01 X28.6 Y10.1 Z255 F3.00 
G01 X28.5 Y10.1 Z255 F3.00 
G01 X28.6 Y10.0 Z255 F3.00 
G01 X28.5 Y9.9 Z255 F3.00 
G01 X28.6 Y9.8 Z255 F3.00 
G01 X28.7 Y9.5 Z255 F3.00 
G01 X28.6 Y9.5 Z255 F3.00 
G01 X28.4 Y9.4 Z255 F3.00 
G01 X28.2 Y9.3 Z255 F3.00 
G01 X27.6 Y9.2 Z255 F3.00 
G01 X27.5 Y9.2 Z255 F3.00 
G01 X27.0 Y9.3 Z255 F3.00 
G01 X26.8 Y9.4 Z255 F3.00 
G01 X26.9 Y9.5 Z255 F3.00 
G01 X26.8 Y9.6 Z255 F3.00 
G01 X26.7 Y9.5 Z255 F3.00 
G01 X26.6 Y9.6 Z255 F3.00 
G01 X26.5 Y9.5 Z255 F3.00 
G01 X26.6 Y9.4 Z255 F3.00 
G01 X26.5 Y9.3 Z255 F3.00 
G01 X26.3 Y9.3 Z255 F3.00 
G01 X26.2 Y9.3 Z255 F3.00 
G01 X26.1 Y9.2 Z255 F3.00 
G01 X25.9 Y9.1 Z255 F3.00 
G01 X25.8 Y9.2 Z255 F3.00 
G01 X25.9 Y9.3 Z255 F3.00 
G01 X25.9 Y9.4 Z255 F3.00 
G01 X26.0 Y9.5 Z255 F3.00 
G01 X25.9 Y9.6 Z255 F3.00 
G01 X25.9 Y9.7 Z255 F3.00 
G01 X25.8 Y9.8 Z255 F3.00 
G01 X25.8 Y9.9 Z255 F3.00 
G01 X25.9 Y10.0 Z255 F3.00 
G01 X26.1 Y10.0 Z255 F3.00 
G01 X26.3 Y9.9 Z255 F3.00 
G01 X26.4 Y9.8 Z255 F3.00 
G01 X26.4 Y9.7 Z255 F3.00 
G01 X26.3 Y9.6 Z255 F3.00 
G01 X26.2 Y9.6 Z255 F3.00 
G01 X26.2 Y9.6 Z255 F3.00 
G00 X26.2 Y10.0 Z0 F50.00 

G01 X26.2 Y10.0 Z255 F3.00 
G00 X25.9 Y10.3 Z0 F50.00 

G01 X25.9 Y10.4 Z255 F3.00 
G01 X25.8 Y11.0 Z255 F3.00 
G01 X25.4 Y11.3 Z255 F3.00 
G01 X25.3 Y11.4 Z255 F3.00 
G01 X25.1 Y11.5 Z255 F3.00 
G01 X25.0 Y11.6 Z255 F3.00 
G01 X24.7 Y11.8 Z255 F3.00 
G01 X24.5 Y11.9 Z255 F3.00 
G01 X24.3 Y12.0 Z255 F3.00 
G01 X24.1 Y12.1 Z255 F3.00 
G01 X23.8 Y12.3 Z255 F3.00 
G01 X23.7 Y12.4 Z255 F3.00 
G01 X23.5 Y12.4 Z255 F3.00 
G01 X23.6 Y12.3 Z255 F3.00 
G01 X23.5 Y12.2 Z255 F3.00 
G01 X23.5 Y12.2 Z255 F3.00 
G00 X23.9 Y12.1 Z0 F50.00 

G01 X24.0 Y12.0 Z255 F3.00 
G01 X23.9 Y11.9 Z255 F3.00 
G01 X23.9 Y11.9 Z255 F3.00 
G00 X24.8 Y12.0 Z0 F50.00 

G01 X24.8 Y12.0 Z255 F3.00 
G00 X26.2 Y13.0 Z0 F50.00 

G01 X26.1 Y13.1 Z255 F3.00 
G01 X25.8 Y13.5 Z255 F3.00 
G01 X25.9 Y13.7 Z255 F3.00 
G01 X26.0 Y13.9 Z255 F3.00 
G01 X26.1 Y14.2 Z255 F3.00 
G01 X26.2 Y14.1 Z255 F3.00 
G01 X26.5 Y14.0 Z255 F3.00 
G01 X26.6 Y14.3 Z255 F3.00 
G01 X26.6 Y14.5 Z255 F3.00 
G01 X26.5 Y14.6 Z255 F3.00 
G01 X26.5 Y14.5 Z255 F3.00 
G01 X26.5 Y14.5 Z255 F3.00 
G00 X26.8 Y14.6 Z0 F50.00 

G01 X26.9 Y14.5 Z255 F3.00 
G01 X27.1 Y14.5 Z255 F3.00 
G01 X27.1 Y14.6 Z255 F3.00 
G01 X27.2 Y14.7 Z255 F3.00 
G01 X27.3 Y15.0 Z255 F3.00 
G01 X27.3 Y15.2 Z255 F3.00 
G01 X27.3 Y15.3 Z255 F3.00 
G01 X27.4 Y15.4 Z255 F3.00 
G01 X27.5 Y15.3 Z255 F3.00 
G01 X27.5 Y15.2 Z255 F3.00 
G01 X27.6 Y15.0 Z255 F3.00 
G01 X27.7 Y14.9 Z255 F3.00 
G00 X27.1 Y14.9 Z0 F50.00 

G01 X27.1 Y14.9 Z255 F3.00 
G00 X26.7 Y15.1 Z0 F50.00 

G01 X26.5 Y15.1 Z255 F3.00 
G01 X26.6 Y15.1 Z255 F3.00 
G01 X26.5 Y15.0 Z255 F3.00 
G01 X26.5 Y15.0 Z255 F3.00 
G00 X26.3 Y15.4 Z0 F50.00 

G01 X26.3 Y15.4 Z255 F3.00 
G00 X26.3 Y16.1 Z0 F50.00 

G01 X26.3 Y16.3 Z255 F3.00 
G01 X26.2 Y16.4 Z255 F3.00 
G01 X26.1 Y16.3 Z255 F3.00 
G01 X26.0 Y16.3 Z255 F3.00 
G01 X25.9 Y16.4 Z255 F3.00 
G01 X25.8 Y16.3 Z255 F3.00 
G01 X25.8 Y16.1 Z255 F3.00 
G01 X25.7 Y16.1 Z255 F3.00 
G01 X25.8 Y16.2 Z255 F3.00 
G01 X25.8 Y16.2 Z255 F3.00 
G00 X25.5 Y16.3 Z0 F50.00 

G01 X25.4 Y16.2 Z255 F3.00 
G01 X25.3 Y16.2 Z255 F3.00 
G01 X25.1 Y16.1 Z255 F3.00 
G01 X25.1 Y15.9 Z255 F3.00 
G01 X25.0 Y15.9 Z255 F3.00 
G01 X24.5 Y16.0 Z255 F3.00 
G01 X24.6 Y16.1 Z255 F3.00 
G01 X24.6 Y16.2 Z255 F3.00 
G01 X24.7 Y16.3 Z255 F3.00 
G01 X24.7 Y16.3 Z255 F3.00 
G00 X24.6 Y16.8 Z0 F50.00 

G01 X24.6 Y16.9 Z255 F3.00 
G01 X24.7 Y17.0 Z255 F3.00 
G01 X24.6 Y17.1 Z255 F3.00 
G01 X24.7 Y17.2 Z255 F3.00 
G01 X24.9 Y17.5 Z255 F3.00 
G01 X25.0 Y17.6 Z255 F3.00 
G01 X24.9 Y17.7 Z255 F3.00 
G01 X24.8 Y17.6 Z255 F3.00 
G01 X24.6 Y17.5 Z255 F3.00 
G01 X24.5 Y17.4 Z255 F3.00 
G01 X24.4 Y17.2 Z255 F3.00 
G01 X24.5 Y17.1 Z255 F3.00 
G01 X24.5 Y17.1 Z255 F3.00 
G00 X24.9 Y16.9 Z0 F50.00 

G01 X25.0 Y16.7 Z255 F3.00 
G01 X25.1 Y16.6 Z255 F3.00 
G01 X25.2 Y16.7 Z255 F3.00 
G01 X25.3 Y16.7 Z255 F3.00 
G01 X25.4 Y16.8 Z255 F3.00 
G01 X25.4 Y16.8 Z255 F3.00 
G00 X26.2 Y16.5 Z0 F50.00 

G01 X26.2 Y16.5 Z255 F3.00 
G00 X26.4 Y16.1 Z0 F50.00 

G01 X26.4 Y16.1 Z255 F3.00 
G00 X26.6 Y17.8 Z0 F50.00 

G01 X26.6 Y17.8 Z255 F3.00 
G00 X26.4 Y18.6 Z0 F50.00 

G01 X25.7 Y18.7 Z255 F3.00 
G01 X25.6 Y18.7 Z255 F3.00 
G01 X25.5 Y18.8 Z255 F3.00 
G01 X25.5 Y19.0 Z255 F3.00 
G01 X25.6 Y19.0 Z255 F3.00 
G01 X25.7 Y18.9 Z255 F3.00 
G01 X25.8 Y18.9 Z255 F3.00 
G01 X25.9 Y18.8 Z255 F3.00 
G01 X26.0 Y18.8 Z255 F3.00 
G01 X26.4 Y18.8 Z255 F3.00 
G00 X25.8 Y19.7 Z0 F50.00 

G01 X25.8 Y19.9 Z255 F3.00 
G01 X25.7 Y19.8 Z255 F3.00 
G01 X25.6 Y19.5 Z255 F3.00 
G01 X25.6 Y19.5 Z255 F3.00 
G00 X24.2 Y19.7 Z0 F50.00 

G01 X24.1 Y19.6 Z255 F3.00 
G01 X24.2 Y19.5 Z255 F3.00 
G01 X24.1 Y19.5 Z255 F3.00 
G01 X24.0 Y19.6 Z255 F3.00 
G01 X23.9 Y19.5 Z255 F3.00 
G01 X24.0 Y19.4 Z255 F3.00 
G01 X23.9 Y19.3 Z255 F3.00 
G01 X23.8 Y19.4 Z255 F3.00 
G01 X23.7 Y19.4 Z255 F3.00 
G01 X23.6 Y19.3 Z255 F3.00 
G01 X23.6 Y19.1 Z255 F3.00 
G01 X23.5 Y19.0 Z255 F3.00 
G01 X23.4 Y19.1 Z255 F3.00 
G01 X23.3 Y19.0 Z255 F3.00 
G01 X23.4 Y18.9 Z255 F3.00 
G01 X23.3 Y18.8 Z255 F3.00 
G01 X23.2 Y18.9 Z255 F3.00 
G01 X23.1 Y18.8 Z255 F3.00 
G01 X23.2 Y18.7 Z255 F3.00 
G01 X23.2 Y18.7 Z255 F3.00 
G00 X23.8 Y19.2 Z0 F50.00 

G01 X23.8 Y19.2 Z255 F3.00 
G00 X20.4 Y18.4 Z0 F50.00 

G01 X20.3 Y18.6 Z255 F3.00 
G01 X20.2 Y18.7 Z255 F3.00 
G01 X20.0 Y19.0 Z255 F3.00 
G01 X19.9 Y19.1 Z255 F3.00 
G01 X19.7 Y19.2 Z255 F3.00 
G01 X19.6 Y19.3 Z255 F3.00 
G01 X19.5 Y19.3 Z255 F3.00 
G01 X19.4 Y19.2 Z255 F3.00 
G01 X19.5 Y19.1 Z255 F3.00 
G01 X19.6 Y19.1 Z255 F3.00 
G01 X19.7 Y19.0 Z255 F3.00 
G01 X19.8 Y18.8 Z255 F3.00 
G01 X19.9 Y18.7 Z255 F3.00 
G01 X19.9 Y18.6 Z255 F3.00 
G01 X20.0 Y17.6 Z255 F3.00 
G01 X20.0 Y17.5 Z255 F3.00 
G01 X20.1 Y17.4 Z255 F3.00 
G01 X20.2 Y17.4 Z255 F3.00 
G01 X20.3 Y17.3 Z255 F3.00 
G01 X20.5 Y17.2 Z255 F3.00 
G01 X20.6 Y17.3 Z255 F3.00 
G01 X20.6 Y17.4 Z255 F3.00 
G01 X20.5 Y17.9 Z255 F3.00 
G01 X20.5 Y18.0 Z255 F3.00 
G01 X20.5 Y18.2 Z255 F3.00 
G00 X19.8 Y16.7 Z0 F50.00 

G01 X19.7 Y16.6 Z255 F3.00 
G01 X19.6 Y16.6 Z255 F3.00 
G01 X19.7 Y16.5 Z255 F3.00 
G01 X19.7 Y16.4 Z255 F3.00 
G01 X19.6 Y16.3 Z255 F3.00 
G01 X19.5 Y16.4 Z255 F3.00 
G01 X19.4 Y16.4 Z255 F3.00 
G01 X19.2 Y16.5 Z255 F3.00 
G01 X19.1 Y16.5 Z255 F3.00 
G01 X19.0 Y16.6 Z255 F3.00 
G01 X18.8 Y16.7 Z255 F3.00 
G01 X18.7 Y16.8 Z255 F3.00 
G01 X18.4 Y17.0 Z255 F3.00 
G01 X18.3 Y17.1 Z255 F3.00 
G01 X18.1 Y17.4 Z255 F3.00 
G01 X18.2 Y17.5 Z255 F3.00 
G01 X18.3 Y17.4 Z255 F3.00 
G01 X18.5 Y17.3 Z255 F3.00 
G01 X18.6 Y17.2 Z255 F3.00 
G01 X18.7 Y17.2 Z255 F3.00 
G01 X18.8 Y17.1 Z255 F3.00 
G01 X18.9 Y17.1 Z255 F3.00 
G01 X19.0 Y17.0 Z255 F3.00 
G01 X19.1 Y17.0 Z255 F3.00 
G01 X19.3 Y16.9 Z255 F3.00 
G01 X19.4 Y16.9 Z255 F3.00 
G01 X19.6 Y16.8 Z255 F3.00 
G01 X19.6 Y16.8 Z255 F3.00 
G00 X19.4 Y16.7 Z0 F50.00 

G01 X19.3 Y16.7 Z255 F3.00 
G01 X19.3 Y16.7 Z255 F3.00 
G00 X18.6 Y16.7 Z0 F50.00 

G01 X18.5 Y16.6 Z255 F3.00 
G01 X18.6 Y16.5 Z255 F3.00 
G01 X18.5 Y16.5 Z255 F3.00 
G01 X18.4 Y16.6 Z255 F3.00 
G01 X18.3 Y16.6 Z255 F3.00 
G01 X18.2 Y16.7 Z255 F3.00 
G01 X18.3 Y16.8 Z255 F3.00 
G01 X18.2 Y16.9 Z255 F3.00 
G01 X18.1 Y16.8 Z255 F3.00 
G01 X18.0 Y16.8 Z255 F3.00 
G01 X17.9 Y16.9 Z255 F3.00 
G01 X17.8 Y16.8 Z255 F3.00 
G01 X17.9 Y16.7 Z255 F3.00 
G01 X18.1 Y16.6 Z255 F3.00 
G01 X18.2 Y16.6 Z255 F3.00 
G00 X18.3 Y16.3 Z0 F50.00 

G01 X18.4 Y16.4 Z255 F3.00 
G01 X18.4 Y16.4 Z255 F3.00 
G00 X18.4 Y16.1 Z0 F50.00 

G01 X18.5 Y16.0 Z255 F3.00 
G01 X18.5 Y15.9 Z255 F3.00 
G01 X18.4 Y15.5 Z255 F3.00 
G01 X18.2 Y15.4 Z255 F3.00 
G01 X18.1 Y15.5 Z255 F3.00 
G01 X18.0 Y15.5 Z255 F3.00 
G01 X17.9 Y15.4 Z255 F3.00 
G01 X17.8 Y15.4 Z255 F3.00 
G01 X17.5 Y15.3 Z255 F3.00 
G01 X17.5 Y15.2 Z255 F3.00 
G01 X17.6 Y15.1 Z255 F3.00 
G01 X17.6 Y15.0 Z255 F3.00 
G01 X17.7 Y14.9 Z255 F3.00 
G01 X17.7 Y14.8 Z255 F3.00 
G01 X17.8 Y14.7 Z255 F3.00 
G01 X17.8 Y14.6 Z255 F3.00 
G01 X17.7 Y14.5 Z255 F3.00 
G01 X17.6 Y14.5 Z255 F3.00 
G01 X17.5 Y14.4 Z255 F3.00 
G01 X17.2 Y14.2 Z255 F3.00 
G01 X17.0 Y14.3 Z255 F3.00 
G01 X16.9 Y14.3 Z255 F3.00 
G01 X16.8 Y14.4 Z255 F3.00 
G01 X16.7 Y14.6 Z255 F3.00 
G01 X16.8 Y14.7 Z255 F3.00 
G01 X16.9 Y14.9 Z255 F3.00 
G01 X17.0 Y15.0 Z255 F3.00 
G01 X16.9 Y15.1 Z255 F3.00 
G01 X16.9 Y15.2 Z255 F3.00 
G01 X17.0 Y15.4 Z255 F3.00 
G01 X17.0 Y15.5 Z255 F3.00 
G01 X16.9 Y15.7 Z255 F3.00 
G01 X17.0 Y15.8 Z255 F3.00 
G01 X17.0 Y16.0 Z255 F3.00 
G01 X17.1 Y16.1 Z255 F3.00 
G01 X17.0 Y16.2 Z255 F3.00 
G01 X16.8 Y16.2 Z255 F3.00 
G01 X16.6 Y16.2 Z255 F3.00 
G01 X16.4 Y16.2 Z255 F3.00 
G01 X16.3 Y16.0 Z255 F3.00 
G01 X16.4 Y15.5 Z255 F3.00 
G01 X16.5 Y15.5 Z255 F3.00 
G01 X16.7 Y15.6 Z255 F3.00 
G01 X16.7 Y15.7 Z255 F3.00 
G01 X16.8 Y15.8 Z255 F3.00 
G01 X16.7 Y15.9 Z255 F3.00 
G01 X16.7 Y16.0 Z255 F3.00 
G01 X16.6 Y16.1 Z255 F3.00 
G01 X16.6 Y16.1 Z255 F3.00 
G00 X17.1 Y16.0 Z0 F50.00 

G01 X17.0 Y16.1 Z255 F3.00 
G01 X17.1 Y16.2 Z255 F3.00 
G01 X17.4 Y16.4 Z255 F3.00 
G01 X17.7 Y16.3 Z255 F3.00 
G01 X17.8 Y16.4 Z255 F3.00 
G01 X17.8 Y16.5 Z255 F3.00 
G01 X17.8 Y16.6 Z255 F3.00 
G00 X18.1 Y17.6 Z0 F50.00 

G01 X18.1 Y17.6 Z255 F3.00 
G00 X18.4 Y18.6 Z0 F50.00 

G01 X18.6 Y18.9 Z255 F3.00 
G01 X18.7 Y19.0 Z255 F3.00 
G01 X18.8 Y19.2 Z255 F3.00 
G01 X18.9 Y19.3 Z255 F3.00 
G01 X18.9 Y19.4 Z255 F3.00 
G01 X19.0 Y19.6 Z255 F3.00 
G01 X19.0 Y19.7 Z255 F3.00 
G01 X19.1 Y20.0 Z255 F3.00 
G01 X19.2 Y19.9 Z255 F3.00 
G01 X19.3 Y20.0 Z255 F3.00 
G01 X19.5 Y20.1 Z255 F3.00 
G01 X19.6 Y20.2 Z255 F3.00 
G01 X19.9 Y20.4 Z255 F3.00 
G01 X20.0 Y20.5 Z255 F3.00 
G01 X20.0 Y20.6 Z255 F3.00 
G01 X20.1 Y20.7 Z255 F3.00 
G01 X20.1 Y20.9 Z255 F3.00 
G01 X20.2 Y21.0 Z255 F3.00 
G01 X20.1 Y21.0 Z255 F3.00 
G01 X20.2 Y21.1 Z255 F3.00 
G01 X20.4 Y21.1 Z255 F3.00 
G01 X20.4 Y21.0 Z255 F3.00 
G01 X20.3 Y20.6 Z255 F3.00 
G01 X20.2 Y20.7 Z255 F3.00 
G01 X20.2 Y20.7 Z255 F3.00 
G00 X19.9 Y21.2 Z0 F50.00 

G01 X19.8 Y21.2 Z255 F3.00 
G01 X19.2 Y21.3 Z255 F3.00 
G01 X19.1 Y21.2 Z255 F3.00 
G01 X19.0 Y21.2 Z255 F3.00 
G01 X18.9 Y21.1 Z255 F3.00 
G01 X18.8 Y21.1 Z255 F3.00 
G01 X18.6 Y21.0 Z255 F3.00 
G01 X18.5 Y21.0 Z255 F3.00 
G01 X18.0 Y20.9 Z255 F3.00 
G01 X17.5 Y20.3 Z255 F3.00 
G01 X17.6 Y20.2 Z255 F3.00 
G01 X17.6 Y20.1 Z255 F3.00 
G01 X17.7 Y20.0 Z255 F3.00 
G01 X18.0 Y19.8 Z255 F3.00 
G01 X18.3 Y19.9 Z255 F3.00 
G01 X18.4 Y19.8 Z255 F3.00 
G01 X18.6 Y19.8 Z255 F3.00 
G01 X18.8 Y20.1 Z255 F3.00 
G01 X18.8 Y20.1 Z255 F3.00 
G00 X18.7 Y19.8 Z0 F50.00 

G01 X18.7 Y19.7 Z255 F3.00 
G01 X18.6 Y19.6 Z255 F3.00 
G01 X18.6 Y19.5 Z255 F3.00 
G01 X18.5 Y19.4 Z255 F3.00 
G01 X18.0 Y18.8 Z255 F3.00 
G01 X18.1 Y18.7 Z255 F3.00 
G01 X18.2 Y18.6 Z255 F3.00 
G00 X19.0 Y20.1 Z0 F50.00 

G01 X18.9 Y20.3 Z255 F3.00 
G01 X19.0 Y20.3 Z255 F3.00 
G01 X19.0 Y20.3 Z255 F3.00 
G00 X16.5 Y20.8 Z0 F50.00 

G01 X16.1 Y21.2 Z255 F3.00 
G00 X16.1 Y20.9 Z0 F50.00 

G01 X16.5 Y20.6 Z255 F3.00 
G01 X16.5 Y20.6 Z255 F3.00 
G00 X15.5 Y19.8 Z0 F50.00 

G01 X15.4 Y19.7 Z255 F3.00 
G01 X15.4 Y19.6 Z255 F3.00 
G01 X15.5 Y19.4 Z255 F3.00 
G01 X15.5 Y19.3 Z255 F3.00 
G01 X15.6 Y19.2 Z255 F3.00 
G01 X15.7 Y19.3 Z255 F3.00 
G01 X15.8 Y19.2 Z255 F3.00 
G01 X15.9 Y18.9 Z255 F3.00 
G01 X15.8 Y19.0 Z255 F3.00 
G01 X15.7 Y19.1 Z255 F3.00 
G00 X15.7 Y19.5 Z0 F50.00 

G01 X15.6 Y19.6 Z255 F3.00 
G01 X15.6 Y19.6 Z255 F3.00 
G00 X14.2 Y19.7 Z0 F50.00 

G01 X14.2 Y19.6 Z255 F3.00 
G01 X14.1 Y19.4 Z255 F3.00 
G01 X14.1 Y19.3 Z255 F3.00 
G01 X14.0 Y19.0 Z255 F3.00 
G01 X14.0 Y18.9 Z255 F3.00 
G01 X13.9 Y18.8 Z255 F3.00 
G01 X13.8 Y18.9 Z255 F3.00 
G01 X13.8 Y19.1 Z255 F3.00 
G01 X13.8 Y19.2 Z255 F3.00 
G01 X13.9 Y19.5 Z255 F3.00 
G01 X13.9 Y19.6 Z255 F3.00 
G01 X14.0 Y20.4 Z255 F3.00 
G01 X13.9 Y20.5 Z255 F3.00 
G01 X13.9 Y20.6 Z255 F3.00 
G01 X14.0 Y20.8 Z255 F3.00 
G01 X14.2 Y20.9 Z255 F3.00 
G01 X14.3 Y21.0 Z255 F3.00 
G01 X14.6 Y21.2 Z255 F3.00 
G01 X14.8 Y21.1 Z255 F3.00 
G01 X14.7 Y21.0 Z255 F3.00 
G01 X14.5 Y20.7 Z255 F3.00 
G01 X14.4 Y20.4 Z255 F3.00 
G01 X14.4 Y20.3 Z255 F3.00 
G01 X14.3 Y20.1 Z255 F3.00 
G01 X14.3 Y20.0 Z255 F3.00 
G01 X14.3 Y19.9 Z255 F3.00 
G00 X13.9 Y18.7 Z0 F50.00 

G01 X13.8 Y18.6 Z255 F3.00 
G01 X13.9 Y18.5 Z255 F3.00 
G01 X14.3 Y17.9 Z255 F3.00 
G01 X14.1 Y17.9 Z255 F3.00 
G01 X14.2 Y17.9 Z255 F3.00 
G01 X14.1 Y18.0 Z255 F3.00 
G01 X14.1 Y18.0 Z255 F3.00 
G00 X13.7 Y18.2 Z0 F50.00 

G01 X13.7 Y18.3 Z255 F3.00 
G01 X13.8 Y18.4 Z255 F3.00 
G01 X13.7 Y18.5 Z255 F3.00 
G01 X13.6 Y18.4 Z255 F3.00 
G01 X13.5 Y18.5 Z255 F3.00 
G01 X13.4 Y18.7 Z255 F3.00 
G01 X13.5 Y18.8 Z255 F3.00 
G01 X13.6 Y18.7 Z255 F3.00 
G01 X13.7 Y18.6 Z255 F3.00 
G00 X13.5 Y18.9 Z0 F50.00 

G01 X13.6 Y19.0 Z255 F3.00 
G01 X13.6 Y19.0 Z255 F3.00 
G00 X13.3 Y18.8 Z0 F50.00 

G01 X13.3 Y18.8 Z255 F3.00 
G00 X13.8 Y17.9 Z0 F50.00 

G01 X13.7 Y17.7 Z255 F3.00 
G01 X13.8 Y17.6 Z255 F3.00 
G01 X13.9 Y17.6 Z255 F3.00 
G01 X14.0 Y17.5 Z255 F3.00 
G01 X14.1 Y17.5 Z255 F3.00 
G01 X14.2 Y17.6 Z255 F3.00 
G01 X14.2 Y17.7 Z255 F3.00 
G01 X14.2 Y17.7 Z255 F3.00 
G00 X14.5 Y17.5 Z0 F50.00 

G01 X14.6 Y17.5 Z255 F3.00 
G01 X14.7 Y17.4 Z255 F3.00 
G01 X14.8 Y17.2 Z255 F3.00 
G01 X14.9 Y17.1 Z255 F3.00 
G01 X14.8 Y17.0 Z255 F3.00 
G01 X14.9 Y16.9 Z255 F3.00 
G01 X15.0 Y16.9 Z255 F3.00 
G01 X15.1 Y17.0 Z255 F3.00 
G01 X15.3 Y17.1 Z255 F3.00 
G01 X15.4 Y17.0 Z255 F3.00 
G01 X15.4 Y16.9 Z255 F3.00 
G01 X15.5 Y16.7 Z255 F3.00 
G01 X15.5 Y16.6 Z255 F3.00 
G01 X15.6 Y16.5 Z255 F3.00 
G01 X15.6 Y16.4 Z255 F3.00 
G01 X15.5 Y16.3 Z255 F3.00 
G01 X15.4 Y16.4 Z255 F3.00 
G01 X15.4 Y16.5 Z255 F3.00 
G01 X15.3 Y16.6 Z255 F3.00 
G01 X15.3 Y16.7 Z255 F3.00 
G01 X15.2 Y16.8 Z255 F3.00 
G01 X15.2 Y16.9 Z255 F3.00 
G01 X15.2 Y16.9 Z255 F3.00 
G00 X14.6 Y17.0 Z0 F50.00 

G01 X14.3 Y17.1 Z255 F3.00 
G01 X14.3 Y17.2 Z255 F3.00 
G01 X14.4 Y17.3 Z255 F3.00 
G01 X14.4 Y17.3 Z255 F3.00 
G00 X13.3 Y17.1 Z0 F50.00 

G01 X13.2 Y17.0 Z255 F3.00 
G01 X13.3 Y16.9 Z255 F3.00 
G01 X13.3 Y16.9 Z255 F3.00 
G00 X12.9 Y15.7 Z0 F50.00 

G01 X12.8 Y15.6 Z255 F3.00 
G01 X12.8 Y15.4 Z255 F3.00 
G01 X12.8 Y15.3 Z255 F3.00 
G01 X12.9 Y15.0 Z255 F3.00 
G01 X13.0 Y15.0 Z255 F3.00 
G01 X13.1 Y14.9 Z255 F3.00 
G01 X13.2 Y15.0 Z255 F3.00 
G01 X13.3 Y15.0 Z255 F3.00 
G01 X13.2 Y15.1 Z255 F3.00 
G01 X13.2 Y15.1 Z255 F3.00 
G00 X13.3 Y14.8 Z0 F50.00 

G01 X13.3 Y14.7 Z255 F3.00 
G01 X13.4 Y14.6 Z255 F3.00 
G01 X13.8 Y14.2 Z255 F3.00 
G00 X13.5 Y14.1 Z0 F50.00 

G01 X13.4 Y14.0 Z255 F3.00 
G01 X13.3 Y14.1 Z255 F3.00 
G01 X13.1 Y14.2 Z255 F3.00 
G01 X13.0 Y14.3 Z255 F3.00 
G01 X12.9 Y14.3 Z255 F3.00 
G01 X12.8 Y14.4 Z255 F3.00 
G01 X12.7 Y14.4 Z255 F3.00 
G01 X12.6 Y14.5 Z255 F3.00 
G01 X12.5 Y14.5 Z255 F3.00 
G01 X12.4 Y14.6 Z255 F3.00 
G01 X12.3 Y14.6 Z255 F3.00 
G01 X12.2 Y14.7 Z255 F3.00 
G01 X12.0 Y14.8 Z255 F3.00 
G01 X11.9 Y14.9 Z255 F3.00 
G01 X11.9 Y15.0 Z255 F3.00 
G01 X12.0 Y15.1 Z255 F3.00 
G01 X12.0 Y15.2 Z255 F3.00 
G01 X12.1 Y15.3 Z255 F3.00 
G01 X12.4 Y15.4 Z255 F3.00 
G01 X12.5 Y15.2 Z255 F3.00 
G01 X12.4 Y15.0 Z255 F3.00 
G01 X12.3 Y15.1 Z255 F3.00 
G01 X12.3 Y15.2 Z255 F3.00 
G01 X12.3 Y15.3 Z255 F3.00 
G00 X12.5 Y15.6 Z0 F50.00 

G01 X12.4 Y15.7 Z255 F3.00 
G01 X12.5 Y15.8 Z255 F3.00 
G01 X12.4 Y15.9 Z255 F3.00 
G01 X12.3 Y15.8 Z255 F3.00 
G01 X12.3 Y15.9 Z255 F3.00 
G01 X12.3 Y15.9 Z255 F3.00 
G00 X11.9 Y16.0 Z0 F50.00 

G01 X11.7 Y16.0 Z255 F3.00 
G01 X11.6 Y16.0 Z255 F3.00 
G01 X11.7 Y16.1 Z255 F3.00 
G01 X11.8 Y16.0 Z255 F3.00 
G01 X12.0 Y15.8 Z255 F3.00 
G00 X11.7 Y16.3 Z0 F50.00 

G01 X11.8 Y16.6 Z255 F3.00 
G01 X11.8 Y16.6 Z255 F3.00 
G00 X11.5 Y16.3 Z0 F50.00 

G01 X11.5 Y16.2 Z255 F3.00 
G01 X11.5 Y16.2 Z255 F3.00 
G00 X11.2 Y17.0 Z0 F50.00 

G01 X11.1 Y17.0 Z255 F3.00 
G01 X11.2 Y16.9 Z255 F3.00 
G01 X11.2 Y16.9 Z255 F3.00 
G00 X10.9 Y17.2 Z0 F50.00 

G01 X10.8 Y17.1 Z255 F3.00 
G01 X10.6 Y17.0 Z255 F3.00 
G01 X10.7 Y17.1 Z255 F3.00 
G01 X11.0 Y17.2 Z255 F3.00 
G01 X11.1 Y17.3 Z255 F3.00 
G01 X11.1 Y17.4 Z255 F3.00 
G01 X11.0 Y17.6 Z255 F3.00 
G01 X11.0 Y17.8 Z255 F3.00 
G01 X11.2 Y17.8 Z255 F3.00 
G01 X11.3 Y17.8 Z255 F3.00 
G01 X11.4 Y17.8 Z255 F3.00 
G00 X11.0 Y17.7 Z0 F50.00 

G01 X10.9 Y17.5 Z255 F3.00 
G01 X10.9 Y17.4 Z255 F3.00 
G00 X10.7 Y17.5 Z0 F50.00 

G01 X10.6 Y17.6 Z255 F3.00 
G01 X10.7 Y17.7 Z255 F3.00 
G01 X10.8 Y18.0 Z255 F3.00 
G01 X10.7 Y18.0 Z255 F3.00 
G01 X10.8 Y18.1 Z255 F3.00 
G01 X10.8 Y18.2 Z255 F3.00 
G01 X10.9 Y18.3 Z255 F3.00 
G01 X11.0 Y18.2 Z255 F3.00 
G01 X11.0 Y18.3 Z255 F3.00 
G01 X11.0 Y18.3 Z255 F3.00 
G00 X11.1 Y18.0 Z0 F50.00 

G01 X11.1 Y18.0 Z255 F3.00 
G00 X10.5 Y18.1 Z0 F50.00 

G01 X10.4 Y18.4 Z255 F3.00 
G01 X10.3 Y18.5 Z255 F3.00 
G01 X10.4 Y18.6 Z255 F3.00 
G01 X10.5 Y18.6 Z255 F3.00 
G01 X10.6 Y18.5 Z255 F3.00 
G01 X10.5 Y18.4 Z255 F3.00 
G01 X10.5 Y18.4 Z255 F3.00 
G00 X10.1 Y18.4 Z0 F50.00 

G01 X10.0 Y18.3 Z255 F3.00 
G01 X9.7 Y18.1 Z255 F3.00 
G01 X9.6 Y18.0 Z255 F3.00 
G01 X9.4 Y17.8 Z255 F3.00 
G00 X9.9 Y17.4 Z0 F50.00 

G01 X9.8 Y17.3 Z255 F3.00 
G01 X9.8 Y17.2 Z255 F3.00 
G01 X9.9 Y17.0 Z255 F3.00 
G01 X9.8 Y16.9 Z255 F3.00 
G01 X9.8 Y16.8 Z255 F3.00 
G01 X9.9 Y16.5 Z255 F3.00 
G01 X10.2 Y16.4 Z255 F3.00 
G01 X10.5 Y16.5 Z255 F3.00 
G01 X10.6 Y16.5 Z255 F3.00 
G01 X10.7 Y16.6 Z255 F3.00 
G01 X10.8 Y16.8 Z255 F3.00 
G01 X10.7 Y16.9 Z255 F3.00 
G01 X10.6 Y16.8 Z255 F3.00 
G01 X10.5 Y16.9 Z255 F3.00 
G01 X10.4 Y16.9 Z255 F3.00 
G01 X10.3 Y16.8 Z255 F3.00 
G01 X10.3 Y16.7 Z255 F3.00 
G01 X10.3 Y16.7 Z255 F3.00 
G00 X10.5 Y16.6 Z0 F50.00 

G01 X10.6 Y16.7 Z255 F3.00 
G00 X10.4 Y16.1 Z0 F50.00 

G01 X10.5 Y16.0 Z255 F3.00 
G01 X10.4 Y16.0 Z255 F3.00 
G01 X10.5 Y15.9 Z255 F3.00 
G01 X10.5 Y15.9 Z255 F3.00 
G00 X10.3 Y16.1 Z0 F50.00 

G01 X10.4 Y16.2 Z255 F3.00 
G01 X10.3 Y16.2 Z255 F3.00 
G01 X10.2 Y16.3 Z255 F3.00 
G01 X10.2 Y16.2 Z255 F3.00 
G01 X10.2 Y16.2 Z255 F3.00 
G00 X10.1 Y15.7 Z0 F50.00 

G01 X10.3 Y15.6 Z255 F3.00 
G01 X10.4 Y15.5 Z255 F3.00 
G01 X10.7 Y15.3 Z255 F3.00 
G01 X10.8 Y15.2 Z255 F3.00 
G01 X11.1 Y15.0 Z255 F3.00 
G01 X11.2 Y14.9 Z255 F3.00 
G01 X11.4 Y14.8 Z255 F3.00 
G01 X11.5 Y14.7 Z255 F3.00 
G01 X11.7 Y14.6 Z255 F3.00 
G01 X11.8 Y14.5 Z255 F3.00 
G01 X11.9 Y14.5 Z255 F3.00 
G01 X12.0 Y14.4 Z255 F3.00 
G01 X12.2 Y14.3 Z255 F3.00 
G01 X12.3 Y14.2 Z255 F3.00 
G01 X12.5 Y14.1 Z255 F3.00 
G01 X12.4 Y14.2 Z255 F3.00 
G01 X12.3 Y14.3 Z255 F3.00 
G00 X12.2 Y14.0 Z0 F50.00 

G01 X12.3 Y13.9 Z255 F3.00 
G01 X12.4 Y14.0 Z255 F3.00 
G01 X12.4 Y14.0 Z255 F3.00 
G00 X12.7 Y14.0 Z0 F50.00 

G01 X12.8 Y14.0 Z255 F3.00 
G01 X12.9 Y13.9 Z255 F3.00 
G01 X13.0 Y13.9 Z255 F3.00 
G01 X13.2 Y13.8 Z255 F3.00 
G01 X13.3 Y13.8 Z255 F3.00 
G01 X13.4 Y13.7 Z255 F3.00 
G01 X13.4 Y13.8 Z255 F3.00 
G01 X13.4 Y13.8 Z255 F3.00 
G00 X13.3 Y13.5 Z0 F50.00 

G01 X13.3 Y13.4 Z255 F3.00 
G01 X13.4 Y13.3 Z255 F3.00 
G01 X13.4 Y13.2 Z255 F3.00 
G01 X13.5 Y13.0 Z255 F3.00 
G01 X13.4 Y13.0 Z255 F3.00 
G01 X13.4 Y13.0 Z255 F3.00 
G00 X13.2 Y13.1 Z0 F50.00 

G01 X13.2 Y13.3 Z255 F3.00 
G00 X12.8 Y13.4 Z0 F50.00 

G01 X12.7 Y13.3 Z255 F3.00 
G01 X12.8 Y13.2 Z255 F3.00 
G01 X12.7 Y13.1 Z255 F3.00 
G01 X12.8 Y13.0 Z255 F3.00 
G01 X12.8 Y12.9 Z255 F3.00 
G01 X12.7 Y12.8 Z255 F3.00 
G01 X12.7 Y12.7 Z255 F3.00 
G01 X12.6 Y12.5 Z255 F3.00 
G01 X12.6 Y12.4 Z255 F3.00 
G01 X12.5 Y12.2 Z255 F3.00 
G01 X12.4 Y11.9 Z255 F3.00 
G01 X12.3 Y11.8 Z255 F3.00 
G01 X12.3 Y11.6 Z255 F3.00 
G01 X12.3 Y11.5 Z255 F3.00 
G01 X12.2 Y11.4 Z255 F3.00 
G01 X12.1 Y11.2 Z255 F3.00 
G01 X12.0 Y11.1 Z255 F3.00 
G01 X11.9 Y11.2 Z255 F3.00 
G01 X11.8 Y11.2 Z255 F3.00 
G01 X11.9 Y11.3 Z255 F3.00 
G01 X11.9 Y11.3 Z255 F3.00 
G00 X11.6 Y11.1 Z0 F50.00 

G01 X11.4 Y10.8 Z255 F3.00 
G01 X11.3 Y10.7 Z255 F3.00 
G01 X11.2 Y10.7 Z255 F3.00 
G01 X11.3 Y10.6 Z255 F3.00 
G01 X11.2 Y10.5 Z255 F3.00 
G01 X11.1 Y10.6 Z255 F3.00 
G01 X11.1 Y10.8 Z255 F3.00 
G01 X11.1 Y10.8 Z255 F3.00 
G00 X11.1 Y10.4 Z0 F50.00 

G01 X11.1 Y10.2 Z255 F3.00 
G01 X11.2 Y10.2 Z255 F3.00 
G01 X11.3 Y10.1 Z255 F3.00 
G01 X11.4 Y10.2 Z255 F3.00 
G01 X11.5 Y10.2 Z255 F3.00 
G01 X11.4 Y10.1 Z255 F3.00 
G01 X11.4 Y10.1 Z255 F3.00 
G00 X11.4 Y9.8 Z0 F50.00 

G01 X11.4 Y9.8 Z255 F3.00 
G00 X11.6 Y9.7 Z0 F50.00 

G01 X11.7 Y9.9 Z255 F3.00 
G01 X11.6 Y10.0 Z255 F3.00 
G01 X11.7 Y10.1 Z255 F3.00 
G01 X11.6 Y10.2 Z255 F3.00 
G01 X11.7 Y10.2 Z255 F3.00 
G01 X11.8 Y10.3 Z255 F3.00 
G01 X11.7 Y10.4 Z255 F3.00 
G01 X11.8 Y10.5 Z255 F3.00 
G01 X11.9 Y10.5 Z255 F3.00 
G01 X12.0 Y10.6 Z255 F3.00 
G01 X12.0 Y10.7 Z255 F3.00 
G01 X11.9 Y10.8 Z255 F3.00 
G01 X11.7 Y10.8 Z255 F3.00 
G01 X11.8 Y10.8 Z255 F3.00 
G01 X11.9 Y10.9 Z255 F3.00 
G01 X12.0 Y11.0 Z255 F3.00 
G00 X11.6 Y11.2 Z0 F50.00 

G01 X11.6 Y11.4 Z255 F3.00 
G01 X11.7 Y11.6 Z255 F3.00 
G01 X11.8 Y11.8 Z255 F3.00 
G01 X11.8 Y11.9 Z255 F3.00 
G01 X11.9 Y12.0 Z255 F3.00 
G01 X12.1 Y12.0 Z255 F3.00 
G01 X12.2 Y12.1 Z255 F3.00 
G01 X12.3 Y12.1 Z255 F3.00 
G01 X12.2 Y12.0 Z255 F3.00 
G01 X12.2 Y12.0 Z255 F3.00 
G00 X12.1 Y12.3 Z0 F50.00 

G01 X12.1 Y12.5 Z255 F3.00 
G01 X12.2 Y12.6 Z255 F3.00 
G01 X12.2 Y12.7 Z255 F3.00 
G01 X12.3 Y12.8 Z255 F3.00 
G01 X12.5 Y12.9 Z255 F3.00 
G01 X12.6 Y13.0 Z255 F3.00 
G01 X12.6 Y13.1 Z255 F3.00 
G01 X12.5 Y13.2 Z255 F3.00 
G01 X12.6 Y13.3 Z255 F3.00 
G01 X12.6 Y13.3 Z255 F3.00 
G00 X12.1 Y13.5 Z0 F50.00 

G01 X12.0 Y13.6 Z255 F3.00 
G01 X11.9 Y13.6 Z255 F3.00 
G01 X12.0 Y13.7 Z255 F3.00 
G01 X12.2 Y13.7 Z255 F3.00 
G01 X12.2 Y13.7 Z255 F3.00 
G00 X11.9 Y13.4 Z0 F50.00 

G01 X11.8 Y13.5 Z255 F3.00 
G01 X11.8 Y13.5 Z255 F3.00 
G00 X11.8 Y13.1 Z0 F50.00 

G01 X11.8 Y13.0 Z255 F3.00 
G01 X11.7 Y12.8 Z255 F3.00 
G01 X11.6 Y12.9 Z255 F3.00 
G01 X11.5 Y12.8 Z255 F3.00 
G01 X11.2 Y12.6 Z255 F3.00 
G01 X11.3 Y12.7 Z255 F3.00 
G01 X11.6 Y12.8 Z255 F3.00 
G01 X11.6 Y12.6 Z255 F3.00 
G01 X11.6 Y12.5 Z255 F3.00 
G01 X11.5 Y12.4 Z255 F3.00 
G01 X11.5 Y12.3 Z255 F3.00 
G01 X11.4 Y12.2 Z255 F3.00 
G01 X11.4 Y12.1 Z255 F3.00 
G01 X11.3 Y12.0 Z255 F3.00 
G01 X11.2 Y11.8 Z255 F3.00 
G01 X11.1 Y11.7 Z255 F3.00 
G01 X11.0 Y11.7 Z255 F3.00 
G01 X11.0 Y11.7 Z255 F3.00 
G00 X10.9 Y11.4 Z0 F50.00 

G01 X10.6 Y11.2 Z255 F3.00 
G01 X10.5 Y11.1 Z255 F3.00 
G01 X10.4 Y11.1 Z255 F3.00 
G01 X10.3 Y11.2 Z255 F3.00 
G01 X10.4 Y11.3 Z255 F3.00 
G01 X10.3 Y11.4 Z255 F3.00 
G01 X10.4 Y11.4 Z255 F3.00 
G01 X10.5 Y11.5 Z255 F3.00 
G01 X10.5 Y11.6 Z255 F3.00 
G01 X10.6 Y11.7 Z255 F3.00 
G01 X11.1 Y12.1 Z255 F3.00 
G01 X11.0 Y12.2 Z255 F3.00 
G01 X10.9 Y12.1 Z255 F3.00 
G01 X10.8 Y12.2 Z255 F3.00 
G01 X10.8 Y12.4 Z255 F3.00 
G01 X11.1 Y12.8 Z255 F3.00 
G01 X11.2 Y12.9 Z255 F3.00 
G01 X11.4 Y13.0 Z255 F3.00 
G01 X11.5 Y13.1 Z255 F3.00 
G01 X11.6 Y13.1 Z255 F3.00 
G01 X11.6 Y13.1 Z255 F3.00 
G00 X10.8 Y13.1 Z0 F50.00 

G01 X10.7 Y13.0 Z255 F3.00 
G01 X10.7 Y13.1 Z255 F3.00 
G01 X10.8 Y13.2 Z255 F3.00 
G01 X10.8 Y13.3 Z255 F3.00 
G01 X10.7 Y13.4 Z255 F3.00 
G01 X10.6 Y13.3 Z255 F3.00 
G01 X10.6 Y13.2 Z255 F3.00 
G01 X10.5 Y13.1 Z255 F3.00 
G01 X10.5 Y13.0 Z255 F3.00 
G01 X10.4 Y12.9 Z255 F3.00 
G01 X10.4 Y12.8 Z255 F3.00 
G01 X10.3 Y12.7 Z255 F3.00 
G01 X10.3 Y12.6 Z255 F3.00 
G01 X10.2 Y12.5 Z255 F3.00 
G01 X10.1 Y12.3 Z255 F3.00 
G01 X10.2 Y12.2 Z255 F3.00 
G01 X10.1 Y12.2 Z255 F3.00 
G01 X10.2 Y12.1 Z255 F3.00 
G01 X10.2 Y11.9 Z255 F3.00 
G01 X10.3 Y11.9 Z255 F3.00 
G01 X10.4 Y11.8 Z255 F3.00 
G01 X10.5 Y11.9 Z255 F3.00 
G01 X10.5 Y12.0 Z255 F3.00 
G01 X10.6 Y12.3 Z255 F3.00 
G01 X10.6 Y12.4 Z255 F3.00 
G01 X10.5 Y12.6 Z255 F3.00 
G01 X10.6 Y12.6 Z255 F3.00 
G01 X10.6 Y12.6 Z255 F3.00 
G00 X10.9 Y12.7 Z0 F50.00 

G01 X10.9 Y12.8 Z255 F3.00 
G01 X10.9 Y12.9 Z255 F3.00 
G00 X10.9 Y12.4 Z0 F50.00 

G01 X10.8 Y12.3 Z255 F3.00 
G01 X10.8 Y12.3 Z255 F3.00 
G00 X10.2 Y11.7 Z0 F50.00 

G01 X10.3 Y11.6 Z255 F3.00 
G01 X10.3 Y11.5 Z255 F3.00 
G01 X10.3 Y11.5 Z255 F3.00 
G00 X10.3 Y11.0 Z0 F50.00 

G01 X10.3 Y10.8 Z255 F3.00 
G01 X10.4 Y10.7 Z255 F3.00 
G01 X10.5 Y10.7 Z255 F3.00 
G01 X10.6 Y10.6 Z255 F3.00 
G01 X10.7 Y10.3 Z255 F3.00 
G01 X10.8 Y10.2 Z255 F3.00 
G01 X10.7 Y10.1 Z255 F3.00 
G01 X10.5 Y10.1 Z255 F3.00 
G01 X10.5 Y10.2 Z255 F3.00 
G01 X10.6 Y10.4 Z255 F3.00 
G01 X10.6 Y10.5 Z255 F3.00 
G01 X10.6 Y10.5 Z255 F3.00 
G00 X10.9 Y10.4 Z0 F50.00 

G01 X10.9 Y10.4 Z255 F3.00 
G00 X11.2 Y10.4 Z0 F50.00 

G01 X11.2 Y10.4 Z255 F3.00 
G00 X11.7 Y10.7 Z0 F50.00 

G01 X11.7 Y10.7 Z255 F3.00 
G00 X12.3 Y10.5 Z0 F50.00 

G01 X12.4 Y10.4 Z255 F3.00 
G01 X12.6 Y10.4 Z255 F3.00 
G01 X12.7 Y10.3 Z255 F3.00 
G01 X12.7 Y10.1 Z255 F3.00 
G01 X12.6 Y10.2 Z255 F3.00 
G01 X12.6 Y10.2 Z255 F3.00 
G00 X12.4 Y10.0 Z0 F50.00 

G01 X12.2 Y10.0 Z255 F3.00 
G01 X12.1 Y10.0 Z255 F3.00 
G01 X12.2 Y9.9 Z255 F3.00 
G01 X12.2 Y9.8 Z255 F3.00 
G01 X12.2 Y9.8 Z255 F3.00 
G00 X12.0 Y9.9 Z0 F50.00 

G01 X12.0 Y9.9 Z255 F3.00 
G00 X12.0 Y9.6 Z0 F50.00 

G01 X11.9 Y9.5 Z255 F3.00 
G01 X11.9 Y9.4 Z255 F3.00 
G01 X12.0 Y9.1 Z255 F3.00 
G01 X12.0 Y9.1 Z255 F3.00 
G00 X11.7 Y9.0 Z0 F50.00 

G01 X11.6 Y9.1 Z255 F3.00 
G01 X11.3 Y9.2 Z255 F3.00 
G01 X11.2 Y9.2 Z255 F3.00 
G01 X11.3 Y9.3 Z255 F3.00 
G01 X11.5 Y9.5 Z255 F3.00 
G00 X11.4 Y9.0 Z0 F50.00 

G01 X11.5 Y8.9 Z255 F3.00 
G01 X11.7 Y8.9 Z255 F3.00 
G01 X11.8 Y9.0 Z255 F3.00 
G00 X11.7 Y8.7 Z0 F50.00 

G01 X11.6 Y8.6 Z255 F3.00 
G01 X11.4 Y8.6 Z255 F3.00 
G01 X11.4 Y8.7 Z255 F3.00 
G01 X11.5 Y9.0 Z255 F3.00 
G01 X11.5 Y9.0 Z255 F3.00 
G00 X11.5 Y8.4 Z0 F50.00 

G01 X11.4 Y8.4 Z255 F3.00 
G01 X11.4 Y8.4 Z255 F3.00 
G00 X12.5 Y9.3 Z0 F50.00 

G01 X12.5 Y9.3 Z255 F3.00 
G00 X12.6 Y9.6 Z0 F50.00 

G01 X12.5 Y9.7 Z255 F3.00 
G01 X12.6 Y9.7 Z255 F3.00 
G01 X12.5 Y9.8 Z255 F3.00 
G01 X12.4 Y9.9 Z255 F3.00 
G00 X12.3 Y10.2 Z0 F50.00 

G01 X12.3 Y10.3 Z255 F3.00 
G01 X12.3 Y10.3 Z255 F3.00 
G00 X12.6 Y10.6 Z0 F50.00 

G01 X12.5 Y10.7 Z255 F3.00 
G01 X12.4 Y10.9 Z255 F3.00 
G01 X12.5 Y11.2 Z255 F3.00 
G01 X12.5 Y11.3 Z255 F3.00 
G01 X12.6 Y11.4 Z255 F3.00 
G01 X12.6 Y11.5 Z255 F3.00 
G01 X12.7 Y11.7 Z255 F3.00 
G01 X12.8 Y11.7 Z255 F3.00 
G01 X12.7 Y11.8 Z255 F3.00 
G01 X12.7 Y11.9 Z255 F3.00 
G01 X12.8 Y12.2 Z255 F3.00 
G01 X12.9 Y12.4 Z255 F3.00 
G01 X13.0 Y12.5 Z255 F3.00 
G01 X13.1 Y12.5 Z255 F3.00 
G01 X13.2 Y12.4 Z255 F3.00 
G01 X13.2 Y12.2 Z255 F3.00 
G01 X13.3 Y12.1 Z255 F3.00 
G01 X13.3 Y12.2 Z255 F3.00 
G01 X13.2 Y12.3 Z255 F3.00 
G01 X13.3 Y12.4 Z255 F3.00 
G01 X13.3 Y12.6 Z255 F3.00 
G01 X13.2 Y12.8 Z255 F3.00 
G01 X13.2 Y12.9 Z255 F3.00 
G00 X13.0 Y12.0 Z0 F50.00 

G01 X13.0 Y12.1 Z255 F3.00 
G01 X12.9 Y12.2 Z255 F3.00 
G01 X12.9 Y12.2 Z255 F3.00 
G00 X14.0 Y11.8 Z0 F50.00 

G01 X13.9 Y11.9 Z255 F3.00 
G01 X14.0 Y12.0 Z255 F3.00 
G01 X14.0 Y12.2 Z255 F3.00 
G01 X14.1 Y12.3 Z255 F3.00 
G01 X14.1 Y12.5 Z255 F3.00 
G01 X14.2 Y12.5 Z255 F3.00 
G01 X14.3 Y12.6 Z255 F3.00 
G01 X14.2 Y12.7 Z255 F3.00 
G01 X14.1 Y12.6 Z255 F3.00 
G01 X14.1 Y12.6 Z255 F3.00 
G00 X14.2 Y12.3 Z0 F50.00 

G01 X14.1 Y12.2 Z255 F3.00 
G01 X14.1 Y12.0 Z255 F3.00 
G01 X14.0 Y11.9 Z255 F3.00 
G01 X14.0 Y11.7 Z255 F3.00 
G01 X13.9 Y11.6 Z255 F3.00 
G01 X14.0 Y11.5 Z255 F3.00 
G01 X13.9 Y11.4 Z255 F3.00 
G01 X13.9 Y11.5 Z255 F3.00 
G01 X14.0 Y11.6 Z255 F3.00 
G01 X14.0 Y11.6 Z255 F3.00 
G00 X14.6 Y12.7 Z0 F50.00 

G01 X14.5 Y12.7 Z255 F3.00 
G01 X14.4 Y12.8 Z255 F3.00 
G01 X14.3 Y12.7 Z255 F3.00 
G01 X14.2 Y12.8 Z255 F3.00 
G01 X14.2 Y12.9 Z255 F3.00 
G01 X14.3 Y13.1 Z255 F3.00 
G01 X14.4 Y13.0 Z255 F3.00 
G01 X14.4 Y12.9 Z255 F3.00 
G01 X14.4 Y12.9 Z255 F3.00 
G00 X14.4 Y13.4 Z0 F50.00 

G01 X14.4 Y13.4 Z255 F3.00 
G00 X13.6 Y13.8 Z0 F50.00 

G01 X13.6 Y13.7 Z255 F3.00 
G01 X13.6 Y13.7 Z255 F3.00 
G00 X12.2 Y12.3 Z0 F50.00 

G01 X12.2 Y12.3 Z255 F3.00 
G00 X10.2 Y10.9 Z0 F50.00 

G01 X10.1 Y10.8 Z255 F3.00 
G01 X10.1 Y10.6 Z255 F3.00 
G01 X10.0 Y10.5 Z255 F3.00 
G01 X9.8 Y10.4 Z255 F3.00 
G01 X9.9 Y10.5 Z255 F3.00 
G01 X10.3 Y10.7 Z255 F3.00 
G01 X10.3 Y10.7 Z255 F3.00 
G00 X9.7 Y11.0 Z0 F50.00 

G01 X9.7 Y11.0 Z255 F3.00 
G00 X9.6 Y10.7 Z0 F50.00 

G01 X9.6 Y10.7 Z255 F3.00 
G00 X9.3 Y10.7 Z0 F50.00 

G01 X9.2 Y10.7 Z255 F3.00 
G01 X9.3 Y10.6 Z255 F3.00 
G01 X9.4 Y10.4 Z255 F3.00 
G01 X9.3 Y10.3 Z255 F3.00 
G01 X9.2 Y10.4 Z255 F3.00 
G01 X8.8 Y10.6 Z255 F3.00 
G01 X8.9 Y10.5 Z255 F3.00 
G01 X9.0 Y10.3 Z255 F3.00 
G01 X9.1 Y10.2 Z255 F3.00 
G01 X9.0 Y10.1 Z255 F3.00 
G01 X8.9 Y10.2 Z255 F3.00 
G01 X8.8 Y10.4 Z255 F3.00 
G01 X8.8 Y10.4 Z255 F3.00 
G00 X8.5 Y10.5 Z0 F50.00 

G01 X8.6 Y10.6 Z255 F3.00 
G01 X8.7 Y10.6 Z255 F3.00 
G01 X8.7 Y10.6 Z255 F3.00 
G00 X8.4 Y10.5 Z0 F50.00 

G01 X8.4 Y10.6 Z255 F3.00 
G01 X8.4 Y10.6 Z255 F3.00 
G00 X8.4 Y10.2 Z0 F50.00 

G01 X8.5 Y10.2 Z255 F3.00 
G01 X8.6 Y10.1 Z255 F3.00 
G01 X8.6 Y10.0 Z255 F3.00 
G01 X8.7 Y9.9 Z255 F3.00 
G01 X8.9 Y9.9 Z255 F3.00 
G01 X8.9 Y10.0 Z255 F3.00 
G01 X8.9 Y10.0 Z255 F3.00 
G00 X8.8 Y9.7 Z0 F50.00 

G01 X8.6 Y9.7 Z255 F3.00 
G01 X8.6 Y9.8 Z255 F3.00 
G01 X8.5 Y9.9 Z255 F3.00 
G01 X8.5 Y9.9 Z255 F3.00 
G00 X8.4 Y9.6 Z0 F50.00 

G01 X8.5 Y9.6 Z255 F3.00 
G01 X8.6 Y9.5 Z255 F3.00 
G01 X8.6 Y9.3 Z255 F3.00 
G01 X8.4 Y9.3 Z255 F3.00 
G01 X8.3 Y9.2 Z255 F3.00 
G01 X8.4 Y9.1 Z255 F3.00 
G01 X8.3 Y9.0 Z255 F3.00 
G01 X8.3 Y9.1 Z255 F3.00 
G01 X8.3 Y9.1 Z255 F3.00 
G00 X8.4 Y9.5 Z0 F50.00 

G01 X8.4 Y9.5 Z255 F3.00 
G00 X8.8 Y9.6 Z0 F50.00 

G01 X8.9 Y9.7 Z255 F3.00 
G00 X9.4 Y10.0 Z0 F50.00 

G01 X9.4 Y10.1 Z255 F3.00 
G01 X9.3 Y10.2 Z255 F3.00 
G01 X9.3 Y10.2 Z255 F3.00 
G00 X9.4 Y9.8 Z0 F50.00 

G01 X9.5 Y9.6 Z255 F3.00 
G01 X9.4 Y9.6 Z255 F3.00 
G01 X9.4 Y9.6 Z255 F3.00 
G00 X9.0 Y10.7 Z0 F50.00 

G01 X9.1 Y10.8 Z255 F3.00 
G01 X9.0 Y10.9 Z255 F3.00 
G01 X8.9 Y10.8 Z255 F3.00 
G01 X8.9 Y10.8 Z255 F3.00 
G00 X9.1 Y11.1 Z0 F50.00 

G01 X9.1 Y11.2 Z255 F3.00 
G01 X9.2 Y11.3 Z255 F3.00 
G01 X9.3 Y11.5 Z255 F3.00 
G01 X9.4 Y11.7 Z255 F3.00 
G01 X9.5 Y11.9 Z255 F3.00 
G01 X9.6 Y12.1 Z255 F3.00 
G01 X9.7 Y12.3 Z255 F3.00 
G01 X9.8 Y12.4 Z255 F3.00 
G01 X9.9 Y12.6 Z255 F3.00 
G01 X10.0 Y12.7 Z255 F3.00 
G01 X10.0 Y12.8 Z255 F3.00 
G01 X9.9 Y12.9 Z255 F3.00 
G01 X9.9 Y13.1 Z255 F3.00 
G01 X10.0 Y13.1 Z255 F3.00 
G01 X10.1 Y13.0 Z255 F3.00 
G01 X10.0 Y12.9 Z255 F3.00 
G01 X9.9 Y13.0 Z255 F3.00 
G01 X9.8 Y12.9 Z255 F3.00 
G01 X9.8 Y12.9 Z255 F3.00 
G00 X9.7 Y12.6 Z0 F50.00 

G01 X9.6 Y12.6 Z255 F3.00 
G01 X9.7 Y12.7 Z255 F3.00 
G01 X9.7 Y12.7 Z255 F3.00 
G00 X9.6 Y12.4 Z0 F50.00 

G01 X9.5 Y12.5 Z255 F3.00 
G01 X9.4 Y12.4 Z255 F3.00 
G01 X9.2 Y12.3 Z255 F3.00 
G01 X9.0 Y12.2 Z255 F3.00 
G01 X8.7 Y12.1 Z255 F3.00 
G01 X8.6 Y12.4 Z255 F3.00 
G01 X8.7 Y12.4 Z255 F3.00 
G01 X9.0 Y12.5 Z255 F3.00 
G01 X8.9 Y12.6 Z255 F3.00 
G01 X8.8 Y12.6 Z255 F3.00 
G01 X8.9 Y12.7 Z255 F3.00 
G01 X8.8 Y12.8 Z255 F3.00 
G01 X8.7 Y12.7 Z255 F3.00 
G01 X8.6 Y12.8 Z255 F3.00 
G01 X8.5 Y12.7 Z255 F3.00 
G01 X8.6 Y12.6 Z255 F3.00 
G01 X8.7 Y12.6 Z255 F3.00 
G01 X8.7 Y12.6 Z255 F3.00 
G00 X8.4 Y12.6 Z0 F50.00 

G01 X8.3 Y12.7 Z255 F3.00 
G01 X8.4 Y12.8 Z255 F3.00 
G01 X8.3 Y12.9 Z255 F3.00 
G01 X8.2 Y12.8 Z255 F3.00 
G01 X8.2 Y12.6 Z255 F3.00 
G01 X8.3 Y12.4 Z255 F3.00 
G01 X8.4 Y12.3 Z255 F3.00 
G01 X8.4 Y12.2 Z255 F3.00 
G01 X8.2 Y12.3 Z255 F3.00 
G01 X8.2 Y12.2 Z255 F3.00 
G01 X8.1 Y12.1 Z255 F3.00 
G01 X8.2 Y12.1 Z255 F3.00 
G01 X8.2 Y12.1 Z255 F3.00 
G00 X8.3 Y11.8 Z0 F50.00 

G01 X8.4 Y11.7 Z255 F3.00 
G01 X8.7 Y11.6 Z255 F3.00 
G01 X8.9 Y11.6 Z255 F3.00 
G01 X9.0 Y11.7 Z255 F3.00 
G01 X9.1 Y11.6 Z255 F3.00 
G01 X9.2 Y11.7 Z255 F3.00 
G01 X9.2 Y11.8 Z255 F3.00 
G01 X9.1 Y11.7 Z255 F3.00 
G01 X9.1 Y11.7 Z255 F3.00 
G00 X8.8 Y11.5 Z0 F50.00 

G01 X8.8 Y11.5 Z255 F3.00 
G00 X8.4 Y11.4 Z0 F50.00 

G01 X8.5 Y11.4 Z255 F3.00 
G01 X8.4 Y11.3 Z255 F3.00 
G01 X8.4 Y11.3 Z255 F3.00 
G00 X8.2 Y11.8 Z0 F50.00 

G01 X8.1 Y11.7 Z255 F3.00 
G01 X8.2 Y11.7 Z255 F3.00 
G01 X8.2 Y11.7 Z255 F3.00 
G00 X7.9 Y11.7 Z0 F50.00 

G01 X7.9 Y11.7 Z255 F3.00 
G00 X8.6 Y12.0 Z0 F50.00 

G01 X8.6 Y12.0 Z255 F3.00 
G00 X8.8 Y11.9 Z0 F50.00 

G01 X8.8 Y11.9 Z255 F3.00 
G00 X9.4 Y12.5 Z0 F50.00 

G01 X9.3 Y12.7 Z255 F3.00 
G01 X9.4 Y12.8 Z255 F3.00 
G01 X9.6 Y13.1 Z255 F3.00 
G01 X9.7 Y13.2 Z255 F3.00 
G01 X9.9 Y13.3 Z255 F3.00 
G01 X10.2 Y13.4 Z255 F3.00 
G01 X10.1 Y13.5 Z255 F3.00 
G01 X10.2 Y13.6 Z255 F3.00 
G01 X10.2 Y13.8 Z255 F3.00 
G01 X10.1 Y13.7 Z255 F3.00 
G01 X10.1 Y13.7 Z255 F3.00 
G00 X10.4 Y13.5 Z0 F50.00 

G01 X10.3 Y13.4 Z255 F3.00 
G01 X10.3 Y13.4 Z255 F3.00 
G00 X10.1 Y13.1 Z0 F50.00 

G01 X10.1 Y13.1 Z255 F3.00 
G00 X9.2 Y13.1 Z0 F50.00 

G01 X9.1 Y13.1 Z255 F3.00 
G01 X8.9 Y13.0 Z255 F3.00 
G01 X9.0 Y12.9 Z255 F3.00 
G01 X9.1 Y12.9 Z255 F3.00 
G01 X9.2 Y12.9 Z255 F3.00 
G00 X8.5 Y13.4 Z0 F50.00 

G01 X8.4 Y13.4 Z255 F3.00 
G01 X8.5 Y13.5 Z255 F3.00 
G01 X8.6 Y13.7 Z255 F3.00 
G01 X8.7 Y13.9 Z255 F3.00 
G01 X8.7 Y14.1 Z255 F3.00 
G01 X8.8 Y14.2 Z255 F3.00 
G01 X8.9 Y14.2 Z255 F3.00 
G01 X9.0 Y14.3 Z255 F3.00 
G01 X9.3 Y14.5 Z255 F3.00 
G01 X9.4 Y14.6 Z255 F3.00 
G01 X9.3 Y14.7 Z255 F3.00 
G01 X9.2 Y14.7 Z255 F3.00 
G01 X9.1 Y14.8 Z255 F3.00 
G01 X9.2 Y14.9 Z255 F3.00 
G01 X9.4 Y15.2 Z255 F3.00 
G01 X9.5 Y15.3 Z255 F3.00 
G01 X9.7 Y15.6 Z255 F3.00 
G01 X9.8 Y15.7 Z255 F3.00 
G01 X9.9 Y15.8 Z255 F3.00 
G00 X9.9 Y14.9 Z0 F50.00 

G01 X9.8 Y14.8 Z255 F3.00 
G01 X9.7 Y14.9 Z255 F3.00 
G01 X9.7 Y14.9 Z255 F3.00 
G00 X9.5 Y14.3 Z0 F50.00 

G01 X9.4 Y14.2 Z255 F3.00 
G01 X9.3 Y14.3 Z255 F3.00 
G01 X9.2 Y14.2 Z255 F3.00 
G01 X9.3 Y14.1 Z255 F3.00 
G01 X9.3 Y14.1 Z255 F3.00 
G00 X8.9 Y14.0 Z0 F50.00 

G01 X8.9 Y14.0 Z255 F3.00 
G00 X8.5 Y14.0 Z0 F50.00 

G01 X8.5 Y14.1 Z255 F3.00 
G01 X8.5 Y14.1 Z255 F3.00 
G00 X9.0 Y14.7 Z0 F50.00 

G01 X9.1 Y14.7 Z255 F3.00 
G01 X9.1 Y14.7 Z255 F3.00 
G00 X8.0 Y13.4 Z0 F50.00 

G01 X8.0 Y13.3 Z255 F3.00 
G01 X7.9 Y13.2 Z255 F3.00 
G01 X8.0 Y13.2 Z255 F3.00 
G01 X8.0 Y13.2 Z255 F3.00 
G00 X8.3 Y13.0 Z0 F50.00 

G01 X8.5 Y13.2 Z255 F3.00 
G00 X8.2 Y13.1 Z0 F50.00 

G01 X8.2 Y13.1 Z255 F3.00 
G00 X8.1 Y12.5 Z0 F50.00 

G01 X8.1 Y12.5 Z255 F3.00 
G00 X10.0 Y12.1 Z0 F50.00 

G01 X10.0 Y12.1 Z255 F3.00 
G00 X9.9 Y11.8 Z0 F50.00 

G01 X9.8 Y11.6 Z255 F3.00 
G01 X9.9 Y11.5 Z255 F3.00 
G01 X9.9 Y11.6 Z255 F3.00 
G01 X9.9 Y11.6 Z255 F3.00 
G00 X9.6 Y11.3 Z0 F50.00 

G01 X9.6 Y11.2 Z255 F3.00 
G01 X9.5 Y11.1 Z255 F3.00 
G01 X9.4 Y10.9 Z255 F3.00 
G01 X9.4 Y10.9 Z255 F3.00 
G00 X10.5 Y9.9 Z0 F50.00 

G01 X10.5 Y9.9 Z255 F3.00 
G00 X12.3 Y9.5 Z0 F50.00 

G01 X12.3 Y9.5 Z255 F3.00 
G00 X15.5 Y9.3 Z0 F50.00 

G01 X15.5 Y9.4 Z255 F3.00 
G01 X15.6 Y10.7 Z255 F3.00 
G01 X15.7 Y10.6 Z255 F3.00 
G01 X15.7 Y10.5 Z255 F3.00 
G01 X15.8 Y10.4 Z255 F3.00 
G01 X15.8 Y10.3 Z255 F3.00 
G01 X15.9 Y10.2 Z255 F3.00 
G01 X15.9 Y10.1 Z255 F3.00 
G01 X15.8 Y9.6 Z255 F3.00 
G01 X15.8 Y9.5 Z255 F3.00 
G01 X15.7 Y8.9 Z255 F3.00 
G01 X15.7 Y8.8 Z255 F3.00 
G01 X15.6 Y7.7 Z255 F3.00 
G01 X15.7 Y7.6 Z255 F3.00 
G01 X15.6 Y7.5 Z255 F3.00 
G01 X15.7 Y7.4 Z255 F3.00 
G01 X15.6 Y7.3 Z255 F3.00 
G01 X15.7 Y7.2 Z255 F3.00 
G01 X15.6 Y7.1 Z255 F3.00 
G01 X15.7 Y7.0 Z255 F3.00 
G01 X15.7 Y7.1 Z255 F3.00 
G01 X15.6 Y7.2 Z255 F3.00 
G01 X15.7 Y7.3 Z255 F3.00 
G01 X15.6 Y7.4 Z255 F3.00 
G01 X15.7 Y7.5 Z255 F3.00 
G01 X15.6 Y7.6 Z255 F3.00 
G01 X15.7 Y7.7 Z255 F3.00 
G01 X15.7 Y7.7 Z255 F3.00 
G00 X15.5 Y7.9 Z0 F50.00 

G01 X15.4 Y8.4 Z255 F3.00 
G01 X15.4 Y8.5 Z255 F3.00 
G01 X15.4 Y9.1 Z255 F3.00 
G00 X16.5 Y9.2 Z0 F50.00 

G01 X16.5 Y9.1 Z255 F3.00 
G01 X16.6 Y9.0 Z255 F3.00 
G01 X16.6 Y9.0 Z255 F3.00 
G00 X15.8 Y6.8 Z0 F50.00 

G01 X15.7 Y6.8 Z255 F3.00 
G01 X15.8 Y6.7 Z255 F3.00 
G01 X15.8 Y6.7 Z255 F3.00 
G00 X15.5 Y10.8 Z0 F50.00 

G01 X15.5 Y10.8 Z255 F3.00 
G00 X16.9 Y12.9 Z0 F50.00 

G01 X16.9 Y13.1 Z255 F3.00 
G01 X16.8 Y13.0 Z255 F3.00 
G01 X16.7 Y12.9 Z255 F3.00 
G00 X16.3 Y15.1 Z0 F50.00 

G01 X16.2 Y15.2 Z255 F3.00 
G01 X16.1 Y15.1 Z255 F3.00 
G01 X16.1 Y15.1 Z255 F3.00 
G00 X16.1 Y16.0 Z0 F50.00 

G01 X16.0 Y16.1 Z255 F3.00 
G01 X15.9 Y16.0 Z255 F3.00 
G01 X15.9 Y16.0 Z255 F3.00 
G00 X12.6 Y15.8 Z0 F50.00 

G01 X12.6 Y15.8 Z255 F3.00 
G00 X11.9 Y15.3 Z0 F50.00 

G01 X11.9 Y15.3 Z255 F3.00 
G00 X10.6 Y17.2 Z0 F50.00 

G01 X10.7 Y17.3 Z255 F3.00 
G00 X10.4 Y17.8 Z0 F50.00 

G01 X10.0 Y18.2 Z255 F3.00 
G00 X10.4 Y17.9 Z0 F50.00 

G01 X10.5 Y18.0 Z255 F3.00 
G01 X10.5 Y18.0 Z255 F3.00 
G00 X10.2 Y17.6 Z0 F50.00 

G01 X10.0 Y17.4 Z255 F3.00 
G00 X11.3 Y18.5 Z0 F50.00 

G01 X11.3 Y18.5 Z255 F3.00 
G00 X11.7 Y18.4 Z0 F50.00 

G01 X11.8 Y18.3 Z255 F3.00 
G01 X11.8 Y18.3 Z255 F3.00 
G00 X11.7 Y18.0 Z0 F50.00 

G01 X11.7 Y18.0 Z255 F3.00 
G00 X5.7 Y17.9 Z0 F50.00 

G01 X5.6 Y17.9 Z255 F3.00 
G01 X5.7 Y17.8 Z255 F3.00 
G01 X5.6 Y17.8 Z255 F3.00 
G01 X5.6 Y17.8 Z255 F3.00 
G00 X4.6 Y16.7 Z0 F50.00 

G01 X4.6 Y16.7 Z255 F3.00 
G00 X3.9 Y16.8 Z0 F50.00 

G01 X4.0 Y16.9 Z255 F3.00 
G01 X3.9 Y17.0 Z255 F3.00 
G01 X4.0 Y17.0 Z255 F3.00 
G01 X3.9 Y16.9 Z255 F3.00 
G01 X4.0 Y16.8 Z255 F3.00 
G01 X3.9 Y16.7 Z255 F3.00 
G01 X4.0 Y16.6 Z255 F3.00 
G01 X3.9 Y16.5 Z255 F3.00 
G01 X4.0 Y16.4 Z255 F3.00 
G01 X3.9 Y16.3 Z255 F3.00 
G01 X4.0 Y16.3 Z255 F3.00 
G01 X3.9 Y16.4 Z255 F3.00 
G01 X4.0 Y16.5 Z255 F3.00 
G01 X3.9 Y16.6 Z255 F3.00 
G01 X3.9 Y16.6 Z255 F3.00 
G00 X3.4 Y16.2 Z0 F50.00 

G01 X3.5 Y16.1 Z255 F3.00 
G01 X3.5 Y16.0 Z255 F3.00 
