/#############################################################/ 
/###########Gcode generated with PathImg.py V0.4##############/ 
/######written by Nick Sidney Lemberger aka Holysocks#########/ 
/#############################################################/ 

/Sylvanas4/ 
/laser_engraver(diode, 445nm)/ 



F100 


G00 X0 Y0 Z0 F100.00
G00 X37.62 Y9.405 Z0 F100.00 

G01 X37.525 Y9.5 Z255 F3.00 
G01 X37.62 Y9.595 Z255 F3.00 
G01 X37.525 Y9.69 Z255 F3.00 
G01 X37.62 Y9.785 Z255 F3.00 
G01 X37.525 Y9.88 Z255 F3.00 
G01 X37.62 Y9.975 Z255 F3.00 
G01 X37.525 Y9.975 Z255 F3.00 
G01 X37.62 Y10.07 Z255 F3.00 
G01 X37.62 Y10.165 Z255 F3.00 
G01 X37.525 Y10.26 Z255 F3.00 
G01 X37.525 Y10.45 Z255 F3.00 
G01 X37.43 Y10.545 Z255 F3.00 
G01 X37.525 Y10.64 Z255 F3.00 
G01 X37.43 Y10.735 Z255 F3.00 
G01 X37.525 Y10.83 Z255 F3.00 
G01 X37.43 Y10.925 Z255 F3.00 
G01 X37.525 Y11.02 Z255 F3.00 
G01 X37.43 Y11.115 Z255 F3.00 
G01 X37.525 Y11.21 Z255 F3.00 
G01 X37.43 Y11.305 Z255 F3.00 
G01 X37.525 Y11.4 Z255 F3.00 
G01 X37.43 Y11.495 Z255 F3.00 
G01 X37.525 Y11.59 Z255 F3.00 
G01 X37.43 Y11.685 Z255 F3.00 
G01 X37.525 Y11.685 Z255 F3.00 
G01 X37.62 Y11.78 Z255 F3.00 
G01 X37.62 Y11.875 Z255 F3.00 
G01 X37.525 Y12.065 Z255 F3.00 
G01 X37.62 Y12.16 Z255 F3.00 
G01 X37.525 Y12.255 Z255 F3.00 
G01 X37.62 Y12.35 Z255 F3.00 
G01 X37.525 Y12.445 Z255 F3.00 
G01 X37.62 Y12.54 Z255 F3.00 
G01 X37.525 Y12.635 Z255 F3.00 
G01 X37.62 Y12.73 Z255 F3.00 
G01 X37.525 Y12.825 Z255 F3.00 
G01 X37.62 Y12.92 Z255 F3.00 
G01 X37.525 Y13.015 Z255 F3.00 
G01 X37.62 Y13.11 Z255 F3.00 
G01 X37.525 Y13.205 Z255 F3.00 
G01 X37.62 Y13.3 Z255 F3.00 
G01 X37.525 Y13.3 Z255 F3.00 
G01 X37.62 Y13.395 Z255 F3.00 
G01 X37.62 Y13.49 Z255 F3.00 
G01 X37.715 Y13.585 Z255 F3.00 
G01 X37.62 Y13.68 Z255 F3.00 
G01 X37.715 Y13.775 Z255 F3.00 
G01 X37.62 Y13.87 Z255 F3.00 
G01 X37.715 Y13.965 Z255 F3.00 
G01 X37.62 Y14.06 Z255 F3.00 
G01 X37.715 Y14.155 Z255 F3.00 
G01 X37.905 Y14.44 Z255 F3.00 
G01 X38.0 Y14.725 Z255 F3.00 
G01 X38.0 Y14.82 Z255 F3.00 
G01 X37.905 Y14.915 Z255 F3.00 
G01 X38.0 Y15.01 Z255 F3.00 
G01 X38.0 Y14.915 Z255 F3.00 
G01 X38.0 Y14.915 Z255 F3.00 
G00 X37.715 Y15.105 Z0 F100.00 

G01 X37.81 Y15.2 Z255 F3.00 
G01 X37.81 Y15.39 Z255 F3.00 
G01 X37.905 Y15.485 Z255 F3.00 
G01 X37.81 Y15.58 Z255 F3.00 
G01 X37.905 Y15.675 Z255 F3.00 
G01 X37.81 Y15.77 Z255 F3.00 
G01 X37.905 Y15.865 Z255 F3.00 
G01 X37.81 Y15.96 Z255 F3.00 
G01 X37.905 Y16.055 Z255 F3.00 
G01 X37.905 Y16.245 Z255 F3.00 
G01 X38.0 Y16.34 Z255 F3.00 
G01 X37.905 Y16.435 Z255 F3.00 
G01 X38.0 Y16.53 Z255 F3.00 
G01 X37.905 Y16.625 Z255 F3.00 
G01 X38.0 Y16.72 Z255 F3.00 
G01 X37.905 Y16.815 Z255 F3.00 
G01 X38.0 Y16.91 Z255 F3.00 
G01 X37.905 Y17.005 Z255 F3.00 
G01 X38.0 Y17.1 Z255 F3.00 
G01 X37.905 Y17.195 Z255 F3.00 
G01 X38.0 Y17.29 Z255 F3.00 
G01 X37.905 Y17.385 Z255 F3.00 
G01 X38.0 Y17.48 Z255 F3.00 
G01 X37.905 Y17.575 Z255 F3.00 
G01 X38.0 Y17.67 Z255 F3.00 
G01 X37.905 Y17.765 Z255 F3.00 
G01 X38.0 Y17.86 Z255 F3.00 
G01 X37.905 Y17.955 Z255 F3.00 
G01 X38.0 Y18.05 Z255 F3.00 
G01 X37.905 Y18.145 Z255 F3.00 
G01 X38.0 Y18.24 Z255 F3.00 
G01 X37.905 Y18.335 Z255 F3.00 
G01 X38.0 Y18.43 Z255 F3.00 
G01 X37.905 Y18.525 Z255 F3.00 
G01 X38.0 Y18.525 Z255 F3.00 
G01 X38.095 Y18.62 Z255 F3.00 
G01 X38.095 Y18.715 Z255 F3.00 
G01 X38.0 Y19.95 Z255 F3.00 
G01 X38.095 Y20.045 Z255 F3.00 
G01 X38.0 Y20.14 Z255 F3.00 
G01 X38.095 Y20.14 Z255 F3.00 
G01 X38.19 Y20.235 Z255 F3.00 
G01 X38.285 Y20.14 Z255 F3.00 
G01 X38.19 Y20.045 Z255 F3.00 
G01 X38.095 Y19.95 Z255 F3.00 
G00 X37.81 Y19.95 Z0 F100.00 

G01 X37.715 Y20.235 Z255 F3.00 
G01 X37.62 Y20.33 Z255 F3.00 
G01 X37.525 Y20.615 Z255 F3.00 
G01 X37.43 Y20.615 Z255 F3.00 
G01 X37.525 Y20.71 Z255 F3.00 
G01 X37.43 Y20.805 Z255 F3.00 
G01 X37.335 Y20.71 Z255 F3.00 
G01 X37.335 Y20.805 Z255 F3.00 
G01 X37.43 Y20.9 Z255 F3.00 
G01 X37.335 Y20.995 Z255 F3.00 
G01 X37.24 Y21.28 Z255 F3.00 
G01 X37.145 Y21.28 Z255 F3.00 
G01 X37.24 Y21.375 Z255 F3.00 
G01 X37.145 Y21.47 Z255 F3.00 
G01 X37.05 Y21.375 Z255 F3.00 
G01 X36.955 Y21.47 Z255 F3.00 
G01 X36.955 Y21.565 Z255 F3.00 
G01 X37.05 Y21.66 Z255 F3.00 
G01 X37.145 Y21.565 Z255 F3.00 
G01 X37.145 Y21.565 Z255 F3.00 
G00 X36.955 Y21.85 Z0 F100.00 

G01 X36.86 Y21.755 Z255 F3.00 
G01 X36.765 Y21.85 Z255 F3.00 
G01 X36.765 Y21.945 Z255 F3.00 
G01 X36.86 Y22.04 Z255 F3.00 
G01 X36.955 Y21.945 Z255 F3.00 
G01 X36.955 Y21.945 Z255 F3.00 
G00 X36.765 Y22.23 Z0 F100.00 

G01 X36.67 Y22.135 Z255 F3.00 
G01 X36.575 Y22.23 Z255 F3.00 
G01 X36.575 Y22.325 Z255 F3.00 
G01 X36.67 Y22.42 Z255 F3.00 
G01 X36.765 Y22.325 Z255 F3.00 
G01 X36.765 Y22.325 Z255 F3.00 
G00 X36.575 Y22.61 Z0 F100.00 

G01 X36.385 Y22.61 Z255 F3.00 
G01 X36.48 Y22.515 Z255 F3.00 
G01 X36.48 Y22.42 Z255 F3.00 
G01 X36.48 Y22.42 Z255 F3.00 
G00 X36.48 Y22.8 Z0 F100.00 

G01 X36.385 Y22.895 Z255 F3.00 
G01 X36.29 Y22.8 Z255 F3.00 
G01 X36.29 Y22.895 Z255 F3.00 
G01 X36.385 Y22.99 Z255 F3.00 
G01 X36.29 Y23.085 Z255 F3.00 
G01 X36.195 Y22.99 Z255 F3.00 
G01 X36.195 Y23.085 Z255 F3.00 
G01 X36.29 Y23.18 Z255 F3.00 
G01 X36.195 Y23.275 Z255 F3.00 
G01 X36.005 Y23.655 Z255 F3.00 
G01 X35.91 Y23.75 Z255 F3.00 
G01 X35.815 Y24.035 Z255 F3.00 
G01 X35.72 Y24.13 Z255 F3.00 
G01 X35.625 Y24.13 Z255 F3.00 
G01 X35.72 Y24.225 Z255 F3.00 
G01 X35.625 Y24.32 Z255 F3.00 
G01 X35.435 Y24.7 Z255 F3.00 
G01 X35.34 Y24.795 Z255 F3.00 
G01 X35.15 Y25.175 Z255 F3.00 
G01 X35.055 Y25.27 Z255 F3.00 
G01 X34.865 Y25.65 Z255 F3.00 
G01 X34.77 Y25.745 Z255 F3.00 
G01 X34.77 Y25.935 Z255 F3.00 
G01 X34.675 Y26.03 Z255 F3.00 
G01 X34.58 Y25.935 Z255 F3.00 
G01 X34.58 Y26.03 Z255 F3.00 
G01 X34.675 Y26.125 Z255 F3.00 
G01 X34.675 Y26.22 Z255 F3.00 
G01 X34.58 Y26.41 Z255 F3.00 
G01 X34.485 Y26.315 Z255 F3.00 
G01 X34.39 Y26.41 Z255 F3.00 
G01 X34.39 Y26.505 Z255 F3.00 
G01 X34.485 Y26.695 Z255 F3.00 
G01 X34.58 Y26.6 Z255 F3.00 
G01 X34.58 Y26.505 Z255 F3.00 
G01 X34.58 Y26.505 Z255 F3.00 
G00 X34.485 Y26.79 Z0 F100.00 

G01 X34.485 Y26.885 Z255 F3.00 
G01 X34.39 Y26.98 Z255 F3.00 
G01 X34.39 Y27.17 Z255 F3.00 
G01 X34.295 Y27.265 Z255 F3.00 
G01 X34.295 Y27.455 Z255 F3.00 
G01 X34.2 Y27.55 Z255 F3.00 
G01 X34.2 Y27.74 Z255 F3.00 
G01 X34.105 Y27.835 Z255 F3.00 
G01 X34.105 Y28.025 Z255 F3.00 
G01 X34.01 Y28.12 Z255 F3.00 
G01 X34.105 Y28.215 Z255 F3.00 
G01 X34.01 Y28.31 Z255 F3.00 
G01 X33.915 Y28.215 Z255 F3.00 
G01 X33.915 Y28.31 Z255 F3.00 
G01 X34.01 Y28.405 Z255 F3.00 
G01 X33.915 Y28.5 Z255 F3.00 
G01 X33.82 Y28.405 Z255 F3.00 
G01 X33.82 Y28.5 Z255 F3.00 
G01 X33.915 Y28.595 Z255 F3.00 
G01 X33.82 Y28.69 Z255 F3.00 
G01 X33.725 Y28.595 Z255 F3.00 
G01 X33.725 Y28.69 Z255 F3.00 
G01 X33.82 Y28.785 Z255 F3.00 
G01 X33.725 Y28.88 Z255 F3.00 
G01 X33.63 Y28.785 Z255 F3.00 
G01 X33.535 Y28.785 Z255 F3.00 
G01 X33.44 Y28.88 Z255 F3.00 
G01 X33.535 Y28.975 Z255 F3.00 
G01 X33.725 Y28.975 Z255 F3.00 
G01 X33.725 Y28.975 Z255 F3.00 
G00 X33.44 Y29.07 Z0 F100.00 

G01 X33.345 Y29.165 Z255 F3.00 
G01 X33.25 Y29.165 Z255 F3.00 
G01 X33.155 Y29.26 Z255 F3.00 
G01 X33.25 Y29.355 Z255 F3.00 
G01 X33.345 Y29.64 Z255 F3.00 
G01 X33.44 Y29.735 Z255 F3.00 
G01 X33.345 Y29.83 Z255 F3.00 
G01 X33.44 Y29.925 Z255 F3.00 
G01 X33.44 Y30.115 Z255 F3.00 
G01 X33.345 Y30.02 Z255 F3.00 
G01 X33.345 Y29.925 Z255 F3.00 
G01 X33.44 Y29.83 Z255 F3.00 
G01 X33.345 Y29.735 Z255 F3.00 
G01 X33.44 Y29.64 Z255 F3.00 
G01 X33.345 Y29.545 Z255 F3.00 
G01 X33.44 Y29.45 Z255 F3.00 
G01 X33.44 Y29.355 Z255 F3.00 
G01 X33.535 Y29.26 Z255 F3.00 
G01 X33.535 Y29.26 Z255 F3.00 
G00 X33.06 Y29.26 Z0 F100.00 

G01 X32.965 Y29.355 Z255 F3.00 
G01 X32.775 Y29.355 Z255 F3.00 
G01 X32.68 Y29.45 Z255 F3.00 
G01 X32.49 Y29.45 Z255 F3.00 
G01 X32.395 Y29.545 Z255 F3.00 
G01 X32.205 Y29.545 Z255 F3.00 
G01 X32.11 Y29.64 Z255 F3.00 
G01 X31.92 Y29.64 Z255 F3.00 
G01 X31.825 Y29.735 Z255 F3.00 
G01 X31.635 Y29.735 Z255 F3.00 
G01 X31.54 Y29.83 Z255 F3.00 
G01 X31.35 Y29.83 Z255 F3.00 
G01 X31.255 Y29.925 Z255 F3.00 
G01 X30.97 Y30.02 Z255 F3.00 
G01 X30.875 Y30.115 Z255 F3.00 
G01 X30.59 Y30.21 Z255 F3.00 
G01 X30.685 Y30.115 Z255 F3.00 
G01 X30.78 Y30.115 Z255 F3.00 
G01 X30.875 Y30.21 Z255 F3.00 
G01 X30.97 Y30.115 Z255 F3.00 
G01 X31.255 Y30.02 Z255 F3.00 
G01 X31.35 Y29.925 Z255 F3.00 
G01 X31.445 Y29.83 Z255 F3.00 
G00 X31.73 Y29.735 Z0 F100.00 

G01 X31.73 Y29.735 Z255 F3.00 
G00 X32.015 Y29.64 Z0 F100.00 

G01 X32.015 Y29.64 Z255 F3.00 
G00 X32.3 Y29.545 Z0 F100.00 

G01 X32.49 Y29.545 Z255 F3.00 
G01 X32.585 Y29.45 Z255 F3.00 
G01 X32.68 Y29.545 Z255 F3.00 
G01 X32.775 Y29.45 Z255 F3.00 
G01 X32.965 Y29.45 Z255 F3.00 
G01 X33.06 Y29.355 Z255 F3.00 
G01 X33.06 Y29.355 Z255 F3.00 
G00 X33.155 Y28.88 Z0 F100.00 

G01 X33.345 Y28.785 Z255 F3.00 
G01 X33.25 Y28.69 Z255 F3.00 
G01 X33.155 Y28.69 Z255 F3.00 
G01 X32.87 Y28.785 Z255 F3.00 
G01 X32.965 Y28.88 Z255 F3.00 
G01 X32.87 Y28.88 Z255 F3.00 
G01 X32.775 Y28.785 Z255 F3.00 
G01 X32.585 Y28.785 Z255 F3.00 
G01 X32.49 Y28.69 Z255 F3.00 
G01 X32.395 Y28.785 Z255 F3.00 
G01 X32.3 Y28.69 Z255 F3.00 
G01 X32.205 Y28.785 Z255 F3.00 
G01 X32.11 Y28.69 Z255 F3.00 
G01 X32.015 Y28.785 Z255 F3.00 
G01 X31.92 Y28.69 Z255 F3.00 
G01 X31.825 Y28.785 Z255 F3.00 
G01 X31.635 Y28.88 Z255 F3.00 
G01 X31.54 Y28.785 Z255 F3.00 
G01 X31.635 Y28.69 Z255 F3.00 
G01 X31.73 Y28.69 Z255 F3.00 
G01 X31.92 Y28.785 Z255 F3.00 
G01 X32.015 Y28.69 Z255 F3.00 
G01 X32.11 Y28.785 Z255 F3.00 
G01 X32.205 Y28.69 Z255 F3.00 
G01 X32.3 Y28.785 Z255 F3.00 
G01 X32.395 Y28.69 Z255 F3.00 
G01 X32.49 Y28.785 Z255 F3.00 
G01 X32.585 Y28.69 Z255 F3.00 
G01 X32.68 Y28.785 Z255 F3.00 
G01 X32.775 Y28.88 Z255 F3.00 
G00 X33.44 Y28.785 Z0 F100.00 

G01 X33.44 Y28.785 Z255 F3.00 
G00 X34.01 Y28.025 Z0 F100.00 

G01 X34.105 Y27.93 Z255 F3.00 
G01 X34.105 Y27.74 Z255 F3.00 
G01 X34.2 Y27.645 Z255 F3.00 
G01 X34.105 Y27.55 Z255 F3.00 
G01 X34.2 Y27.455 Z255 F3.00 
G01 X34.2 Y27.265 Z255 F3.00 
G01 X34.2 Y27.17 Z255 F3.00 
G01 X34.2 Y27.17 Z255 F3.00 
G00 X34.39 Y27.075 Z0 F100.00 

G01 X34.39 Y27.075 Z255 F3.00 
G00 X34.295 Y26.79 Z0 F100.00 

G01 X34.295 Y26.79 Z255 F3.00 
G00 X34.485 Y26.125 Z0 F100.00 

G01 X34.485 Y26.125 Z255 F3.00 
G00 X34.675 Y25.745 Z0 F100.00 

G01 X34.77 Y25.65 Z255 F3.00 
G01 X34.865 Y25.365 Z255 F3.00 
G01 X34.96 Y25.27 Z255 F3.00 
G01 X34.96 Y25.175 Z255 F3.00 
G01 X34.96 Y25.175 Z255 F3.00 
G00 X35.245 Y24.985 Z0 F100.00 

G01 X35.15 Y24.89 Z255 F3.00 
G01 X35.245 Y24.795 Z255 F3.00 
G01 X35.245 Y24.7 Z255 F3.00 
G01 X35.245 Y24.7 Z255 F3.00 
G00 X35.53 Y24.51 Z0 F100.00 

G01 X35.435 Y24.415 Z255 F3.00 
G01 X35.53 Y24.32 Z255 F3.00 
G01 X35.53 Y24.225 Z255 F3.00 
G01 X35.53 Y24.225 Z255 F3.00 
G00 X35.815 Y23.94 Z0 F100.00 

G01 X35.815 Y23.75 Z255 F3.00 
G01 X35.91 Y23.655 Z255 F3.00 
G01 X36.005 Y23.37 Z255 F3.00 
G01 X36.1 Y23.275 Z255 F3.00 
G01 X36.1 Y23.18 Z255 F3.00 
G01 X36.1 Y23.18 Z255 F3.00 
G00 X37.335 Y21.09 Z0 F100.00 

G01 X37.24 Y20.995 Z255 F3.00 
G01 X37.24 Y20.9 Z255 F3.00 
G01 X37.24 Y20.9 Z255 F3.00 
G00 X37.62 Y20.425 Z0 F100.00 

G01 X37.525 Y20.33 Z255 F3.00 
G01 X37.62 Y20.235 Z255 F3.00 
G01 X37.715 Y19.95 Z255 F3.00 
G01 X37.715 Y19.76 Z255 F3.00 
G01 X37.905 Y19.475 Z255 F3.00 
G01 X37.905 Y18.62 Z255 F3.00 
G00 X38.0 Y18.335 Z0 F100.00 

G01 X37.905 Y18.24 Z255 F3.00 
G01 X38.0 Y18.145 Z255 F3.00 
G01 X37.905 Y18.05 Z255 F3.00 
G01 X38.0 Y17.955 Z255 F3.00 
G01 X37.905 Y17.86 Z255 F3.00 
G01 X38.0 Y17.765 Z255 F3.00 
G01 X37.905 Y17.67 Z255 F3.00 
G01 X38.0 Y17.575 Z255 F3.00 
G01 X37.905 Y17.48 Z255 F3.00 
G01 X38.0 Y17.385 Z255 F3.00 
G01 X37.905 Y17.29 Z255 F3.00 
G01 X38.0 Y17.195 Z255 F3.00 
G01 X37.905 Y17.1 Z255 F3.00 
G01 X38.0 Y17.005 Z255 F3.00 
G01 X37.905 Y16.91 Z255 F3.00 
G01 X38.0 Y16.815 Z255 F3.00 
G01 X37.905 Y16.72 Z255 F3.00 
G01 X38.0 Y16.625 Z255 F3.00 
G01 X37.905 Y16.53 Z255 F3.00 
G01 X38.0 Y16.435 Z255 F3.00 
G01 X37.905 Y16.34 Z255 F3.00 
G01 X38.0 Y16.245 Z255 F3.00 
G01 X37.905 Y16.15 Z255 F3.00 
G01 X38.0 Y16.055 Z255 F3.00 
G01 X38.19 Y16.055 Z255 F3.00 
G01 X38.19 Y16.15 Z255 F3.00 
G01 X38.285 Y16.53 Z255 F3.00 
G01 X38.19 Y16.625 Z255 F3.00 
G01 X38.285 Y16.72 Z255 F3.00 
G01 X38.19 Y16.815 Z255 F3.00 
G01 X38.285 Y16.91 Z255 F3.00 
G01 X38.19 Y17.005 Z255 F3.00 
G01 X38.285 Y17.1 Z255 F3.00 
G01 X38.19 Y17.1 Z255 F3.00 
G01 X38.285 Y17.195 Z255 F3.00 
G01 X38.285 Y17.29 Z255 F3.00 
G01 X38.38 Y17.385 Z255 F3.00 
G01 X38.285 Y17.48 Z255 F3.00 
G01 X38.38 Y17.575 Z255 F3.00 
G01 X38.285 Y17.575 Z255 F3.00 
G01 X38.38 Y17.67 Z255 F3.00 
G01 X38.38 Y17.86 Z255 F3.00 
G01 X38.475 Y17.955 Z255 F3.00 
G01 X38.475 Y18.145 Z255 F3.00 
G01 X38.57 Y18.24 Z255 F3.00 
G01 X38.475 Y18.335 Z255 F3.00 
G01 X38.57 Y18.43 Z255 F3.00 
G01 X38.57 Y18.62 Z255 F3.00 
G01 X38.665 Y18.715 Z255 F3.00 
G01 X38.57 Y18.715 Z255 F3.00 
G01 X38.665 Y18.81 Z255 F3.00 
G01 X38.665 Y18.81 Z255 F3.00 
G00 X38.57 Y18.525 Z0 F100.00 

G01 X38.57 Y18.335 Z255 F3.00 
G01 X38.475 Y18.24 Z255 F3.00 
G01 X38.57 Y18.145 Z255 F3.00 
G01 X38.57 Y18.145 Z255 F3.00 
G00 X38.38 Y17.955 Z0 F100.00 

G01 X38.475 Y17.86 Z255 F3.00 
G01 X38.38 Y17.765 Z255 F3.00 
G01 X38.38 Y17.765 Z255 F3.00 
G00 X38.285 Y17.385 Z0 F100.00 

G01 X38.285 Y17.385 Z255 F3.00 
G00 X38.19 Y16.91 Z0 F100.00 

G01 X38.285 Y16.815 Z255 F3.00 
G01 X38.19 Y16.72 Z255 F3.00 
G01 X38.285 Y16.625 Z255 F3.00 
G01 X38.475 Y16.53 Z255 F3.00 
G01 X38.665 Y16.625 Z255 F3.00 
G01 X38.665 Y16.815 Z255 F3.00 
G01 X38.76 Y16.91 Z255 F3.00 
G01 X38.665 Y17.005 Z255 F3.00 
G01 X38.76 Y17.1 Z255 F3.00 
G01 X38.665 Y17.195 Z255 F3.00 
G01 X38.76 Y17.29 Z255 F3.00 
G01 X38.665 Y17.29 Z255 F3.00 
G01 X38.76 Y17.385 Z255 F3.00 
G01 X38.76 Y17.48 Z255 F3.00 
G01 X38.76 Y18.05 Z255 F3.00 
G00 X39.52 Y18.05 Z0 F100.00 

G01 X39.615 Y18.145 Z255 F3.00 
G01 X39.71 Y18.05 Z255 F3.00 
G01 X39.71 Y17.955 Z255 F3.00 
G01 X39.615 Y17.86 Z255 F3.00 
G01 X39.52 Y17.955 Z255 F3.00 
G01 X39.52 Y17.955 Z255 F3.00 
G00 X39.71 Y17.86 Z0 F100.00 

G01 X39.805 Y17.765 Z255 F3.00 
G01 X39.71 Y17.67 Z255 F3.00 
G01 X39.805 Y17.67 Z255 F3.00 
G01 X39.9 Y17.575 Z255 F3.00 
G01 X39.805 Y17.48 Z255 F3.00 
G01 X39.9 Y17.385 Z255 F3.00 
G01 X39.9 Y17.195 Z255 F3.00 
G01 X39.995 Y17.195 Z255 F3.00 
G01 X40.09 Y17.1 Z255 F3.00 
G01 X40.09 Y17.005 Z255 F3.00 
G01 X39.995 Y16.91 Z255 F3.00 
G01 X40.09 Y16.815 Z255 F3.00 
G01 X40.09 Y16.72 Z255 F3.00 
G01 X40.185 Y16.815 Z255 F3.00 
G01 X40.09 Y16.91 Z255 F3.00 
G01 X40.09 Y16.91 Z255 F3.00 
G00 X39.805 Y16.91 Z0 F100.00 

G01 X39.805 Y17.005 Z255 F3.00 
G01 X39.9 Y17.1 Z255 F3.00 
G01 X39.9 Y17.1 Z255 F3.00 
G00 X39.805 Y17.385 Z0 F100.00 

G01 X39.9 Y17.48 Z255 F3.00 
G01 X39.9 Y17.48 Z255 F3.00 
G00 X39.52 Y18.335 Z0 F100.00 

G01 X39.425 Y18.24 Z255 F3.00 
G01 X39.425 Y18.335 Z255 F3.00 
G01 X39.52 Y18.43 Z255 F3.00 
G01 X39.425 Y18.525 Z255 F3.00 
G01 X39.33 Y18.43 Z255 F3.00 
G01 X39.33 Y18.525 Z255 F3.00 
G01 X39.425 Y18.62 Z255 F3.00 
G01 X39.425 Y18.715 Z255 F3.00 
G01 X39.33 Y18.81 Z255 F3.00 
G01 X39.235 Y18.715 Z255 F3.00 
G01 X39.14 Y18.81 Z255 F3.00 
G01 X39.14 Y18.905 Z255 F3.00 
G01 X39.235 Y19.0 Z255 F3.00 
G01 X39.33 Y18.905 Z255 F3.00 
G01 X39.33 Y18.905 Z255 F3.00 
G00 X39.14 Y19.19 Z0 F100.00 

G01 X38.95 Y19.57 Z255 F3.00 
G01 X38.855 Y19.665 Z255 F3.00 
G01 X38.665 Y20.045 Z255 F3.00 
G01 X38.57 Y20.14 Z255 F3.00 
G01 X38.475 Y20.425 Z255 F3.00 
G01 X38.38 Y20.52 Z255 F3.00 
G01 X38.285 Y20.71 Z255 F3.00 
G01 X38.19 Y20.805 Z255 F3.00 
G01 X38.0 Y21.185 Z255 F3.00 
G01 X37.905 Y21.28 Z255 F3.00 
G01 X37.81 Y21.47 Z255 F3.00 
G01 X37.715 Y21.565 Z255 F3.00 
G01 X37.715 Y21.66 Z255 F3.00 
G01 X37.62 Y21.755 Z255 F3.00 
G01 X37.62 Y21.85 Z255 F3.00 
G01 X37.525 Y21.945 Z255 F3.00 
G01 X37.525 Y22.04 Z255 F3.00 
G01 X37.43 Y22.135 Z255 F3.00 
G01 X37.43 Y22.23 Z255 F3.00 
G01 X37.335 Y22.325 Z255 F3.00 
G01 X37.335 Y22.325 Z255 F3.00 
G00 X37.905 Y21.185 Z0 F100.00 

G01 X38.095 Y20.995 Z255 F3.00 
G00 X38.095 Y20.71 Z0 F100.00 

G01 X38.0 Y20.52 Z255 F3.00 
G01 X38.0 Y20.425 Z255 F3.00 
G01 X38.095 Y20.33 Z255 F3.00 
G01 X38.19 Y20.425 Z255 F3.00 
G01 X38.38 Y20.425 Z255 F3.00 
G01 X38.57 Y20.425 Z255 F3.00 
G01 X38.76 Y20.52 Z255 F3.00 
G01 X38.855 Y20.615 Z255 F3.00 
G01 X38.95 Y20.615 Z255 F3.00 
G01 X39.045 Y20.71 Z255 F3.00 
G01 X39.235 Y20.805 Z255 F3.00 
G01 X39.33 Y20.9 Z255 F3.00 
G01 X39.425 Y20.9 Z255 F3.00 
G01 X39.52 Y20.995 Z255 F3.00 
G01 X39.615 Y20.995 Z255 F3.00 
G01 X39.71 Y21.09 Z255 F3.00 
G01 X39.805 Y21.09 Z255 F3.00 
G01 X39.9 Y21.185 Z255 F3.00 
G01 X39.995 Y21.185 Z255 F3.00 
G01 X39.9 Y21.28 Z255 F3.00 
G01 X39.9 Y21.375 Z255 F3.00 
G01 X39.805 Y21.47 Z255 F3.00 
G01 X39.71 Y21.66 Z255 F3.00 
G01 X39.615 Y21.755 Z255 F3.00 
G01 X39.615 Y21.85 Z255 F3.00 
G01 X39.52 Y21.945 Z255 F3.00 
G01 X39.52 Y22.04 Z255 F3.00 
G01 X39.425 Y22.135 Z255 F3.00 
G01 X39.425 Y22.23 Z255 F3.00 
G01 X39.33 Y22.325 Z255 F3.00 
G01 X39.33 Y22.42 Z255 F3.00 
G01 X39.235 Y22.515 Z255 F3.00 
G01 X39.235 Y22.61 Z255 F3.00 
G01 X39.14 Y22.705 Z255 F3.00 
G01 X39.14 Y22.8 Z255 F3.00 
G01 X39.045 Y22.895 Z255 F3.00 
G01 X39.045 Y22.99 Z255 F3.00 
G01 X38.95 Y23.085 Z255 F3.00 
G01 X38.95 Y23.18 Z255 F3.00 
G01 X38.855 Y23.275 Z255 F3.00 
G01 X38.855 Y23.37 Z255 F3.00 
G01 X38.76 Y23.465 Z255 F3.00 
G01 X38.76 Y23.56 Z255 F3.00 
G01 X38.665 Y23.655 Z255 F3.00 
G01 X38.57 Y23.845 Z255 F3.00 
G01 X38.475 Y23.94 Z255 F3.00 
G01 X38.57 Y23.94 Z255 F3.00 
G01 X38.475 Y24.035 Z255 F3.00 
G01 X38.475 Y24.13 Z255 F3.00 
G01 X38.38 Y24.225 Z255 F3.00 
G01 X38.285 Y24.415 Z255 F3.00 
G01 X38.19 Y24.51 Z255 F3.00 
G01 X38.285 Y24.51 Z255 F3.00 
G01 X38.19 Y24.605 Z255 F3.00 
G01 X38.19 Y24.7 Z255 F3.00 
G01 X38.095 Y24.795 Z255 F3.00 
G01 X38.095 Y24.89 Z255 F3.00 
G01 X38.0 Y24.985 Z255 F3.00 
G01 X38.0 Y25.08 Z255 F3.00 
G01 X37.905 Y25.175 Z255 F3.00 
G01 X37.905 Y25.27 Z255 F3.00 
G01 X37.81 Y25.365 Z255 F3.00 
G01 X37.81 Y25.46 Z255 F3.00 
G01 X37.81 Y25.46 Z255 F3.00 
G00 X37.62 Y26.03 Z0 F100.00 

G01 X37.715 Y26.22 Z255 F3.00 
G01 X37.62 Y26.315 Z255 F3.00 
G01 X37.715 Y26.41 Z255 F3.00 
G01 X37.62 Y26.41 Z255 F3.00 
G01 X37.715 Y26.505 Z255 F3.00 
G01 X37.715 Y26.6 Z255 F3.00 
G01 X37.81 Y26.695 Z255 F3.00 
G01 X37.715 Y26.79 Z255 F3.00 
G01 X37.81 Y26.885 Z255 F3.00 
G01 X37.715 Y26.885 Z255 F3.00 
G01 X37.81 Y26.98 Z255 F3.00 
G01 X37.81 Y27.075 Z255 F3.00 
G01 X37.905 Y27.265 Z255 F3.00 
G01 X37.81 Y27.36 Z255 F3.00 
G01 X37.905 Y27.455 Z255 F3.00 
G01 X37.905 Y27.55 Z255 F3.00 
G01 X38.0 Y27.645 Z255 F3.00 
G01 X37.905 Y27.74 Z255 F3.00 
G01 X38.0 Y27.835 Z255 F3.00 
G01 X37.905 Y27.93 Z255 F3.00 
G01 X38.0 Y28.025 Z255 F3.00 
G01 X38.0 Y28.12 Z255 F3.00 
G01 X38.095 Y28.215 Z255 F3.00 
G01 X38.0 Y28.31 Z255 F3.00 
G01 X38.095 Y28.405 Z255 F3.00 
G01 X38.0 Y28.405 Z255 F3.00 
G01 X38.095 Y28.5 Z255 F3.00 
G01 X38.095 Y28.595 Z255 F3.00 
G01 X38.19 Y28.69 Z255 F3.00 
G01 X38.095 Y28.785 Z255 F3.00 
G01 X38.19 Y28.88 Z255 F3.00 
G01 X38.095 Y28.88 Z255 F3.00 
G01 X38.19 Y28.975 Z255 F3.00 
G01 X38.19 Y29.07 Z255 F3.00 
G01 X38.285 Y29.355 Z255 F3.00 
G01 X38.19 Y29.355 Z255 F3.00 
G01 X38.285 Y29.45 Z255 F3.00 
G01 X38.285 Y29.545 Z255 F3.00 
G01 X38.38 Y30.495 Z255 F3.00 
G01 X38.285 Y30.59 Z255 F3.00 
G01 X38.38 Y30.685 Z255 F3.00 
G01 X38.285 Y30.78 Z255 F3.00 
G01 X38.38 Y30.78 Z255 F3.00 
G01 X38.285 Y30.875 Z255 F3.00 
G01 X38.285 Y30.97 Z255 F3.00 
G01 X38.38 Y31.065 Z255 F3.00 
G01 X38.475 Y31.255 Z255 F3.00 
G01 X38.38 Y31.35 Z255 F3.00 
G01 X38.285 Y31.255 Z255 F3.00 
G01 X38.285 Y31.35 Z255 F3.00 
G01 X38.38 Y31.445 Z255 F3.00 
G01 X38.285 Y31.54 Z255 F3.00 
G01 X38.19 Y31.825 Z255 F3.00 
G01 X38.095 Y31.92 Z255 F3.00 
G01 X38.095 Y32.11 Z255 F3.00 
G01 X38.0 Y32.205 Z255 F3.00 
G01 X37.62 Y32.775 Z255 F3.00 
G01 X37.525 Y32.87 Z255 F3.00 
G01 X36.955 Y33.63 Z255 F3.00 
G01 X36.86 Y33.725 Z255 F3.00 
G01 X36.575 Y34.2 Z255 F3.00 
G01 X36.765 Y34.2 Z255 F3.00 
G01 X36.955 Y34.2 Z255 F3.00 
G01 X37.05 Y34.105 Z255 F3.00 
G01 X37.525 Y33.725 Z255 F3.00 
G01 X37.62 Y33.82 Z255 F3.00 
G01 X37.62 Y34.01 Z255 F3.00 
G01 X37.335 Y34.485 Z255 F3.00 
G01 X37.24 Y34.58 Z255 F3.00 
G01 X37.145 Y34.865 Z255 F3.00 
G01 X37.05 Y34.96 Z255 F3.00 
G01 X36.955 Y34.865 Z255 F3.00 
G01 X36.955 Y34.96 Z255 F3.00 
G01 X37.05 Y35.055 Z255 F3.00 
G01 X36.955 Y35.15 Z255 F3.00 
G01 X36.86 Y35.055 Z255 F3.00 
G01 X36.86 Y35.15 Z255 F3.00 
G01 X36.955 Y35.245 Z255 F3.00 
G01 X36.86 Y35.34 Z255 F3.00 
G01 X36.765 Y35.625 Z255 F3.00 
G01 X36.67 Y35.625 Z255 F3.00 
G01 X36.765 Y35.72 Z255 F3.00 
G01 X36.67 Y35.815 Z255 F3.00 
G01 X36.575 Y35.72 Z255 F3.00 
G01 X36.48 Y35.72 Z255 F3.00 
G01 X36.385 Y35.815 Z255 F3.00 
G01 X36.1 Y35.91 Z255 F3.00 
G01 X36.195 Y35.815 Z255 F3.00 
G01 X36.29 Y35.815 Z255 F3.00 
G01 X36.385 Y35.91 Z255 F3.00 
G01 X36.575 Y36.195 Z255 F3.00 
G01 X36.48 Y36.385 Z255 F3.00 
G01 X36.48 Y36.48 Z255 F3.00 
G01 X36.385 Y36.67 Z255 F3.00 
G01 X36.385 Y36.86 Z255 F3.00 
G01 X36.29 Y36.955 Z255 F3.00 
G01 X36.385 Y37.05 Z255 F3.00 
G01 X36.385 Y37.145 Z255 F3.00 
G01 X36.29 Y37.525 Z255 F3.00 
G01 X36.29 Y37.715 Z255 F3.00 
G01 X36.195 Y37.81 Z255 F3.00 
G01 X36.29 Y37.905 Z255 F3.00 
G01 X36.195 Y38.0 Z255 F3.00 
G01 X36.29 Y38.095 Z255 F3.00 
G01 X36.29 Y38.285 Z255 F3.00 
G01 X36.385 Y38.38 Z255 F3.00 
G01 X36.29 Y38.38 Z255 F3.00 
G01 X36.385 Y38.475 Z255 F3.00 
G01 X36.48 Y38.76 Z255 F3.00 
G01 X36.575 Y38.855 Z255 F3.00 
G01 X36.67 Y38.855 Z255 F3.00 
G01 X36.765 Y38.95 Z255 F3.00 
G01 X36.955 Y38.95 Z255 F3.00 
G01 X37.05 Y39.045 Z255 F3.00 
G01 X37.05 Y39.14 Z255 F3.00 
G01 X37.145 Y39.235 Z255 F3.00 
G01 X37.145 Y39.33 Z255 F3.00 
G01 X37.24 Y39.425 Z255 F3.00 
G01 X37.145 Y39.52 Z255 F3.00 
G01 X36.955 Y39.615 Z255 F3.00 
G01 X36.765 Y39.71 Z255 F3.00 
G01 X36.575 Y39.805 Z255 F3.00 
G01 X36.48 Y39.71 Z255 F3.00 
G01 X36.575 Y39.615 Z255 F3.00 
G01 X36.765 Y39.52 Z255 F3.00 
G01 X36.67 Y39.615 Z255 F3.00 
G01 X36.575 Y39.52 Z255 F3.00 
G01 X36.48 Y39.52 Z255 F3.00 
G01 X36.385 Y39.425 Z255 F3.00 
G01 X36.29 Y39.52 Z255 F3.00 
G01 X36.195 Y39.425 Z255 F3.00 
G01 X36.005 Y39.425 Z255 F3.00 
G01 X35.91 Y39.33 Z255 F3.00 
G01 X35.625 Y39.235 Z255 F3.00 
G01 X35.53 Y39.14 Z255 F3.00 
G01 X35.625 Y39.045 Z255 F3.00 
G01 X35.53 Y38.95 Z255 F3.00 
G01 X35.435 Y39.045 Z255 F3.00 
G01 X35.34 Y38.95 Z255 F3.00 
G01 X35.435 Y38.855 Z255 F3.00 
G01 X35.34 Y38.855 Z255 F3.00 
G01 X35.245 Y38.76 Z255 F3.00 
G01 X34.77 Y38.095 Z255 F3.00 
G01 X34.675 Y38.0 Z255 F3.00 
G01 X34.77 Y37.905 Z255 F3.00 
G01 X34.96 Y37.81 Z255 F3.00 
G01 X35.055 Y37.715 Z255 F3.00 
G01 X35.34 Y37.525 Z255 F3.00 
G01 X35.435 Y37.43 Z255 F3.00 
G01 X35.625 Y37.335 Z255 F3.00 
G01 X35.72 Y37.24 Z255 F3.00 
G01 X35.91 Y37.24 Z255 F3.00 
G01 X36.005 Y37.145 Z255 F3.00 
G01 X36.195 Y37.05 Z255 F3.00 
G01 X36.1 Y37.145 Z255 F3.00 
G01 X36.195 Y37.24 Z255 F3.00 
G01 X36.195 Y37.335 Z255 F3.00 
G01 X36.29 Y37.62 Z255 F3.00 
G01 X36.195 Y37.715 Z255 F3.00 
G01 X36.29 Y37.81 Z255 F3.00 
G01 X36.195 Y37.905 Z255 F3.00 
G01 X36.29 Y38.0 Z255 F3.00 
G01 X36.195 Y38.095 Z255 F3.00 
G01 X36.29 Y38.19 Z255 F3.00 
G01 X36.385 Y38.285 Z255 F3.00 
G00 X36.48 Y38.665 Z0 F100.00 

G01 X36.575 Y38.76 Z255 F3.00 
G00 X36.67 Y39.045 Z0 F100.00 

G01 X37.05 Y39.425 Z255 F3.00 
G00 X37.335 Y39.615 Z0 F100.00 

G01 X37.43 Y39.805 Z255 F3.00 
G01 X37.525 Y39.9 Z255 F3.00 
G01 X37.43 Y39.995 Z255 F3.00 
G01 X37.525 Y39.995 Z255 F3.00 
G01 X37.525 Y39.995 Z255 F3.00 
G00 X37.24 Y39.995 Z0 F100.00 

G01 X36.195 Y39.9 Z255 F3.00 
G01 X36.29 Y39.805 Z255 F3.00 
G01 X36.29 Y39.71 Z255 F3.00 
G01 X35.815 Y39.615 Z255 F3.00 
G01 X35.72 Y39.615 Z255 F3.00 
G01 X35.53 Y39.52 Z255 F3.00 
G01 X35.435 Y39.615 Z255 F3.00 
G01 X35.34 Y39.52 Z255 F3.00 
G01 X35.435 Y39.52 Z255 F3.00 
G01 X35.53 Y39.615 Z255 F3.00 
G01 X35.53 Y39.615 Z255 F3.00 
G00 X35.625 Y39.9 Z0 F100.00 

G01 X35.72 Y39.9 Z255 F3.00 
G01 X35.815 Y39.995 Z255 F3.00 
G01 X35.91 Y39.9 Z255 F3.00 
G01 X36.005 Y39.995 Z255 F3.00 
G01 X36.1 Y39.9 Z255 F3.00 
G01 X36.195 Y39.995 Z255 F3.00 
G01 X36.1 Y39.995 Z255 F3.00 
G01 X36.005 Y39.9 Z255 F3.00 
G01 X35.91 Y39.995 Z255 F3.00 
G01 X35.815 Y39.9 Z255 F3.00 
G01 X35.815 Y39.9 Z255 F3.00 
G00 X35.53 Y39.9 Z0 F100.00 

G01 X35.435 Y39.805 Z255 F3.00 
G01 X35.34 Y39.9 Z255 F3.00 
G01 X35.245 Y39.805 Z255 F3.00 
G01 X35.15 Y39.9 Z255 F3.00 
G01 X35.245 Y39.9 Z255 F3.00 
G01 X35.34 Y39.805 Z255 F3.00 
G01 X35.435 Y39.9 Z255 F3.00 
G01 X35.435 Y39.9 Z255 F3.00 
G00 X35.055 Y39.9 Z0 F100.00 

G01 X34.865 Y39.9 Z255 F3.00 
G01 X34.96 Y39.805 Z255 F3.00 
G01 X34.96 Y39.615 Z255 F3.00 
G01 X35.055 Y39.52 Z255 F3.00 
G01 X35.245 Y39.52 Z255 F3.00 
G01 X35.15 Y39.52 Z255 F3.00 
G01 X35.055 Y39.425 Z255 F3.00 
G01 X34.96 Y39.425 Z255 F3.00 
G01 X34.865 Y39.33 Z255 F3.00 
G01 X34.675 Y39.235 Z255 F3.00 
G01 X34.77 Y39.14 Z255 F3.00 
G01 X34.77 Y39.045 Z255 F3.00 
G01 X34.675 Y38.95 Z255 F3.00 
G01 X34.675 Y38.76 Z255 F3.00 
G01 X34.58 Y38.665 Z255 F3.00 
G01 X34.675 Y38.57 Z255 F3.00 
G01 X34.58 Y38.475 Z255 F3.00 
G01 X34.675 Y38.475 Z255 F3.00 
G01 X34.77 Y38.38 Z255 F3.00 
G01 X34.865 Y38.475 Z255 F3.00 
G01 X35.245 Y38.855 Z255 F3.00 
G00 X34.58 Y38.76 Z0 F100.00 

G01 X34.675 Y38.665 Z255 F3.00 
G01 X34.58 Y38.57 Z255 F3.00 
G01 X34.58 Y38.57 Z255 F3.00 
G00 X34.485 Y38.285 Z0 F100.00 

G01 X34.485 Y38.19 Z255 F3.00 
G01 X34.58 Y37.905 Z255 F3.00 
G01 X34.485 Y37.81 Z255 F3.00 
G01 X34.58 Y37.81 Z255 F3.00 
G01 X34.675 Y37.715 Z255 F3.00 
G01 X34.675 Y37.62 Z255 F3.00 
G01 X34.77 Y37.525 Z255 F3.00 
G01 X34.865 Y37.335 Z255 F3.00 
G01 X34.96 Y37.24 Z255 F3.00 
G01 X35.055 Y37.24 Z255 F3.00 
G01 X35.15 Y37.145 Z255 F3.00 
G01 X35.72 Y36.765 Z255 F3.00 
G01 X35.815 Y36.67 Z255 F3.00 
G01 X36.1 Y36.575 Z255 F3.00 
G01 X36.195 Y36.48 Z255 F3.00 
G01 X36.29 Y36.575 Z255 F3.00 
G01 X36.29 Y36.67 Z255 F3.00 
G01 X36.385 Y36.765 Z255 F3.00 
G01 X36.29 Y36.86 Z255 F3.00 
G01 X36.385 Y36.955 Z255 F3.00 
G01 X36.385 Y36.955 Z255 F3.00 
G00 X35.815 Y37.24 Z0 F100.00 

G01 X35.72 Y37.335 Z255 F3.00 
G00 X35.435 Y37.525 Z0 F100.00 

G01 X35.435 Y37.525 Z255 F3.00 
G00 X35.15 Y37.715 Z0 F100.00 

G01 X35.15 Y37.715 Z255 F3.00 
G00 X34.77 Y38.0 Z0 F100.00 

G01 X34.77 Y38.0 Z255 F3.00 
G00 X34.485 Y37.62 Z0 F100.00 

G01 X34.58 Y37.525 Z255 F3.00 
G01 X34.58 Y37.43 Z255 F3.00 
G01 X34.675 Y37.335 Z255 F3.00 
G01 X34.675 Y37.24 Z255 F3.00 
G01 X34.77 Y37.05 Z255 F3.00 
G01 X34.865 Y36.86 Z255 F3.00 
G01 X34.96 Y36.765 Z255 F3.00 
G01 X35.15 Y36.765 Z255 F3.00 
G01 X35.245 Y36.67 Z255 F3.00 
G01 X35.245 Y36.48 Z255 F3.00 
G01 X35.34 Y36.385 Z255 F3.00 
G01 X35.625 Y36.29 Z255 F3.00 
G01 X35.72 Y36.195 Z255 F3.00 
G01 X35.72 Y36.005 Z255 F3.00 
G01 X35.625 Y36.1 Z255 F3.00 
G01 X35.625 Y36.1 Z255 F3.00 
G00 X35.435 Y36.385 Z0 F100.00 

G01 X35.34 Y36.48 Z255 F3.00 
G00 X35.245 Y36.955 Z0 F100.00 

G01 X35.34 Y36.86 Z255 F3.00 
G01 X35.435 Y36.955 Z255 F3.00 
G01 X35.53 Y36.86 Z255 F3.00 
G01 X35.91 Y36.67 Z255 F3.00 
G01 X36.005 Y36.575 Z255 F3.00 
G01 X36.385 Y36.1 Z255 F3.00 
G01 X36.385 Y36.1 Z255 F3.00 
G00 X36.67 Y35.91 Z0 F100.00 

G01 X36.67 Y35.91 Z255 F3.00 
G00 X36.86 Y35.435 Z0 F100.00 

G01 X36.765 Y35.34 Z255 F3.00 
G01 X36.765 Y35.245 Z255 F3.00 
G01 X36.765 Y35.245 Z255 F3.00 
G00 X36.29 Y35.245 Z0 F100.00 

G01 X36.195 Y35.34 Z255 F3.00 
G01 X36.1 Y35.34 Z255 F3.00 
G01 X36.005 Y35.435 Z255 F3.00 
G01 X35.91 Y35.435 Z255 F3.00 
G01 X35.815 Y35.53 Z255 F3.00 
G01 X35.72 Y35.53 Z255 F3.00 
G01 X35.815 Y35.435 Z255 F3.00 
G01 X35.815 Y35.435 Z255 F3.00 
G00 X35.53 Y35.625 Z0 F100.00 

G01 X35.34 Y35.72 Z255 F3.00 
G01 X35.435 Y35.625 Z255 F3.00 
G01 X35.435 Y35.625 Z255 F3.00 
G00 X36.005 Y36.005 Z0 F100.00 

G01 X35.91 Y36.1 Z255 F3.00 
G01 X35.815 Y36.005 Z255 F3.00 
G01 X35.815 Y36.005 Z255 F3.00 
G00 X36.1 Y36.005 Z0 F100.00 

G01 X36.1 Y36.005 Z255 F3.00 
G00 X35.815 Y34.96 Z0 F100.00 

G01 X36.1 Y34.865 Z255 F3.00 
G01 X36.195 Y34.77 Z255 F3.00 
G01 X36.29 Y34.77 Z255 F3.00 
G01 X36.385 Y34.675 Z255 F3.00 
G01 X36.48 Y34.77 Z255 F3.00 
G01 X36.575 Y34.675 Z255 F3.00 
G01 X36.765 Y34.675 Z255 F3.00 
G01 X36.86 Y34.58 Z255 F3.00 
G01 X37.05 Y34.485 Z255 F3.00 
G01 X37.145 Y34.58 Z255 F3.00 
G01 X37.145 Y34.77 Z255 F3.00 
G01 X37.145 Y34.77 Z255 F3.00 
G00 X36.86 Y34.485 Z0 F100.00 

G01 X36.765 Y34.58 Z255 F3.00 
G01 X36.575 Y34.58 Z255 F3.00 
G01 X36.48 Y34.675 Z255 F3.00 
G01 X36.385 Y34.77 Z255 F3.00 
G00 X36.1 Y34.77 Z0 F100.00 

G01 X36.005 Y34.865 Z255 F3.00 
G01 X35.815 Y34.865 Z255 F3.00 
G01 X35.72 Y34.96 Z255 F3.00 
G01 X35.435 Y35.055 Z255 F3.00 
G01 X35.34 Y35.15 Z255 F3.00 
G01 X35.055 Y35.245 Z255 F3.00 
G01 X34.96 Y35.34 Z255 F3.00 
G01 X33.535 Y36.955 Z255 F3.00 
G01 X33.44 Y37.05 Z255 F3.00 
G01 X33.25 Y37.335 Z255 F3.00 
G01 X33.155 Y37.43 Z255 F3.00 
G01 X33.25 Y37.525 Z255 F3.00 
G01 X33.155 Y37.62 Z255 F3.00 
G01 X33.25 Y37.715 Z255 F3.00 
G01 X33.155 Y37.81 Z255 F3.00 
G01 X33.25 Y37.905 Z255 F3.00 
G01 X33.155 Y38.0 Z255 F3.00 
G01 X33.25 Y38.095 Z255 F3.00 
G01 X33.155 Y38.19 Z255 F3.00 
G01 X33.06 Y38.38 Z255 F3.00 
G01 X33.155 Y38.285 Z255 F3.00 
G01 X33.25 Y38.38 Z255 F3.00 
G01 X33.535 Y38.475 Z255 F3.00 
G01 X33.63 Y38.57 Z255 F3.00 
G01 X34.01 Y38.855 Z255 F3.00 
G01 X34.105 Y38.95 Z255 F3.00 
G01 X34.39 Y39.425 Z255 F3.00 
G01 X34.485 Y39.52 Z255 F3.00 
G01 X34.58 Y39.52 Z255 F3.00 
G01 X34.675 Y39.615 Z255 F3.00 
G01 X34.77 Y39.615 Z255 F3.00 
G01 X34.865 Y39.71 Z255 F3.00 
G01 X34.865 Y39.71 Z255 F3.00 
G00 X34.865 Y39.995 Z0 F100.00 

G01 X34.77 Y39.995 Z255 F3.00 
G01 X34.675 Y39.9 Z255 F3.00 
G01 X34.58 Y39.995 Z255 F3.00 
G01 X34.485 Y39.9 Z255 F3.00 
G01 X34.39 Y39.995 Z255 F3.00 
G01 X34.295 Y39.9 Z255 F3.00 
G01 X34.39 Y39.9 Z255 F3.00 
G01 X34.485 Y39.995 Z255 F3.00 
G01 X34.58 Y39.9 Z255 F3.00 
G01 X34.675 Y39.995 Z255 F3.00 
G01 X34.675 Y39.995 Z255 F3.00 
G00 X34.2 Y40.09 Z0 F100.00 

G01 X34.105 Y39.995 Z255 F3.00 
G01 X34.2 Y39.9 Z255 F3.00 
G01 X34.2 Y39.9 Z255 F3.00 
G00 X34.105 Y40.09 Z0 F100.00 

G01 X34.01 Y40.09 Z255 F3.00 
G01 X33.915 Y39.995 Z255 F3.00 
G01 X33.82 Y40.09 Z255 F3.00 
G01 X33.725 Y39.995 Z255 F3.00 
G01 X33.63 Y40.09 Z255 F3.00 
G01 X33.44 Y40.47 Z255 F3.00 
G01 X33.345 Y40.565 Z255 F3.00 
G01 X33.44 Y40.66 Z255 F3.00 
G01 X33.44 Y40.755 Z255 F3.00 
G01 X33.535 Y40.945 Z255 F3.00 
G01 X33.535 Y41.04 Z255 F3.00 
G01 X33.44 Y41.23 Z255 F3.00 
G01 X33.535 Y41.325 Z255 F3.00 
G01 X33.44 Y41.42 Z255 F3.00 
G01 X33.535 Y41.515 Z255 F3.00 
G01 X33.63 Y41.705 Z255 F3.00 
G01 X33.535 Y41.8 Z255 F3.00 
G01 X33.44 Y41.705 Z255 F3.00 
G01 X33.44 Y41.61 Z255 F3.00 
G01 X33.535 Y41.42 Z255 F3.00 
G01 X33.44 Y41.325 Z255 F3.00 
G01 X33.535 Y41.23 Z255 F3.00 
G01 X33.535 Y41.23 Z255 F3.00 
G00 X33.25 Y41.135 Z0 F100.00 

G01 X33.155 Y41.23 Z255 F3.00 
G01 X33.155 Y41.325 Z255 F3.00 
G01 X33.06 Y41.42 Z255 F3.00 
G01 X33.155 Y41.515 Z255 F3.00 
G01 X33.06 Y41.61 Z255 F3.00 
G01 X33.06 Y41.8 Z255 F3.00 
G01 X32.965 Y41.895 Z255 F3.00 
G01 X33.06 Y41.99 Z255 F3.00 
G01 X33.06 Y42.085 Z255 F3.00 
G01 X32.965 Y42.18 Z255 F3.00 
G01 X33.06 Y42.275 Z255 F3.00 
G01 X33.06 Y42.465 Z255 F3.00 
G01 X33.155 Y42.56 Z255 F3.00 
G01 X33.155 Y42.75 Z255 F3.00 
G01 X33.25 Y42.75 Z255 F3.00 
G01 X33.345 Y42.845 Z255 F3.00 
G01 X33.345 Y43.035 Z255 F3.00 
G01 X33.06 Y43.51 Z255 F3.00 
G01 X33.25 Y43.51 Z255 F3.00 
G01 X34.01 Y42.845 Z255 F3.00 
G01 X34.105 Y42.94 Z255 F3.00 
G01 X34.295 Y43.035 Z255 F3.00 
G01 X34.39 Y43.13 Z255 F3.00 
G01 X34.295 Y43.225 Z255 F3.00 
G01 X34.39 Y43.32 Z255 F3.00 
G01 X34.58 Y43.415 Z255 F3.00 
G01 X34.675 Y43.51 Z255 F3.00 
G01 X35.15 Y43.89 Z255 F3.00 
G01 X35.245 Y43.985 Z255 F3.00 
G01 X35.625 Y44.175 Z255 F3.00 
G01 X35.72 Y44.27 Z255 F3.00 
G01 X35.91 Y44.27 Z255 F3.00 
G01 X36.005 Y44.365 Z255 F3.00 
G01 X36.29 Y44.46 Z255 F3.00 
G01 X36.385 Y44.555 Z255 F3.00 
G01 X36.575 Y44.555 Z255 F3.00 
G01 X36.67 Y44.65 Z255 F3.00 
G01 X36.86 Y44.65 Z255 F3.00 
G01 X36.955 Y44.745 Z255 F3.00 
G01 X37.05 Y44.65 Z255 F3.00 
G01 X37.145 Y44.745 Z255 F3.00 
G01 X37.24 Y44.65 Z255 F3.00 
G01 X37.335 Y44.745 Z255 F3.00 
G01 X37.525 Y44.745 Z255 F3.00 
G01 X37.62 Y44.84 Z255 F3.00 
G01 X37.715 Y44.745 Z255 F3.00 
G01 X37.81 Y44.84 Z255 F3.00 
G01 X37.905 Y44.745 Z255 F3.00 
G01 X38.0 Y44.84 Z255 F3.00 
G01 X38.095 Y44.84 Z255 F3.00 
G01 X38.0 Y44.745 Z255 F3.00 
G01 X38.095 Y44.65 Z255 F3.00 
G01 X38.19 Y44.65 Z255 F3.00 
G01 X38.38 Y44.745 Z255 F3.00 
G01 X38.475 Y44.65 Z255 F3.00 
G01 X38.57 Y44.745 Z255 F3.00 
G01 X38.665 Y44.65 Z255 F3.00 
G01 X38.76 Y44.745 Z255 F3.00 
G01 X38.855 Y44.65 Z255 F3.00 
G01 X38.95 Y44.745 Z255 F3.00 
G01 X39.045 Y44.65 Z255 F3.00 
G01 X39.235 Y44.65 Z255 F3.00 
G01 X39.33 Y44.555 Z255 F3.00 
G01 X39.425 Y44.65 Z255 F3.00 
G01 X39.52 Y44.555 Z255 F3.00 
G01 X39.71 Y44.555 Z255 F3.00 
G01 X39.805 Y44.46 Z255 F3.00 
G01 X40.09 Y44.365 Z255 F3.00 
G01 X40.185 Y44.27 Z255 F3.00 
G01 X40.28 Y44.27 Z255 F3.00 
G01 X40.375 Y44.175 Z255 F3.00 
G01 X40.28 Y44.08 Z255 F3.00 
G01 X40.185 Y44.175 Z255 F3.00 
G01 X39.805 Y44.365 Z255 F3.00 
G01 X39.71 Y44.46 Z255 F3.00 
G01 X39.52 Y44.46 Z255 F3.00 
G01 X39.425 Y44.46 Z255 F3.00 
G01 X39.425 Y44.46 Z255 F3.00 
G00 X39.33 Y44.65 Z0 F100.00 

G01 X39.33 Y44.65 Z255 F3.00 
G00 X38.855 Y44.745 Z0 F100.00 

G01 X38.76 Y44.65 Z255 F3.00 
G01 X38.665 Y44.745 Z255 F3.00 
G01 X38.57 Y44.65 Z255 F3.00 
G01 X38.475 Y44.745 Z255 F3.00 
G01 X38.38 Y44.65 Z255 F3.00 
G01 X38.38 Y44.65 Z255 F3.00 
G00 X38.19 Y44.84 Z0 F100.00 

G01 X38.19 Y44.84 Z255 F3.00 
G00 X37.81 Y44.745 Z0 F100.00 

G01 X37.715 Y44.84 Z255 F3.00 
G01 X37.62 Y44.745 Z255 F3.00 
G01 X37.525 Y44.84 Z255 F3.00 
G01 X37.525 Y44.84 Z255 F3.00 
G00 X37.335 Y44.65 Z0 F100.00 

G01 X37.24 Y44.745 Z255 F3.00 
G01 X37.145 Y44.65 Z255 F3.00 
G01 X37.05 Y44.745 Z255 F3.00 
G01 X36.955 Y44.65 Z255 F3.00 
G01 X36.86 Y44.745 Z255 F3.00 
G01 X36.86 Y44.745 Z255 F3.00 
G00 X36.67 Y44.555 Z0 F100.00 

G01 X36.575 Y44.65 Z255 F3.00 
G01 X36.575 Y44.65 Z255 F3.00 
G00 X36.385 Y44.46 Z0 F100.00 

G01 X36.29 Y44.555 Z255 F3.00 
G01 X36.195 Y44.46 Z255 F3.00 
G01 X36.005 Y44.46 Z255 F3.00 
G01 X35.91 Y44.365 Z255 F3.00 
G01 X35.72 Y44.365 Z255 F3.00 
G01 X35.625 Y44.27 Z255 F3.00 
G01 X35.34 Y44.175 Z255 F3.00 
G01 X35.245 Y44.08 Z255 F3.00 
G01 X35.15 Y44.08 Z255 F3.00 
G01 X35.055 Y43.985 Z255 F3.00 
G01 X34.675 Y43.7 Z255 F3.00 
G01 X34.58 Y43.605 Z255 F3.00 
G01 X34.485 Y43.51 Z255 F3.00 
G00 X34.39 Y43.225 Z0 F100.00 

G01 X34.39 Y43.225 Z255 F3.00 
G00 X34.2 Y42.845 Z0 F100.00 

G01 X34.105 Y42.75 Z255 F3.00 
G01 X33.915 Y42.75 Z255 F3.00 
G01 X33.725 Y42.94 Z255 F3.00 
G00 X33.63 Y42.655 Z0 F100.00 

G01 X33.535 Y42.56 Z255 F3.00 
G01 X33.63 Y42.465 Z255 F3.00 
G01 X33.82 Y42.465 Z255 F3.00 
G01 X34.01 Y42.56 Z255 F3.00 
G01 X33.915 Y42.655 Z255 F3.00 
G01 X33.915 Y42.655 Z255 F3.00 
G00 X33.915 Y42.37 Z0 F100.00 

G01 X33.82 Y42.275 Z255 F3.00 
G01 X33.725 Y42.275 Z255 F3.00 
G01 X33.82 Y42.18 Z255 F3.00 
G01 X33.725 Y42.085 Z255 F3.00 
G01 X33.63 Y42.18 Z255 F3.00 
G01 X33.63 Y42.085 Z255 F3.00 
G01 X33.725 Y41.99 Z255 F3.00 
G01 X33.63 Y41.99 Z255 F3.00 
G01 X33.725 Y41.895 Z255 F3.00 
G01 X33.63 Y41.8 Z255 F3.00 
G01 X33.535 Y41.895 Z255 F3.00 
G01 X33.535 Y41.895 Z255 F3.00 
G00 X32.965 Y41.8 Z0 F100.00 

G01 X32.965 Y41.8 Z255 F3.00 
G00 X33.06 Y41.515 Z0 F100.00 

G01 X33.155 Y41.42 Z255 F3.00 
G00 X33.155 Y41.04 Z0 F100.00 

G01 X33.25 Y40.945 Z255 F3.00 
G01 X33.25 Y40.85 Z255 F3.00 
G01 X33.25 Y40.66 Z255 F3.00 
G00 X33.44 Y40.565 Z0 F100.00 

G01 X33.44 Y40.565 Z255 F3.00 
G00 X33.345 Y40.28 Z0 F100.00 

G01 X33.345 Y40.185 Z255 F3.00 
G01 X33.25 Y40.09 Z255 F3.00 
G01 X33.345 Y39.995 Z255 F3.00 
G01 X33.44 Y39.995 Z255 F3.00 
G01 X33.725 Y40.09 Z255 F3.00 
G01 X33.82 Y39.995 Z255 F3.00 
G01 X33.915 Y40.09 Z255 F3.00 
G01 X33.915 Y40.09 Z255 F3.00 
G00 X34.2 Y39.52 Z0 F100.00 

G01 X34.39 Y39.52 Z255 F3.00 
G00 X34.295 Y39.235 Z0 F100.00 

G01 X34.105 Y39.14 Z255 F3.00 
G01 X34.01 Y39.045 Z255 F3.00 
G01 X33.535 Y38.57 Z255 F3.00 
G00 X33.345 Y38.285 Z0 F100.00 

G01 X33.25 Y38.0 Z255 F3.00 
G01 X33.155 Y37.905 Z255 F3.00 
G01 X33.25 Y37.81 Z255 F3.00 
G01 X33.155 Y37.715 Z255 F3.00 
G01 X33.25 Y37.62 Z255 F3.00 
G01 X33.155 Y37.525 Z255 F3.00 
G01 X33.25 Y37.43 Z255 F3.00 
G01 X33.25 Y37.43 Z255 F3.00 
G00 X33.345 Y37.05 Z0 F100.00 

G01 X33.345 Y36.955 Z255 F3.00 
G01 X33.345 Y36.955 Z255 F3.00 
G00 X33.63 Y36.765 Z0 F100.00 

G01 X33.725 Y36.48 Z255 F3.00 
G01 X33.82 Y36.385 Z255 F3.00 
G01 X34.2 Y35.91 Z255 F3.00 
G01 X34.295 Y35.815 Z255 F3.00 
G01 X34.675 Y35.53 Z255 F3.00 
G01 X34.77 Y35.435 Z255 F3.00 
G01 X34.96 Y35.435 Z255 F3.00 
G01 X35.055 Y35.34 Z255 F3.00 
G01 X35.34 Y35.245 Z255 F3.00 
G01 X35.435 Y35.15 Z255 F3.00 
G01 X35.625 Y34.96 Z255 F3.00 
G00 X35.055 Y34.77 Z0 F100.00 

G01 X34.77 Y34.865 Z255 F3.00 
G01 X34.865 Y34.77 Z255 F3.00 
G01 X35.15 Y34.295 Z255 F3.00 
G01 X35.245 Y34.2 Z255 F3.00 
G01 X35.15 Y34.105 Z255 F3.00 
G01 X35.245 Y34.105 Z255 F3.00 
G01 X35.34 Y34.01 Z255 F3.00 
G01 X35.245 Y33.915 Z255 F3.00 
G01 X35.15 Y34.01 Z255 F3.00 
G01 X35.15 Y34.01 Z255 F3.00 
G00 X35.245 Y34.295 Z0 F100.00 

G01 X35.245 Y34.295 Z255 F3.00 
G00 X35.055 Y34.485 Z0 F100.00 

G01 X35.15 Y34.58 Z255 F3.00 
G01 X35.15 Y34.58 Z255 F3.00 
G00 X34.675 Y35.055 Z0 F100.00 

G01 X34.58 Y34.96 Z255 F3.00 
G01 X34.675 Y34.865 Z255 F3.00 
G01 X34.675 Y34.865 Z255 F3.00 
G00 X34.58 Y35.055 Z0 F100.00 

G01 X34.485 Y35.055 Z255 F3.00 
G01 X34.39 Y35.15 Z255 F3.00 
G01 X34.295 Y35.055 Z255 F3.00 
G01 X34.39 Y34.96 Z255 F3.00 
G01 X34.39 Y34.96 Z255 F3.00 
G00 X34.295 Y35.15 Z0 F100.00 

G01 X34.2 Y35.15 Z255 F3.00 
G01 X34.105 Y35.055 Z255 F3.00 
G01 X34.01 Y35.15 Z255 F3.00 
G01 X33.915 Y35.055 Z255 F3.00 
G01 X33.82 Y35.15 Z255 F3.00 
G01 X33.725 Y35.055 Z255 F3.00 
G01 X33.63 Y35.15 Z255 F3.00 
G01 X33.44 Y35.15 Z255 F3.00 
G01 X33.535 Y35.055 Z255 F3.00 
G01 X33.63 Y35.055 Z255 F3.00 
G01 X33.725 Y35.15 Z255 F3.00 
G01 X33.82 Y35.055 Z255 F3.00 
G01 X33.915 Y35.15 Z255 F3.00 
G01 X34.01 Y35.055 Z255 F3.00 
G01 X34.105 Y35.15 Z255 F3.00 
G01 X34.105 Y35.15 Z255 F3.00 
G00 X34.01 Y34.58 Z0 F100.00 

G01 X34.105 Y34.58 Z255 F3.00 
G01 X34.105 Y34.58 Z255 F3.00 
G00 X33.82 Y34.58 Z0 F100.00 

G01 X33.63 Y34.675 Z255 F3.00 
G01 X33.535 Y34.675 Z255 F3.00 
G01 X33.63 Y34.58 Z255 F3.00 
G01 X33.63 Y34.58 Z255 F3.00 
G00 X33.725 Y34.105 Z0 F100.00 

G01 X33.82 Y34.105 Z255 F3.00 
G01 X33.915 Y34.01 Z255 F3.00 
G01 X34.01 Y34.01 Z255 F3.00 
G01 X34.105 Y33.915 Z255 F3.00 
G01 X34.01 Y33.82 Z255 F3.00 
G01 X34.105 Y33.725 Z255 F3.00 
G01 X34.2 Y33.44 Z255 F3.00 
G01 X34.295 Y33.345 Z255 F3.00 
G01 X34.2 Y33.25 Z255 F3.00 
G01 X34.295 Y33.155 Z255 F3.00 
G01 X34.2 Y33.06 Z255 F3.00 
G01 X34.295 Y32.965 Z255 F3.00 
G01 X34.2 Y32.87 Z255 F3.00 
G01 X34.01 Y32.87 Z255 F3.00 
G01 X34.105 Y32.87 Z255 F3.00 
G01 X34.2 Y32.965 Z255 F3.00 
G01 X34.2 Y33.155 Z255 F3.00 
G01 X34.295 Y33.25 Z255 F3.00 
G01 X34.2 Y33.345 Z255 F3.00 
G01 X34.295 Y33.44 Z255 F3.00 
G01 X34.2 Y33.535 Z255 F3.00 
G01 X34.2 Y33.535 Z255 F3.00 
G00 X34.105 Y33.82 Z0 F100.00 

G01 X34.105 Y33.82 Z255 F3.00 
G00 X33.63 Y34.105 Z0 F100.00 

G01 X33.535 Y34.2 Z255 F3.00 
G01 X33.44 Y34.105 Z255 F3.00 
G01 X33.345 Y34.2 Z255 F3.00 
G01 X33.25 Y34.2 Z255 F3.00 
G01 X33.345 Y34.105 Z255 F3.00 
G01 X33.44 Y34.2 Z255 F3.00 
G01 X33.535 Y34.105 Z255 F3.00 
G01 X33.535 Y34.105 Z255 F3.00 
G00 X33.155 Y34.01 Z0 F100.00 

G01 X33.06 Y33.725 Z255 F3.00 
G01 X32.965 Y33.63 Z255 F3.00 
G01 X33.06 Y33.535 Z255 F3.00 
G01 X32.965 Y33.44 Z255 F3.00 
G01 X33.06 Y33.345 Z255 F3.00 
G01 X32.965 Y33.25 Z255 F3.00 
G01 X33.06 Y33.155 Z255 F3.00 
G01 X33.535 Y32.87 Z255 F3.00 
G01 X33.63 Y32.775 Z255 F3.00 
G01 X33.725 Y32.87 Z255 F3.00 
G01 X33.82 Y32.87 Z255 F3.00 
G01 X33.915 Y32.87 Z255 F3.00 
G00 X34.01 Y32.68 Z0 F100.00 

G01 X34.01 Y32.68 Z255 F3.00 
G00 X33.725 Y32.68 Z0 F100.00 

G01 X33.725 Y32.68 Z255 F3.00 
G00 X33.63 Y32.87 Z0 F100.00 

G01 X33.63 Y32.87 Z255 F3.00 
G00 X33.345 Y32.775 Z0 F100.00 

G01 X33.25 Y32.775 Z255 F3.00 
G01 X33.155 Y32.87 Z255 F3.00 
G01 X33.155 Y32.965 Z255 F3.00 
G01 X33.06 Y33.06 Z255 F3.00 
G01 X33.155 Y33.155 Z255 F3.00 
G01 X33.06 Y33.25 Z255 F3.00 
G01 X33.06 Y33.44 Z255 F3.00 
G01 X32.965 Y33.535 Z255 F3.00 
G01 X32.965 Y33.535 Z255 F3.00 
G00 X33.06 Y33.82 Z0 F100.00 

G01 X33.06 Y34.01 Z255 F3.00 
G01 X33.155 Y34.105 Z255 F3.00 
G01 X33.155 Y34.105 Z255 F3.00 
G00 X32.395 Y34.2 Z0 F100.00 

G01 X32.49 Y34.295 Z255 F3.00 
G01 X32.395 Y34.39 Z255 F3.00 
G01 X32.49 Y34.485 Z255 F3.00 
G01 X32.395 Y34.58 Z255 F3.00 
G01 X32.49 Y34.675 Z255 F3.00 
G01 X32.395 Y34.77 Z255 F3.00 
G01 X32.49 Y34.865 Z255 F3.00 
G01 X32.49 Y34.96 Z255 F3.00 
G01 X32.585 Y35.055 Z255 F3.00 
G01 X32.965 Y35.245 Z255 F3.00 
G01 X33.06 Y35.34 Z255 F3.00 
G01 X33.155 Y35.245 Z255 F3.00 
G01 X33.25 Y35.34 Z255 F3.00 
G01 X33.345 Y35.34 Z255 F3.00 
G01 X33.44 Y35.245 Z255 F3.00 
G01 X33.345 Y35.15 Z255 F3.00 
G01 X33.25 Y35.245 Z255 F3.00 
G01 X33.06 Y35.245 Z255 F3.00 
G01 X32.965 Y35.34 Z255 F3.00 
G01 X32.87 Y35.245 Z255 F3.00 
G01 X32.87 Y35.245 Z255 F3.00 
G00 X32.585 Y35.34 Z0 F100.00 

G01 X32.68 Y35.435 Z255 F3.00 
G01 X32.585 Y35.53 Z255 F3.00 
G01 X32.49 Y35.435 Z255 F3.00 
G01 X32.395 Y35.53 Z255 F3.00 
G01 X32.11 Y35.625 Z255 F3.00 
G01 X32.205 Y35.625 Z255 F3.00 
G01 X32.3 Y35.53 Z255 F3.00 
G01 X32.49 Y35.53 Z255 F3.00 
G01 X32.49 Y35.53 Z255 F3.00 
G00 X32.49 Y35.055 Z0 F100.00 

G01 X32.49 Y35.055 Z255 F3.00 
G00 X32.205 Y35.055 Z0 F100.00 

G01 X32.205 Y35.15 Z255 F3.00 
G01 X32.11 Y35.34 Z255 F3.00 
G01 X32.11 Y35.435 Z255 F3.00 
G01 X32.11 Y35.435 Z255 F3.00 
G00 X32.015 Y35.625 Z0 F100.00 

G01 X32.015 Y35.815 Z255 F3.00 
G01 X31.73 Y35.91 Z255 F3.00 
G01 X31.825 Y35.815 Z255 F3.00 
G01 X31.825 Y35.625 Z255 F3.00 
G01 X31.825 Y35.435 Z255 F3.00 
G01 X31.73 Y35.34 Z255 F3.00 
G01 X31.635 Y35.435 Z255 F3.00 
G01 X31.445 Y35.815 Z255 F3.00 
G01 X31.35 Y35.91 Z255 F3.00 
G01 X31.445 Y36.005 Z255 F3.00 
G01 X31.635 Y36.005 Z255 F3.00 
G01 X31.73 Y36.005 Z255 F3.00 
G01 X31.635 Y36.1 Z255 F3.00 
G01 X31.54 Y36.005 Z255 F3.00 
G01 X31.445 Y36.1 Z255 F3.00 
G01 X31.35 Y36.1 Z255 F3.00 
G01 X31.16 Y36.005 Z255 F3.00 
G01 X31.255 Y35.91 Z255 F3.00 
G01 X31.445 Y35.72 Z255 F3.00 
G00 X31.35 Y35.435 Z0 F100.00 

G01 X31.445 Y35.34 Z255 F3.00 
G01 X31.35 Y35.34 Z255 F3.00 
G01 X31.445 Y35.435 Z255 F3.00 
G01 X31.445 Y35.435 Z255 F3.00 
G00 X31.16 Y35.34 Z0 F100.00 

G01 X31.065 Y35.53 Z255 F3.00 
G01 X30.97 Y35.625 Z255 F3.00 
G01 X31.065 Y35.625 Z255 F3.00 
G01 X30.97 Y35.72 Z255 F3.00 
G01 X30.97 Y35.91 Z255 F3.00 
G01 X31.065 Y35.91 Z255 F3.00 
G01 X30.97 Y35.815 Z255 F3.00 
G01 X30.875 Y35.91 Z255 F3.00 
G01 X30.78 Y35.815 Z255 F3.00 
G01 X30.78 Y35.625 Z255 F3.00 
G01 X30.685 Y35.625 Z255 F3.00 
G01 X30.78 Y35.72 Z255 F3.00 
G01 X30.78 Y35.72 Z255 F3.00 
G00 X30.78 Y35.435 Z0 F100.00 

G01 X30.875 Y35.34 Z255 F3.00 
G01 X30.78 Y35.245 Z255 F3.00 
G01 X30.875 Y35.15 Z255 F3.00 
G01 X31.065 Y35.15 Z255 F3.00 
G01 X31.255 Y35.15 Z255 F3.00 
G01 X31.16 Y35.055 Z255 F3.00 
G01 X30.97 Y34.96 Z255 F3.00 
G01 X30.875 Y35.055 Z255 F3.00 
G01 X30.875 Y35.245 Z255 F3.00 
G01 X30.78 Y35.34 Z255 F3.00 
G01 X30.78 Y35.34 Z255 F3.00 
G00 X30.495 Y35.625 Z0 F100.00 

G01 X30.59 Y35.72 Z255 F3.00 
G01 X30.59 Y35.72 Z255 F3.00 
G00 X30.4 Y35.435 Z0 F100.00 

G01 X30.495 Y35.34 Z255 F3.00 
G01 X30.4 Y35.34 Z255 F3.00 
G01 X30.495 Y35.435 Z255 F3.00 
G01 X30.495 Y35.435 Z255 F3.00 
G00 X30.495 Y35.15 Z0 F100.00 

G01 X30.59 Y34.96 Z255 F3.00 
G01 X30.59 Y34.865 Z255 F3.00 
G01 X30.685 Y34.77 Z255 F3.00 
G01 X30.875 Y34.77 Z255 F3.00 
G01 X30.78 Y34.77 Z255 F3.00 
G01 X30.875 Y34.865 Z255 F3.00 
G01 X30.875 Y34.96 Z255 F3.00 
G01 X30.875 Y34.96 Z255 F3.00 
G00 X30.59 Y34.675 Z0 F100.00 

G01 X30.685 Y34.58 Z255 F3.00 
G01 X30.59 Y34.485 Z255 F3.00 
G01 X30.495 Y34.58 Z255 F3.00 
G01 X30.4 Y34.58 Z255 F3.00 
G01 X30.495 Y34.485 Z255 F3.00 
G01 X30.4 Y34.39 Z255 F3.00 
G01 X30.305 Y34.485 Z255 F3.00 
G01 X30.305 Y34.58 Z255 F3.00 
G01 X30.21 Y34.675 Z255 F3.00 
G01 X30.305 Y34.77 Z255 F3.00 
G01 X30.21 Y34.865 Z255 F3.00 
G01 X30.305 Y34.96 Z255 F3.00 
G01 X30.305 Y35.055 Z255 F3.00 
G01 X30.21 Y35.34 Z255 F3.00 
G01 X30.305 Y35.435 Z255 F3.00 
G01 X30.305 Y35.435 Z255 F3.00 
G00 X30.02 Y35.15 Z0 F100.00 

G01 X29.925 Y34.96 Z255 F3.00 
G01 X30.02 Y34.865 Z255 F3.00 
G01 X30.115 Y34.96 Z255 F3.00 
G01 X30.115 Y34.96 Z255 F3.00 
G00 X29.925 Y34.865 Z0 F100.00 

G01 X29.925 Y34.77 Z255 F3.00 
G01 X30.02 Y34.675 Z255 F3.00 
G01 X30.02 Y34.58 Z255 F3.00 
G01 X30.115 Y34.485 Z255 F3.00 
G01 X30.115 Y34.39 Z255 F3.00 
G01 X30.21 Y34.295 Z255 F3.00 
G01 X30.305 Y34.39 Z255 F3.00 
G01 X30.305 Y34.295 Z255 F3.00 
G01 X30.21 Y34.2 Z255 F3.00 
G01 X30.21 Y34.105 Z255 F3.00 
G01 X30.115 Y34.01 Z255 F3.00 
G01 X30.02 Y34.105 Z255 F3.00 
G01 X29.925 Y34.295 Z255 F3.00 
G01 X29.83 Y34.58 Z255 F3.00 
G01 X29.83 Y34.675 Z255 F3.00 
G01 X29.83 Y34.675 Z255 F3.00 
G00 X30.305 Y34.865 Z0 F100.00 

G01 X30.305 Y34.865 Z255 F3.00 
G00 X30.115 Y33.915 Z0 F100.00 

G01 X30.115 Y33.725 Z255 F3.00 
G01 X30.21 Y33.725 Z255 F3.00 
G01 X30.305 Y33.63 Z255 F3.00 
G01 X30.21 Y33.535 Z255 F3.00 
G01 X30.115 Y33.63 Z255 F3.00 
G01 X30.115 Y33.63 Z255 F3.00 
G00 X30.02 Y33.915 Z0 F100.00 

G01 X30.02 Y33.915 Z255 F3.00 
G00 X30.4 Y33.44 Z0 F100.00 

G01 X30.59 Y33.06 Z255 F3.00 
G01 X30.59 Y32.87 Z255 F3.00 
G01 X30.78 Y32.87 Z255 F3.00 
G01 X30.875 Y32.775 Z255 F3.00 
G01 X30.875 Y32.585 Z255 F3.00 
G01 X30.97 Y32.49 Z255 F3.00 
G01 X30.875 Y32.395 Z255 F3.00 
G01 X30.97 Y32.3 Z255 F3.00 
G01 X31.16 Y32.3 Z255 F3.00 
G01 X31.16 Y32.49 Z255 F3.00 
G01 X31.255 Y32.585 Z255 F3.00 
G01 X31.35 Y32.585 Z255 F3.00 
G01 X31.445 Y32.68 Z255 F3.00 
G01 X31.54 Y32.585 Z255 F3.00 
G01 X31.92 Y32.3 Z255 F3.00 
G01 X32.11 Y32.205 Z255 F3.00 
G01 X32.205 Y32.3 Z255 F3.00 
G01 X32.3 Y32.205 Z255 F3.00 
G01 X32.395 Y31.92 Z255 F3.00 
G01 X32.49 Y31.825 Z255 F3.00 
G01 X32.585 Y31.635 Z255 F3.00 
G01 X32.49 Y31.54 Z255 F3.00 
G01 X32.395 Y31.635 Z255 F3.00 
G01 X32.11 Y31.73 Z255 F3.00 
G01 X32.015 Y31.825 Z255 F3.00 
G01 X31.92 Y31.73 Z255 F3.00 
G01 X31.825 Y31.825 Z255 F3.00 
G01 X31.635 Y31.825 Z255 F3.00 
G01 X31.73 Y31.825 Z255 F3.00 
G01 X31.635 Y31.92 Z255 F3.00 
G01 X31.255 Y32.49 Z255 F3.00 
G01 X31.255 Y32.49 Z255 F3.00 
G00 X31.35 Y32.775 Z0 F100.00 

G01 X31.445 Y32.775 Z255 F3.00 
G01 X31.54 Y32.68 Z255 F3.00 
G01 X31.54 Y32.68 Z255 F3.00 
G00 X31.255 Y32.965 Z0 F100.00 

G01 X31.35 Y32.965 Z255 F3.00 
G01 X31.35 Y32.965 Z255 F3.00 
G00 X31.065 Y33.06 Z0 F100.00 

G01 X30.875 Y33.06 Z255 F3.00 
G01 X30.78 Y33.155 Z255 F3.00 
G01 X30.685 Y33.25 Z255 F3.00 
G00 X30.97 Y33.06 Z0 F100.00 

G01 X30.97 Y33.06 Z255 F3.00 
G00 X31.255 Y33.345 Z0 F100.00 

G01 X31.35 Y33.25 Z255 F3.00 
G01 X31.445 Y33.345 Z255 F3.00 
G01 X31.445 Y33.535 Z255 F3.00 
G01 X31.54 Y33.63 Z255 F3.00 
G01 X31.445 Y33.725 Z255 F3.00 
G01 X31.54 Y33.82 Z255 F3.00 
G01 X31.445 Y33.915 Z255 F3.00 
G01 X31.35 Y33.82 Z255 F3.00 
G01 X31.16 Y33.82 Z255 F3.00 
G01 X31.065 Y33.725 Z255 F3.00 
G01 X31.16 Y33.63 Z255 F3.00 
G01 X31.065 Y33.63 Z255 F3.00 
G01 X30.97 Y33.535 Z255 F3.00 
G01 X31.065 Y33.44 Z255 F3.00 
G01 X31.445 Y33.155 Z255 F3.00 
G01 X31.54 Y33.25 Z255 F3.00 
G01 X31.54 Y33.345 Z255 F3.00 
G01 X31.445 Y33.44 Z255 F3.00 
G01 X31.54 Y33.535 Z255 F3.00 
G01 X31.445 Y33.63 Z255 F3.00 
G01 X31.54 Y33.725 Z255 F3.00 
G01 X31.54 Y33.725 Z255 F3.00 
G00 X31.445 Y34.105 Z0 F100.00 

G01 X31.35 Y34.2 Z255 F3.00 
G01 X31.255 Y34.105 Z255 F3.00 
G01 X31.16 Y33.915 Z255 F3.00 
G01 X31.16 Y33.915 Z255 F3.00 
G00 X30.875 Y33.725 Z0 F100.00 

G01 X30.78 Y33.82 Z255 F3.00 
G01 X30.875 Y33.82 Z255 F3.00 
G01 X30.875 Y33.82 Z255 F3.00 
G00 X31.065 Y33.345 Z0 F100.00 

G01 X31.065 Y33.345 Z255 F3.00 
G00 X30.685 Y32.87 Z0 F100.00 

G01 X30.685 Y32.87 Z255 F3.00 
G00 X30.78 Y32.585 Z0 F100.00 

G01 X30.78 Y32.49 Z255 F3.00 
G00 X30.97 Y32.395 Z0 F100.00 

G01 X30.97 Y32.395 Z255 F3.00 
G00 X31.065 Y32.11 Z0 F100.00 

G01 X31.255 Y32.11 Z255 F3.00 
G01 X31.35 Y32.015 Z255 F3.00 
G01 X31.445 Y31.73 Z255 F3.00 
G01 X31.54 Y31.635 Z255 F3.00 
G01 X31.635 Y31.635 Z255 F3.00 
G01 X31.73 Y31.54 Z255 F3.00 
G01 X31.635 Y31.445 Z255 F3.00 
G01 X31.54 Y31.54 Z255 F3.00 
G01 X31.35 Y31.635 Z255 F3.00 
G01 X31.255 Y31.73 Z255 F3.00 
G01 X31.35 Y31.825 Z255 F3.00 
G01 X31.255 Y31.92 Z255 F3.00 
G01 X31.16 Y31.825 Z255 F3.00 
G01 X31.065 Y31.92 Z255 F3.00 
G01 X31.065 Y32.015 Z255 F3.00 
G01 X30.97 Y32.11 Z255 F3.00 
G01 X30.97 Y32.11 Z255 F3.00 
G00 X32.015 Y31.73 Z0 F100.00 

G01 X32.11 Y31.825 Z255 F3.00 
G01 X32.205 Y31.73 Z255 F3.00 
G01 X32.3 Y31.825 Z255 F3.00 
G01 X32.3 Y31.825 Z255 F3.00 
G00 X32.395 Y32.015 Z0 F100.00 

G01 X32.11 Y32.3 Z255 F3.00 
G00 X31.92 Y31.445 Z0 F100.00 

G01 X31.825 Y31.35 Z255 F3.00 
G01 X31.73 Y31.445 Z255 F3.00 
G01 X31.73 Y31.445 Z255 F3.00 
G00 X32.015 Y31.445 Z0 F100.00 

G01 X32.11 Y31.35 Z255 F3.00 
G01 X32.3 Y31.255 Z255 F3.00 
G01 X32.395 Y31.16 Z255 F3.00 
G01 X32.965 Y30.685 Z255 F3.00 
G01 X33.06 Y30.59 Z255 F3.00 
G01 X33.155 Y30.685 Z255 F3.00 
G01 X33.25 Y30.59 Z255 F3.00 
G01 X33.44 Y30.495 Z255 F3.00 
G01 X33.535 Y30.59 Z255 F3.00 
G01 X33.725 Y30.59 Z255 F3.00 
G01 X33.725 Y30.4 Z255 F3.00 
G01 X33.63 Y30.495 Z255 F3.00 
G01 X33.535 Y30.4 Z255 F3.00 
G01 X33.63 Y30.305 Z255 F3.00 
G01 X33.63 Y30.21 Z255 F3.00 
G01 X33.535 Y30.115 Z255 F3.00 
G01 X33.44 Y30.21 Z255 F3.00 
G01 X33.44 Y30.305 Z255 F3.00 
G01 X33.44 Y30.305 Z255 F3.00 
G00 X33.25 Y30.685 Z0 F100.00 

G01 X33.535 Y30.78 Z255 F3.00 
G01 X33.63 Y30.875 Z255 F3.00 
G01 X33.82 Y31.255 Z255 F3.00 
G01 X33.915 Y31.35 Z255 F3.00 
G01 X33.915 Y31.54 Z255 F3.00 
G01 X33.44 Y31.825 Z255 F3.00 
G01 X33.44 Y31.635 Z255 F3.00 
G01 X33.345 Y31.54 Z255 F3.00 
G01 X33.345 Y31.35 Z255 F3.00 
G01 X33.345 Y31.16 Z255 F3.00 
G01 X33.44 Y31.065 Z255 F3.00 
G01 X33.345 Y30.97 Z255 F3.00 
G01 X33.44 Y30.97 Z255 F3.00 
G01 X33.345 Y31.065 Z255 F3.00 
G01 X33.44 Y31.16 Z255 F3.00 
G01 X33.345 Y31.255 Z255 F3.00 
G01 X33.345 Y31.445 Z255 F3.00 
G01 X33.25 Y31.54 Z255 F3.00 
G01 X33.345 Y31.635 Z255 F3.00 
G01 X33.63 Y31.73 Z255 F3.00 
G01 X33.915 Y31.445 Z255 F3.00 
G00 X33.63 Y31.255 Z0 F100.00 

G01 X33.63 Y31.35 Z255 F3.00 
G01 X33.63 Y31.635 Z255 F3.00 
G00 X33.63 Y31.065 Z0 F100.00 

G01 X33.725 Y30.875 Z255 F3.00 
G01 X33.915 Y30.875 Z255 F3.00 
G01 X35.245 Y32.015 Z255 F3.00 
G01 X35.34 Y32.11 Z255 F3.00 
G01 X35.625 Y32.3 Z255 F3.00 
G01 X35.72 Y32.395 Z255 F3.00 
G01 X36.765 Y33.535 Z255 F3.00 
G01 X36.86 Y33.63 Z255 F3.00 
G01 X36.955 Y33.535 Z255 F3.00 
G01 X37.24 Y33.06 Z255 F3.00 
G01 X37.335 Y32.965 Z255 F3.00 
G01 X37.81 Y32.3 Z255 F3.00 
G01 X37.905 Y32.205 Z255 F3.00 
G01 X37.905 Y32.11 Z255 F3.00 
G01 X37.905 Y32.11 Z255 F3.00 
G00 X38.095 Y32.015 Z0 F100.00 

G01 X38.095 Y32.015 Z255 F3.00 
G00 X38.19 Y31.73 Z0 F100.00 

G01 X38.19 Y31.54 Z255 F3.00 
G01 X38.19 Y31.445 Z255 F3.00 
G01 X38.19 Y31.445 Z255 F3.00 
G00 X38.285 Y31.065 Z0 F100.00 

G01 X38.285 Y31.065 Z255 F3.00 
G00 X38.57 Y30.97 Z0 F100.00 

G01 X38.475 Y30.97 Z255 F3.00 
G01 X38.57 Y30.875 Z255 F3.00 
G01 X38.57 Y30.78 Z255 F3.00 
G01 X38.665 Y30.685 Z255 F3.00 
G01 X38.57 Y30.685 Z255 F3.00 
G01 X38.665 Y30.59 Z255 F3.00 
G01 X38.665 Y30.495 Z255 F3.00 
G01 X38.76 Y30.4 Z255 F3.00 
G01 X38.665 Y30.305 Z255 F3.00 
G01 X38.76 Y30.21 Z255 F3.00 
G01 X38.76 Y30.02 Z255 F3.00 
G01 X38.855 Y29.925 Z255 F3.00 
G01 X38.76 Y29.925 Z255 F3.00 
G01 X38.855 Y30.02 Z255 F3.00 
G01 X38.76 Y30.115 Z255 F3.00 
G01 X38.76 Y30.115 Z255 F3.00 
G00 X38.665 Y30.4 Z0 F100.00 

G01 X38.665 Y30.4 Z255 F3.00 
G00 X38.285 Y30.685 Z0 F100.00 

G01 X38.285 Y30.685 Z255 F3.00 
G00 X38.95 Y29.735 Z0 F100.00 

G01 X38.855 Y29.64 Z255 F3.00 
G01 X38.95 Y29.545 Z255 F3.00 
G01 X38.855 Y29.545 Z255 F3.00 
G01 X38.95 Y29.64 Z255 F3.00 
G01 X38.855 Y29.735 Z255 F3.00 
G01 X38.855 Y29.735 Z255 F3.00 
G00 X38.95 Y29.355 Z0 F100.00 

G01 X39.045 Y29.26 Z255 F3.00 
G01 X38.95 Y29.165 Z255 F3.00 
G01 X39.045 Y29.07 Z255 F3.00 
G01 X38.95 Y28.975 Z255 F3.00 
G01 X39.045 Y28.88 Z255 F3.00 
G01 X39.33 Y28.785 Z255 F3.00 
G01 X39.33 Y28.975 Z255 F3.00 
G01 X39.425 Y29.07 Z255 F3.00 
G01 X39.425 Y29.26 Z255 F3.00 
G01 X39.52 Y29.355 Z255 F3.00 
G01 X39.425 Y29.45 Z255 F3.00 
G01 X39.52 Y29.545 Z255 F3.00 
G01 X39.425 Y29.64 Z255 F3.00 
G01 X39.52 Y29.735 Z255 F3.00 
G01 X39.52 Y29.925 Z255 F3.00 
G01 X39.615 Y30.02 Z255 F3.00 
G01 X39.52 Y30.115 Z255 F3.00 
G01 X39.615 Y30.21 Z255 F3.00 
G01 X39.615 Y30.305 Z255 F3.00 
G01 X39.71 Y30.4 Z255 F3.00 
G01 X39.615 Y30.495 Z255 F3.00 
G01 X39.71 Y30.59 Z255 F3.00 
G01 X39.71 Y30.685 Z255 F3.00 
G01 X39.805 Y30.78 Z255 F3.00 
G01 X39.71 Y30.875 Z255 F3.00 
G01 X39.805 Y30.97 Z255 F3.00 
G01 X39.71 Y31.065 Z255 F3.00 
G01 X39.805 Y31.16 Z255 F3.00 
G01 X39.71 Y31.16 Z255 F3.00 
G01 X39.805 Y31.255 Z255 F3.00 
G01 X39.805 Y31.35 Z255 F3.00 
G01 X39.9 Y31.825 Z255 F3.00 
G01 X39.995 Y32.015 Z255 F3.00 
G01 X39.9 Y32.11 Z255 F3.00 
G01 X39.9 Y32.3 Z255 F3.00 
G01 X39.805 Y32.395 Z255 F3.00 
G01 X39.805 Y32.49 Z255 F3.00 
G01 X39.9 Y32.585 Z255 F3.00 
G01 X39.995 Y32.49 Z255 F3.00 
G01 X40.09 Y32.3 Z255 F3.00 
G01 X40.185 Y32.205 Z255 F3.00 
G01 X40.185 Y32.11 Z255 F3.00 
G01 X40.28 Y32.015 Z255 F3.00 
G01 X40.28 Y31.92 Z255 F3.00 
G01 X40.375 Y31.825 Z255 F3.00 
G01 X40.375 Y31.73 Z255 F3.00 
G01 X40.47 Y31.635 Z255 F3.00 
G01 X40.47 Y31.54 Z255 F3.00 
G01 X40.565 Y31.445 Z255 F3.00 
G01 X40.66 Y31.54 Z255 F3.00 
G01 X40.85 Y31.54 Z255 F3.00 
G01 X40.85 Y31.445 Z255 F3.00 
G01 X40.945 Y31.255 Z255 F3.00 
G01 X40.945 Y31.16 Z255 F3.00 
G01 X41.04 Y30.97 Z255 F3.00 
G01 X40.945 Y30.97 Z255 F3.00 
G01 X41.04 Y30.875 Z255 F3.00 
G01 X41.04 Y30.78 Z255 F3.00 
G01 X41.135 Y30.59 Z255 F3.00 
G01 X41.23 Y30.685 Z255 F3.00 
G01 X41.23 Y30.875 Z255 F3.00 
G01 X41.325 Y30.97 Z255 F3.00 
G01 X41.23 Y31.065 Z255 F3.00 
G01 X41.325 Y31.16 Z255 F3.00 
G01 X41.23 Y31.255 Z255 F3.00 
G01 X41.325 Y31.35 Z255 F3.00 
G01 X41.23 Y31.445 Z255 F3.00 
G01 X41.325 Y31.54 Z255 F3.00 
G01 X41.23 Y31.635 Z255 F3.00 
G01 X41.325 Y31.73 Z255 F3.00 
G01 X41.325 Y31.825 Z255 F3.00 
G01 X41.325 Y32.68 Z255 F3.00 
G00 X41.895 Y32.87 Z0 F100.00 

G01 X41.99 Y32.965 Z255 F3.00 
G01 X41.99 Y33.06 Z255 F3.00 
G01 X41.895 Y33.345 Z255 F3.00 
G01 X41.8 Y33.25 Z255 F3.00 
G01 X41.8 Y33.345 Z255 F3.00 
G01 X41.895 Y33.44 Z255 F3.00 
G01 X41.895 Y33.535 Z255 F3.00 
G01 X41.8 Y33.82 Z255 F3.00 
G01 X41.8 Y33.915 Z255 F3.00 
G01 X41.705 Y34.01 Z255 F3.00 
G01 X41.705 Y34.105 Z255 F3.00 
G01 X41.61 Y34.2 Z255 F3.00 
G01 X41.61 Y34.39 Z255 F3.00 
G01 X41.515 Y34.485 Z255 F3.00 
G01 X41.515 Y34.675 Z255 F3.00 
G01 X41.42 Y34.77 Z255 F3.00 
G01 X41.42 Y34.865 Z255 F3.00 
G01 X41.325 Y34.96 Z255 F3.00 
G01 X41.23 Y35.245 Z255 F3.00 
G01 X41.135 Y35.34 Z255 F3.00 
G01 X40.85 Y35.815 Z255 F3.00 
G01 X40.755 Y35.91 Z255 F3.00 
G01 X40.565 Y36.29 Z255 F3.00 
G01 X40.47 Y36.385 Z255 F3.00 
G01 X40.375 Y36.67 Z255 F3.00 
G01 X40.28 Y36.765 Z255 F3.00 
G01 X40.185 Y37.05 Z255 F3.00 
G01 X40.09 Y37.05 Z255 F3.00 
G01 X40.185 Y37.145 Z255 F3.00 
G01 X40.09 Y37.24 Z255 F3.00 
G01 X39.995 Y37.525 Z255 F3.00 
G01 X39.9 Y37.62 Z255 F3.00 
G01 X39.9 Y37.81 Z255 F3.00 
G01 X40.185 Y37.905 Z255 F3.00 
G01 X41.04 Y37.145 Z255 F3.00 
G01 X41.135 Y37.24 Z255 F3.00 
G01 X41.705 Y37.905 Z255 F3.00 
G01 X41.8 Y38.0 Z255 F3.00 
G01 X41.8 Y38.19 Z255 F3.00 
G01 X41.895 Y38.285 Z255 F3.00 
G01 X42.75 Y39.33 Z255 F3.00 
G01 X42.845 Y39.425 Z255 F3.00 
G01 X43.13 Y39.615 Z255 F3.00 
G01 X43.225 Y39.71 Z255 F3.00 
G01 X43.225 Y39.9 Z255 F3.00 
G01 X43.32 Y39.995 Z255 F3.00 
G01 X43.7 Y40.565 Z255 F3.00 
G01 X43.795 Y40.66 Z255 F3.00 
G01 X44.365 Y41.04 Z255 F3.00 
G01 X44.46 Y40.945 Z255 F3.00 
G00 X44.365 Y41.325 Z0 F100.00 

G01 X44.27 Y41.42 Z255 F3.00 
G01 X44.365 Y41.515 Z255 F3.00 
G01 X44.65 Y41.99 Z255 F3.00 
G01 X44.745 Y42.085 Z255 F3.00 
G01 X45.03 Y42.56 Z255 F3.00 
G01 X45.125 Y42.655 Z255 F3.00 
G01 X45.22 Y42.94 Z255 F3.00 
G01 X45.315 Y43.035 Z255 F3.00 
G01 X45.41 Y43.225 Z255 F3.00 
G01 X45.505 Y43.32 Z255 F3.00 
G01 X45.505 Y43.415 Z255 F3.00 
G01 X45.6 Y43.51 Z255 F3.00 
G01 X45.695 Y43.795 Z255 F3.00 
G01 X45.79 Y43.89 Z255 F3.00 
G01 X45.98 Y44.27 Z255 F3.00 
G01 X45.885 Y44.175 Z255 F3.00 
G01 X45.885 Y44.08 Z255 F3.00 
G01 X45.885 Y44.08 Z255 F3.00 
G00 X45.79 Y43.795 Z0 F100.00 

G01 X45.6 Y43.605 Z255 F3.00 
G00 X45.98 Y43.51 Z0 F100.00 

G01 X46.075 Y43.51 Z255 F3.00 
G01 X46.17 Y43.605 Z255 F3.00 
G01 X46.075 Y43.7 Z255 F3.00 
G01 X45.98 Y43.605 Z255 F3.00 
G01 X45.98 Y43.605 Z255 F3.00 
G00 X45.885 Y43.32 Z0 F100.00 

G01 X45.885 Y43.13 Z255 F3.00 
G01 X45.79 Y43.035 Z255 F3.00 
G01 X45.695 Y42.75 Z255 F3.00 
G01 X45.6 Y42.655 Z255 F3.00 
G01 X45.505 Y42.75 Z255 F3.00 
G01 X45.41 Y42.655 Z255 F3.00 
G01 X45.505 Y42.56 Z255 F3.00 
G01 X45.41 Y42.56 Z255 F3.00 
G01 X45.315 Y42.465 Z255 F3.00 
G01 X45.22 Y42.465 Z255 F3.00 
G01 X45.315 Y42.56 Z255 F3.00 
G01 X45.22 Y42.655 Z255 F3.00 
G01 X45.22 Y42.845 Z255 F3.00 
G01 X45.315 Y43.13 Z255 F3.00 
G01 X45.315 Y43.13 Z255 F3.00 
G00 X45.79 Y43.13 Z0 F100.00 

G01 X45.98 Y43.32 Z255 F3.00 
G00 X45.695 Y42.845 Z0 F100.00 

G01 X45.695 Y42.845 Z255 F3.00 
G00 X44.935 Y42.37 Z0 F100.00 

G01 X44.84 Y42.275 Z255 F3.00 
G01 X44.84 Y42.085 Z255 F3.00 
G01 X44.745 Y41.99 Z255 F3.00 
G01 X44.555 Y41.61 Z255 F3.00 
G01 X44.46 Y41.515 Z255 F3.00 
G01 X44.08 Y41.04 Z255 F3.00 
G01 X43.985 Y40.945 Z255 F3.00 
G01 X43.985 Y40.755 Z255 F3.00 
G01 X43.89 Y40.66 Z255 F3.00 
G01 X43.985 Y40.565 Z255 F3.00 
G01 X44.08 Y40.565 Z255 F3.00 
G01 X44.175 Y40.47 Z255 F3.00 
G01 X45.22 Y39.52 Z255 F3.00 
G01 X45.315 Y39.425 Z255 F3.00 
G01 X45.505 Y39.33 Z255 F3.00 
G01 X45.6 Y39.235 Z255 F3.00 
G01 X45.885 Y39.14 Z255 F3.00 
G01 X46.265 Y39.33 Z255 F3.00 
G01 X46.17 Y39.235 Z255 F3.00 
G01 X46.265 Y39.14 Z255 F3.00 
G01 X46.36 Y38.95 Z255 F3.00 
G01 X46.455 Y38.855 Z255 F3.00 
G01 X46.645 Y38.76 Z255 F3.00 
G01 X46.74 Y38.665 Z255 F3.00 
G01 X46.645 Y38.57 Z255 F3.00 
G01 X46.74 Y38.475 Z255 F3.00 
G01 X46.74 Y38.38 Z255 F3.00 
G01 X46.835 Y38.475 Z255 F3.00 
G01 X46.835 Y38.665 Z255 F3.00 
G01 X46.93 Y38.76 Z255 F3.00 
G01 X47.025 Y39.045 Z255 F3.00 
G01 X47.12 Y39.14 Z255 F3.00 
G01 X47.215 Y39.425 Z255 F3.00 
G01 X47.31 Y39.52 Z255 F3.00 
G01 X47.405 Y39.805 Z255 F3.00 
G01 X47.5 Y39.9 Z255 F3.00 
G01 X47.5 Y39.995 Z255 F3.00 
G01 X47.595 Y40.09 Z255 F3.00 
G01 X47.595 Y40.28 Z255 F3.00 
G01 X47.69 Y40.375 Z255 F3.00 
G01 X47.69 Y40.565 Z255 F3.00 
G01 X47.785 Y40.66 Z255 F3.00 
G01 X47.785 Y40.755 Z255 F3.00 
G01 X47.88 Y40.85 Z255 F3.00 
G01 X47.785 Y40.945 Z255 F3.00 
G01 X47.88 Y41.04 Z255 F3.00 
G01 X47.785 Y41.04 Z255 F3.00 
G01 X47.88 Y41.135 Z255 F3.00 
G01 X47.88 Y41.325 Z255 F3.00 
G01 X47.975 Y41.42 Z255 F3.00 
G01 X47.88 Y41.515 Z255 F3.00 
G01 X47.975 Y41.61 Z255 F3.00 
G01 X47.88 Y41.705 Z255 F3.00 
G01 X47.975 Y41.8 Z255 F3.00 
G01 X47.88 Y41.895 Z255 F3.00 
G01 X47.975 Y41.99 Z255 F3.00 
G01 X47.88 Y42.085 Z255 F3.00 
G01 X47.975 Y42.18 Z255 F3.00 
G01 X47.88 Y42.275 Z255 F3.00 
G01 X47.975 Y42.37 Z255 F3.00 
G01 X47.88 Y42.465 Z255 F3.00 
G01 X47.975 Y42.56 Z255 F3.00 
G01 X47.88 Y42.655 Z255 F3.00 
G01 X47.88 Y42.845 Z255 F3.00 
G01 X47.785 Y42.94 Z255 F3.00 
G01 X47.88 Y43.035 Z255 F3.00 
G01 X47.785 Y43.035 Z255 F3.00 
G01 X47.88 Y43.13 Z255 F3.00 
G01 X48.165 Y43.225 Z255 F3.00 
G01 X48.07 Y43.13 Z255 F3.00 
G01 X48.165 Y43.13 Z255 F3.00 
G01 X48.26 Y43.035 Z255 F3.00 
G01 X48.165 Y42.94 Z255 F3.00 
G01 X48.07 Y43.035 Z255 F3.00 
G01 X48.07 Y43.035 Z255 F3.00 
G00 X48.26 Y42.94 Z0 F100.00 

G01 X48.355 Y42.845 Z255 F3.00 
G01 X48.26 Y42.75 Z255 F3.00 
G01 X48.355 Y42.75 Z255 F3.00 
G01 X48.45 Y42.655 Z255 F3.00 
G01 X48.735 Y42.18 Z255 F3.00 
G01 X48.83 Y42.085 Z255 F3.00 
G01 X49.02 Y41.705 Z255 F3.00 
G01 X49.115 Y41.61 Z255 F3.00 
G01 X49.115 Y41.42 Z255 F3.00 
G01 X49.21 Y41.325 Z255 F3.00 
G01 X49.305 Y41.04 Z255 F3.00 
G01 X49.4 Y40.945 Z255 F3.00 
G01 X49.59 Y40.945 Z255 F3.00 
G01 X49.59 Y41.135 Z255 F3.00 
G01 X49.59 Y41.23 Z255 F3.00 
G01 X49.495 Y41.325 Z255 F3.00 
G01 X49.59 Y41.42 Z255 F3.00 
G01 X49.685 Y41.705 Z255 F3.00 
G01 X49.685 Y41.8 Z255 F3.00 
G01 X49.59 Y41.895 Z255 F3.00 
G01 X49.59 Y41.99 Z255 F3.00 
G01 X49.495 Y42.085 Z255 F3.00 
G01 X49.4 Y42.37 Z255 F3.00 
G01 X49.305 Y42.465 Z255 F3.00 
G01 X49.305 Y42.56 Z255 F3.00 
G01 X49.21 Y42.655 Z255 F3.00 
G01 X49.21 Y42.75 Z255 F3.00 
G01 X49.21 Y42.845 Z255 F3.00 
G00 X49.4 Y42.275 Z0 F100.00 

G01 X49.4 Y42.085 Z255 F3.00 
G01 X49.4 Y41.99 Z255 F3.00 
G01 X49.495 Y41.705 Z255 F3.00 
G01 X49.495 Y41.61 Z255 F3.00 
G01 X49.59 Y41.325 Z255 F3.00 
G01 X49.59 Y41.325 Z255 F3.00 
G00 X49.875 Y41.42 Z0 F100.00 

G01 X49.78 Y41.515 Z255 F3.00 
G01 X49.78 Y41.42 Z255 F3.00 
G01 X49.875 Y41.325 Z255 F3.00 
G01 X49.78 Y41.23 Z255 F3.00 
G01 X49.875 Y41.135 Z255 F3.00 
G01 X49.97 Y40.85 Z255 F3.00 
G01 X49.875 Y40.945 Z255 F3.00 
G01 X49.875 Y41.04 Z255 F3.00 
G01 X49.97 Y41.135 Z255 F3.00 
G01 X49.875 Y41.23 Z255 F3.00 
G01 X49.875 Y41.23 Z255 F3.00 
G00 X49.59 Y41.04 Z0 F100.00 

G01 X49.59 Y41.04 Z255 F3.00 
G00 X49.305 Y41.135 Z0 F100.00 

G01 X49.305 Y41.325 Z255 F3.00 
G01 X49.21 Y41.42 Z255 F3.00 
G01 X49.115 Y41.705 Z255 F3.00 
G01 X49.115 Y41.705 Z255 F3.00 
G00 X48.925 Y41.895 Z0 F100.00 

G01 X48.83 Y41.99 Z255 F3.00 
G01 X48.925 Y42.085 Z255 F3.00 
G01 X48.83 Y42.18 Z255 F3.00 
G01 X48.83 Y42.18 Z255 F3.00 
G00 X48.545 Y41.99 Z0 F100.00 

G01 X48.64 Y41.895 Z255 F3.00 
G01 X48.64 Y41.705 Z255 F3.00 
G01 X48.735 Y41.61 Z255 F3.00 
G01 X48.735 Y41.42 Z255 F3.00 
G01 X48.83 Y41.325 Z255 F3.00 
G01 X48.83 Y41.135 Z255 F3.00 
G01 X48.925 Y41.04 Z255 F3.00 
G01 X48.83 Y40.945 Z255 F3.00 
G01 X48.925 Y40.85 Z255 F3.00 
G01 X48.925 Y40.66 Z255 F3.00 
G01 X49.02 Y40.565 Z255 F3.00 
G01 X48.925 Y40.47 Z255 F3.00 
G01 X49.02 Y40.375 Z255 F3.00 
G01 X49.02 Y40.185 Z255 F3.00 
G01 X49.115 Y40.09 Z255 F3.00 
G01 X49.02 Y39.995 Z255 F3.00 
G01 X49.115 Y39.9 Z255 F3.00 
G01 X49.02 Y39.9 Z255 F3.00 
G01 X49.115 Y39.995 Z255 F3.00 
G01 X49.02 Y40.09 Z255 F3.00 
G01 X49.115 Y40.185 Z255 F3.00 
G01 X49.02 Y40.28 Z255 F3.00 
G01 X49.02 Y40.28 Z255 F3.00 
G00 X48.925 Y40.565 Z0 F100.00 

G01 X49.02 Y40.66 Z255 F3.00 
G01 X48.925 Y40.755 Z255 F3.00 
G01 X48.925 Y40.755 Z255 F3.00 
G00 X48.83 Y41.04 Z0 F100.00 

G01 X48.925 Y41.135 Z255 F3.00 
G01 X48.83 Y41.23 Z255 F3.00 
G01 X48.83 Y41.42 Z255 F3.00 
G01 X48.735 Y41.515 Z255 F3.00 
G01 X48.735 Y41.705 Z255 F3.00 
G01 X48.64 Y41.8 Z255 F3.00 
G01 X48.64 Y41.99 Z255 F3.00 
G01 X48.545 Y42.085 Z255 F3.00 
G01 X48.45 Y42.275 Z255 F3.00 
G01 X48.355 Y42.37 Z255 F3.00 
G01 X48.355 Y42.465 Z255 F3.00 
G01 X48.26 Y42.56 Z255 F3.00 
G01 X48.26 Y42.655 Z255 F3.00 
G01 X48.26 Y42.655 Z255 F3.00 
G00 X47.88 Y42.56 Z0 F100.00 

G01 X47.88 Y42.75 Z255 F3.00 
G01 X47.785 Y42.845 Z255 F3.00 
G01 X47.88 Y42.94 Z255 F3.00 
G01 X47.88 Y42.94 Z255 F3.00 
G00 X47.785 Y43.225 Z0 F100.00 

G01 X47.69 Y43.32 Z255 F3.00 
G01 X47.785 Y43.32 Z255 F3.00 
G01 X47.88 Y43.415 Z255 F3.00 
G01 X47.88 Y43.605 Z255 F3.00 
G01 X47.785 Y43.795 Z255 F3.00 
G01 X47.69 Y43.89 Z255 F3.00 
G01 X47.5 Y44.175 Z255 F3.00 
G01 X47.5 Y44.175 Z255 F3.00 
G00 X47.5 Y43.89 Z0 F100.00 

G01 X47.595 Y43.795 Z255 F3.00 
G01 X47.595 Y43.7 Z255 F3.00 
G01 X47.69 Y43.51 Z255 F3.00 
G01 X47.69 Y43.415 Z255 F3.00 
G01 X47.69 Y43.415 Z255 F3.00 
G00 X47.975 Y43.415 Z0 F100.00 

G01 X47.975 Y43.415 Z255 F3.00 
G00 X47.975 Y42.275 Z0 F100.00 

G01 X47.88 Y42.18 Z255 F3.00 
G01 X47.975 Y42.085 Z255 F3.00 
G01 X47.88 Y41.99 Z255 F3.00 
G01 X47.975 Y41.895 Z255 F3.00 
G01 X47.88 Y41.8 Z255 F3.00 
G01 X47.975 Y41.705 Z255 F3.00 
G01 X47.88 Y41.61 Z255 F3.00 
G01 X47.975 Y41.515 Z255 F3.00 
G01 X47.88 Y41.42 Z255 F3.00 
G01 X47.975 Y41.325 Z255 F3.00 
G01 X47.88 Y41.23 Z255 F3.00 
G01 X47.88 Y41.23 Z255 F3.00 
G00 X47.785 Y40.85 Z0 F100.00 

G01 X47.785 Y40.85 Z255 F3.00 
G00 X47.69 Y40.47 Z0 F100.00 

G01 X47.69 Y40.47 Z255 F3.00 
G00 X47.595 Y40.185 Z0 F100.00 

G01 X47.595 Y40.185 Z255 F3.00 
G00 X47.5 Y39.805 Z0 F100.00 

G01 X47.405 Y39.52 Z255 F3.00 
G01 X47.31 Y39.425 Z255 F3.00 
G01 X47.215 Y39.14 Z255 F3.00 
G01 X47.12 Y39.045 Z255 F3.00 
G01 X46.93 Y39.045 Z255 F3.00 
G01 X46.835 Y39.045 Z255 F3.00 
G01 X46.74 Y39.14 Z255 F3.00 
G01 X46.645 Y39.14 Z255 F3.00 
G01 X46.455 Y39.235 Z255 F3.00 
G01 X46.36 Y39.33 Z255 F3.00 
G00 X45.98 Y39.52 Z0 F100.00 

G01 X45.695 Y39.71 Z255 F3.00 
G01 X45.79 Y39.615 Z255 F3.00 
G01 X45.885 Y39.425 Z255 F3.00 
G01 X45.98 Y39.33 Z255 F3.00 
G01 X45.98 Y39.33 Z255 F3.00 
G00 X45.695 Y39.045 Z0 F100.00 

G01 X45.6 Y39.14 Z255 F3.00 
G01 X45.505 Y39.14 Z255 F3.00 
G01 X45.41 Y39.235 Z255 F3.00 
G01 X45.22 Y39.33 Z255 F3.00 
G01 X45.125 Y39.425 Z255 F3.00 
G01 X44.745 Y39.71 Z255 F3.00 
G01 X44.65 Y39.805 Z255 F3.00 
G01 X43.985 Y40.47 Z255 F3.00 
G00 X43.7 Y40.47 Z0 F100.00 

G01 X43.51 Y40.09 Z255 F3.00 
G01 X43.415 Y39.995 Z255 F3.00 
G01 X43.32 Y39.9 Z255 F3.00 
G00 X43.035 Y39.71 Z0 F100.00 

G01 X43.035 Y39.71 Z255 F3.00 
G00 X42.94 Y39.425 Z0 F100.00 

G01 X42.845 Y39.33 Z255 F3.00 
G00 X42.56 Y39.14 Z0 F100.00 

G01 X42.085 Y38.57 Z255 F3.00 
G01 X41.99 Y38.475 Z255 F3.00 
G01 X41.895 Y38.475 Z255 F3.00 
G01 X41.8 Y38.38 Z255 F3.00 
G01 X41.705 Y38.475 Z255 F3.00 
G01 X41.8 Y38.475 Z255 F3.00 
G01 X41.705 Y38.57 Z255 F3.00 
G01 X41.515 Y38.57 Z255 F3.00 
G01 X41.61 Y38.475 Z255 F3.00 
G01 X41.61 Y38.475 Z255 F3.00 
G00 X41.42 Y38.76 Z0 F100.00 

G01 X41.23 Y38.76 Z255 F3.00 
G01 X41.135 Y38.855 Z255 F3.00 
G01 X41.135 Y38.95 Z255 F3.00 
G01 X41.23 Y38.855 Z255 F3.00 
G01 X41.42 Y38.665 Z255 F3.00 
G00 X40.945 Y39.14 Z0 F100.00 

G01 X40.85 Y39.045 Z255 F3.00 
G01 X40.945 Y38.95 Z255 F3.00 
G01 X40.945 Y38.95 Z255 F3.00 
G00 X40.755 Y39.235 Z0 F100.00 

G01 X40.28 Y39.615 Z255 F3.00 
G01 X40.375 Y39.71 Z255 F3.00 
G01 X40.28 Y39.805 Z255 F3.00 
G01 X40.375 Y39.9 Z255 F3.00 
G01 X40.47 Y39.995 Z255 F3.00 
G00 X40.185 Y39.995 Z0 F100.00 

G01 X40.185 Y40.185 Z255 F3.00 
G01 X40.09 Y40.185 Z255 F3.00 
G01 X40.185 Y40.28 Z255 F3.00 
G01 X40.185 Y40.375 Z255 F3.00 
G01 X40.28 Y40.66 Z255 F3.00 
G01 X40.375 Y40.945 Z255 F3.00 
G01 X40.28 Y40.85 Z255 F3.00 
G01 X39.995 Y40.47 Z255 F3.00 
G01 X39.9 Y40.375 Z255 F3.00 
G01 X39.995 Y40.28 Z255 F3.00 
G01 X39.9 Y40.185 Z255 F3.00 
G01 X39.805 Y40.185 Z255 F3.00 
G01 X39.9 Y40.28 Z255 F3.00 
G01 X39.9 Y40.28 Z255 F3.00 
G00 X39.805 Y39.995 Z0 F100.00 

G01 X39.71 Y40.09 Z255 F3.00 
G01 X39.71 Y40.28 Z255 F3.00 
G01 X39.615 Y40.375 Z255 F3.00 
G01 X39.71 Y40.47 Z255 F3.00 
G01 X39.71 Y40.66 Z255 F3.00 
G01 X39.805 Y40.755 Z255 F3.00 
G01 X40.28 Y41.135 Z255 F3.00 
G01 X40.375 Y41.23 Z255 F3.00 
G01 X40.47 Y41.23 Z255 F3.00 
G01 X40.565 Y41.325 Z255 F3.00 
G01 X40.755 Y41.42 Z255 F3.00 
G01 X40.85 Y41.515 Z255 F3.00 
G01 X41.23 Y41.705 Z255 F3.00 
G01 X41.135 Y41.61 Z255 F3.00 
G01 X40.945 Y41.325 Z255 F3.00 
G01 X41.04 Y41.135 Z255 F3.00 
G01 X41.04 Y41.04 Z255 F3.00 
G01 X41.135 Y40.85 Z255 F3.00 
G01 X41.23 Y40.945 Z255 F3.00 
G01 X41.42 Y41.23 Z255 F3.00 
G01 X41.515 Y41.325 Z255 F3.00 
G01 X41.99 Y41.895 Z255 F3.00 
G01 X42.085 Y41.99 Z255 F3.00 
G01 X42.37 Y42.37 Z255 F3.00 
G01 X42.465 Y42.465 Z255 F3.00 
G01 X42.56 Y42.655 Z255 F3.00 
G01 X42.655 Y42.75 Z255 F3.00 
G01 X42.75 Y42.94 Z255 F3.00 
G01 X42.845 Y43.035 Z255 F3.00 
G01 X42.94 Y43.32 Z255 F3.00 
G01 X43.035 Y43.32 Z255 F3.00 
G01 X43.13 Y43.415 Z255 F3.00 
G01 X43.13 Y43.51 Z255 F3.00 
G01 X43.225 Y43.605 Z255 F3.00 
G01 X43.13 Y43.7 Z255 F3.00 
G01 X43.035 Y43.605 Z255 F3.00 
G01 X42.94 Y43.7 Z255 F3.00 
G01 X42.845 Y43.985 Z255 F3.00 
G01 X42.75 Y44.08 Z255 F3.00 
G01 X42.845 Y44.175 Z255 F3.00 
G01 X43.035 Y44.175 Z255 F3.00 
G01 X43.225 Y43.89 Z255 F3.00 
G01 X43.32 Y43.985 Z255 F3.00 
G01 X43.32 Y44.175 Z255 F3.00 
G01 X43.415 Y44.27 Z255 F3.00 
G01 X43.415 Y44.46 Z255 F3.00 
G01 X43.51 Y44.555 Z255 F3.00 
G01 X43.51 Y44.65 Z255 F3.00 
G01 X43.605 Y44.745 Z255 F3.00 
G01 X43.605 Y44.84 Z255 F3.00 
G01 X43.7 Y44.935 Z255 F3.00 
G01 X43.795 Y45.22 Z255 F3.00 
G01 X43.89 Y45.315 Z255 F3.00 
G01 X43.985 Y45.6 Z255 F3.00 
G01 X44.08 Y45.695 Z255 F3.00 
G01 X44.27 Y46.075 Z255 F3.00 
G01 X44.365 Y46.17 Z255 F3.00 
G01 X44.65 Y46.265 Z255 F3.00 
G01 X44.555 Y46.17 Z255 F3.00 
G01 X44.65 Y46.17 Z255 F3.00 
G01 X44.745 Y46.265 Z255 F3.00 
G01 X44.84 Y46.17 Z255 F3.00 
G01 X44.745 Y46.075 Z255 F3.00 
G01 X44.84 Y46.075 Z255 F3.00 
G01 X44.935 Y46.17 Z255 F3.00 
G01 X45.03 Y46.075 Z255 F3.00 
G01 X44.935 Y45.98 Z255 F3.00 
G01 X45.03 Y45.98 Z255 F3.00 
G01 X45.125 Y46.075 Z255 F3.00 
G01 X45.22 Y45.98 Z255 F3.00 
G01 X45.125 Y45.885 Z255 F3.00 
G01 X45.22 Y45.885 Z255 F3.00 
G01 X45.315 Y45.98 Z255 F3.00 
G01 X45.41 Y45.885 Z255 F3.00 
G01 X45.315 Y45.79 Z255 F3.00 
G01 X45.41 Y45.79 Z255 F3.00 
G01 X45.505 Y45.885 Z255 F3.00 
G01 X45.6 Y45.885 Z255 F3.00 
G01 X45.695 Y45.98 Z255 F3.00 
G01 X45.885 Y45.98 Z255 F3.00 
G01 X45.98 Y45.79 Z255 F3.00 
G01 X45.885 Y45.695 Z255 F3.00 
G01 X45.98 Y45.6 Z255 F3.00 
G01 X46.55 Y45.125 Z255 F3.00 
G01 X46.455 Y45.22 Z255 F3.00 
G01 X46.265 Y45.41 Z255 F3.00 
G00 X45.98 Y45.505 Z0 F100.00 

G01 X45.885 Y45.505 Z255 F3.00 
G01 X45.79 Y45.6 Z255 F3.00 
G01 X45.695 Y45.505 Z255 F3.00 
G01 X45.79 Y45.41 Z255 F3.00 
G01 X45.695 Y45.315 Z255 F3.00 
G01 X45.6 Y45.41 Z255 F3.00 
G01 X45.6 Y45.6 Z255 F3.00 
G01 X45.505 Y45.695 Z255 F3.00 
G01 X45.41 Y45.6 Z255 F3.00 
G01 X45.41 Y45.505 Z255 F3.00 
G01 X45.505 Y45.41 Z255 F3.00 
G01 X45.505 Y45.22 Z255 F3.00 
G01 X45.6 Y45.125 Z255 F3.00 
G01 X45.505 Y45.03 Z255 F3.00 
G01 X45.6 Y45.03 Z255 F3.00 
G01 X45.6 Y45.03 Z255 F3.00 
G00 X45.315 Y45.41 Z0 F100.00 

G01 X45.22 Y45.315 Z255 F3.00 
G01 X45.125 Y45.41 Z255 F3.00 
G01 X45.125 Y45.315 Z255 F3.00 
G01 X45.22 Y45.125 Z255 F3.00 
G01 X45.41 Y45.03 Z255 F3.00 
G01 X45.41 Y45.03 Z255 F3.00 
G00 X45.695 Y45.79 Z0 F100.00 

G01 X45.79 Y45.695 Z255 F3.00 
G01 X45.79 Y45.695 Z255 F3.00 
G00 X45.98 Y46.455 Z0 F100.00 

G01 X46.075 Y46.36 Z255 F3.00 
G01 X46.17 Y46.36 Z255 F3.00 
G01 X46.265 Y46.265 Z255 F3.00 
G01 X46.455 Y46.17 Z255 F3.00 
G01 X46.55 Y46.075 Z255 F3.00 
G01 X46.835 Y45.885 Z255 F3.00 
G01 X46.93 Y45.79 Z255 F3.00 
G01 X47.025 Y45.885 Z255 F3.00 
G01 X47.31 Y46.075 Z255 F3.00 
G01 X47.405 Y46.17 Z255 F3.00 
G01 X47.31 Y46.265 Z255 F3.00 
G01 X47.405 Y46.36 Z255 F3.00 
G01 X47.595 Y46.455 Z255 F3.00 
G01 X47.69 Y46.55 Z255 F3.00 
G01 X48.07 Y47.025 Z255 F3.00 
G01 X48.165 Y47.12 Z255 F3.00 
G01 X48.45 Y47.595 Z255 F3.00 
G01 X48.545 Y47.69 Z255 F3.00 
G01 X48.64 Y47.69 Z255 F3.00 
G01 X48.545 Y47.785 Z255 F3.00 
G01 X48.26 Y48.26 Z255 F3.00 
G01 X48.165 Y48.355 Z255 F3.00 
G01 X47.215 Y49.115 Z255 F3.00 
G01 X47.31 Y49.02 Z255 F3.00 
G01 X47.405 Y49.02 Z255 F3.00 
G01 X47.5 Y48.925 Z255 F3.00 
G01 X47.69 Y48.64 Z255 F3.00 
G01 X47.785 Y48.545 Z255 F3.00 
G01 X48.07 Y48.26 Z255 F3.00 
G00 X48.355 Y48.07 Z0 F100.00 

G01 X48.45 Y47.975 Z255 F3.00 
G00 X48.83 Y48.165 Z0 F100.00 

G01 X49.02 Y48.165 Z255 F3.00 
G01 X49.59 Y48.64 Z255 F3.00 
G01 X49.685 Y48.735 Z255 F3.00 
G01 X49.78 Y48.64 Z255 F3.00 
G01 X49.685 Y48.545 Z255 F3.00 
G01 X49.59 Y48.355 Z255 F3.00 
G01 X49.685 Y47.975 Z255 F3.00 
G01 X49.685 Y47.88 Z255 F3.00 
G01 X49.59 Y47.69 Z255 F3.00 
G01 X49.495 Y47.785 Z255 F3.00 
G01 X49.495 Y47.88 Z255 F3.00 
G01 X49.4 Y48.07 Z255 F3.00 
G01 X49.21 Y48.07 Z255 F3.00 
G01 X48.925 Y47.975 Z255 F3.00 
G01 X48.925 Y47.88 Z255 F3.00 
G01 X49.02 Y47.785 Z255 F3.00 
G01 X48.925 Y47.69 Z255 F3.00 
G01 X48.83 Y47.785 Z255 F3.00 
G01 X48.735 Y47.69 Z255 F3.00 
G01 X48.83 Y47.595 Z255 F3.00 
G01 X48.735 Y47.5 Z255 F3.00 
G01 X48.64 Y47.5 Z255 F3.00 
G01 X48.64 Y47.5 Z255 F3.00 
G00 X48.26 Y47.405 Z0 F100.00 

G01 X47.88 Y47.215 Z255 F3.00 
G01 X47.88 Y47.405 Z255 F3.00 
G01 X47.785 Y47.5 Z255 F3.00 
G01 X47.12 Y48.07 Z255 F3.00 
G01 X47.215 Y48.165 Z255 F3.00 
G01 X47.12 Y48.26 Z255 F3.00 
G01 X47.025 Y48.165 Z255 F3.00 
G01 X46.93 Y48.26 Z255 F3.00 
G01 X46.93 Y48.45 Z255 F3.00 
G01 X46.835 Y48.545 Z255 F3.00 
G01 X46.74 Y48.45 Z255 F3.00 
G01 X46.645 Y48.545 Z255 F3.00 
G01 X46.265 Y48.735 Z255 F3.00 
G01 X46.17 Y48.83 Z255 F3.00 
G01 X45.98 Y48.83 Z255 F3.00 
G01 X45.79 Y48.45 Z255 F3.00 
G01 X46.075 Y48.26 Z255 F3.00 
G01 X46.17 Y48.165 Z255 F3.00 
G01 X46.36 Y48.165 Z255 F3.00 
G01 X46.455 Y48.07 Z255 F3.00 
G01 X47.595 Y46.74 Z255 F3.00 
G01 X47.5 Y46.835 Z255 F3.00 
G01 X47.405 Y47.025 Z255 F3.00 
G01 X47.31 Y47.12 Z255 F3.00 
G01 X46.17 Y48.26 Z255 F3.00 
G00 X45.695 Y48.45 Z0 F100.00 

G01 X45.79 Y48.545 Z255 F3.00 
G01 X46.36 Y48.925 Z255 F3.00 
G01 X46.455 Y49.02 Z255 F3.00 
G01 X46.55 Y49.305 Z255 F3.00 
G01 X46.645 Y49.4 Z255 F3.00 
G01 X46.645 Y49.495 Z255 F3.00 
G01 X46.74 Y49.59 Z255 F3.00 
G01 X46.93 Y49.685 Z255 F3.00 
G01 X47.025 Y49.78 Z255 F3.00 
G01 X47.12 Y49.685 Z255 F3.00 
G01 X47.215 Y49.685 Z255 F3.00 
G01 X47.31 Y49.78 Z255 F3.00 
G01 X47.69 Y50.35 Z255 F3.00 
G01 X47.785 Y50.445 Z255 F3.00 
G01 X48.165 Y50.73 Z255 F3.00 
G01 X48.26 Y50.825 Z255 F3.00 
G01 X48.45 Y51.11 Z255 F3.00 
G01 X48.545 Y51.205 Z255 F3.00 
G01 X48.545 Y51.395 Z255 F3.00 
G01 X48.45 Y51.3 Z255 F3.00 
G01 X48.26 Y51.015 Z255 F3.00 
G01 X48.165 Y50.92 Z255 F3.00 
G01 X48.07 Y50.825 Z255 F3.00 
G00 X47.975 Y50.54 Z0 F100.00 

G01 X47.785 Y50.35 Z255 F3.00 
G00 X47.5 Y50.16 Z0 F100.00 

G01 X47.025 Y49.685 Z255 F3.00 
G00 X46.835 Y49.495 Z0 F100.00 

G01 X46.93 Y49.4 Z255 F3.00 
G01 X47.215 Y49.21 Z255 F3.00 
G01 X47.215 Y49.21 Z255 F3.00 
G00 X47.025 Y48.925 Z0 F100.00 

G01 X47.12 Y48.925 Z255 F3.00 
G01 X47.025 Y48.83 Z255 F3.00 
G01 X47.025 Y48.83 Z255 F3.00 
G00 X46.645 Y48.64 Z0 F100.00 

G01 X46.455 Y48.64 Z255 F3.00 
G01 X46.36 Y48.735 Z255 F3.00 
G01 X46.36 Y48.735 Z255 F3.00 
G00 X46.455 Y49.115 Z0 F100.00 

G01 X46.455 Y49.21 Z255 F3.00 
G01 X46.455 Y49.21 Z255 F3.00 
G00 X46.835 Y49.305 Z0 F100.00 

G01 X46.93 Y49.305 Z255 F3.00 
G01 X46.93 Y49.305 Z255 F3.00 
G00 X47.405 Y49.59 Z0 F100.00 

G01 X47.5 Y49.685 Z255 F3.00 
G01 X47.595 Y49.59 Z255 F3.00 
G01 X48.355 Y48.64 Z255 F3.00 
G01 X48.45 Y48.545 Z255 F3.00 
G01 X48.735 Y48.355 Z255 F3.00 
G01 X48.83 Y48.26 Z255 F3.00 
G01 X48.925 Y48.165 Z255 F3.00 
G00 X48.545 Y48.545 Z0 F100.00 

G01 X48.45 Y48.64 Z255 F3.00 
G00 X48.26 Y48.83 Z0 F100.00 

G01 X48.165 Y48.925 Z255 F3.00 
G01 X47.405 Y49.685 Z255 F3.00 
G00 X47.975 Y49.685 Z0 F100.00 

G01 X47.975 Y49.685 Z255 F3.00 
G00 X47.025 Y48.26 Z0 F100.00 

G01 X47.025 Y48.26 Z255 F3.00 
G00 X47.31 Y47.88 Z0 F100.00 

G01 X47.975 Y47.215 Z255 F3.00 
G00 X48.07 Y46.835 Z0 F100.00 

G01 X48.07 Y46.74 Z255 F3.00 
G01 X47.975 Y46.645 Z255 F3.00 
G01 X47.88 Y46.645 Z255 F3.00 
G01 X47.785 Y46.55 Z255 F3.00 
G01 X47.785 Y46.55 Z255 F3.00 
G00 X47.69 Y46.74 Z0 F100.00 

G01 X47.69 Y46.74 Z255 F3.00 
G00 X47.405 Y46.265 Z0 F100.00 

G01 X47.405 Y46.265 Z255 F3.00 
G00 X47.12 Y45.885 Z0 F100.00 

G01 X47.12 Y45.79 Z255 F3.00 
G01 X47.025 Y45.695 Z255 F3.00 
G01 X47.025 Y45.6 Z255 F3.00 
G01 X46.93 Y45.505 Z255 F3.00 
G01 X46.835 Y45.6 Z255 F3.00 
G01 X46.835 Y45.695 Z255 F3.00 
G01 X46.74 Y45.79 Z255 F3.00 
G01 X46.55 Y45.885 Z255 F3.00 
G01 X46.455 Y45.98 Z255 F3.00 
G01 X46.17 Y46.17 Z255 F3.00 
G01 X46.075 Y46.265 Z255 F3.00 
G01 X45.98 Y46.36 Z255 F3.00 
G00 X45.79 Y46.455 Z0 F100.00 

G01 X45.695 Y46.455 Z255 F3.00 
G01 X45.79 Y46.55 Z255 F3.00 
G01 X45.695 Y46.645 Z255 F3.00 
G01 X45.505 Y46.74 Z255 F3.00 
G01 X45.41 Y46.645 Z255 F3.00 
G01 X45.505 Y46.55 Z255 F3.00 
G01 X45.6 Y46.55 Z255 F3.00 
G01 X45.6 Y46.55 Z255 F3.00 
G00 X45.315 Y46.835 Z0 F100.00 

G01 X45.22 Y46.74 Z255 F3.00 
G01 X45.315 Y46.645 Z255 F3.00 
G01 X45.315 Y46.645 Z255 F3.00 
G00 X45.22 Y46.835 Z0 F100.00 

G01 X45.125 Y46.93 Z255 F3.00 
G01 X45.03 Y46.835 Z255 F3.00 
G01 X44.935 Y46.835 Z255 F3.00 
G01 X45.03 Y46.93 Z255 F3.00 
G01 X45.6 Y47.595 Z255 F3.00 
G01 X45.505 Y47.5 Z255 F3.00 
G01 X45.125 Y47.12 Z255 F3.00 
G00 X44.84 Y47.025 Z0 F100.00 

G01 X44.745 Y47.12 Z255 F3.00 
G01 X44.84 Y47.215 Z255 F3.00 
G01 X44.745 Y47.31 Z255 F3.00 
G01 X44.84 Y47.405 Z255 F3.00 
G01 X44.935 Y47.405 Z255 F3.00 
G01 X45.03 Y47.5 Z255 F3.00 
G01 X45.03 Y47.69 Z255 F3.00 
G01 X45.03 Y47.88 Z255 F3.00 
G01 X45.315 Y48.07 Z255 F3.00 
G01 X45.41 Y48.165 Z255 F3.00 
G01 X45.695 Y48.26 Z255 F3.00 
G01 X45.6 Y48.165 Z255 F3.00 
G01 X45.125 Y47.69 Z255 F3.00 
G00 X44.84 Y47.69 Z0 F100.00 

G01 X44.65 Y47.69 Z255 F3.00 
G01 X44.175 Y47.405 Z255 F3.00 
G01 X44.08 Y47.31 Z255 F3.00 
G01 X43.7 Y47.12 Z255 F3.00 
G01 X43.605 Y47.025 Z255 F3.00 
G01 X43.7 Y46.93 Z255 F3.00 
G01 X43.605 Y46.93 Z255 F3.00 
G01 X43.51 Y46.835 Z255 F3.00 
G01 X43.415 Y46.93 Z255 F3.00 
G01 X43.415 Y47.025 Z255 F3.00 
G01 X43.51 Y47.12 Z255 F3.00 
G01 X43.415 Y47.215 Z255 F3.00 
G01 X43.51 Y47.215 Z255 F3.00 
G01 X43.415 Y47.31 Z255 F3.00 
G01 X43.415 Y47.405 Z255 F3.00 
G01 X43.32 Y47.5 Z255 F3.00 
G01 X43.415 Y47.595 Z255 F3.00 
G01 X43.415 Y47.69 Z255 F3.00 
G01 X43.32 Y48.165 Z255 F3.00 
G01 X43.32 Y48.355 Z255 F3.00 
G01 X43.225 Y48.45 Z255 F3.00 
G01 X43.32 Y48.545 Z255 F3.00 
G01 X43.225 Y48.64 Z255 F3.00 
G01 X43.32 Y48.735 Z255 F3.00 
G01 X43.32 Y48.925 Z255 F3.00 
G01 X43.415 Y49.02 Z255 F3.00 
G01 X43.32 Y49.115 Z255 F3.00 
G01 X43.13 Y49.21 Z255 F3.00 
G01 X43.225 Y49.115 Z255 F3.00 
G01 X43.415 Y48.925 Z255 F3.00 
G00 X43.13 Y48.925 Z0 F100.00 

G01 X43.13 Y49.02 Z255 F3.00 
G01 X43.035 Y49.115 Z255 F3.00 
G01 X43.035 Y49.115 Z255 F3.00 
G00 X43.035 Y48.83 Z0 F100.00 

G01 X43.13 Y48.735 Z255 F3.00 
G01 X43.13 Y48.735 Z255 F3.00 
G00 X43.32 Y48.64 Z0 F100.00 

G01 X43.32 Y48.64 Z255 F3.00 
G00 X43.225 Y48.355 Z0 F100.00 

G01 X43.32 Y48.26 Z255 F3.00 
G01 X43.32 Y48.26 Z255 F3.00 
G00 X43.13 Y48.07 Z0 F100.00 

G01 X43.225 Y47.405 Z255 F3.00 
G01 X43.13 Y47.31 Z255 F3.00 
G01 X43.225 Y47.31 Z255 F3.00 
G01 X43.13 Y47.405 Z255 F3.00 
G01 X43.13 Y47.405 Z255 F3.00 
G00 X43.13 Y47.12 Z0 F100.00 

G01 X43.035 Y46.93 Z255 F3.00 
G01 X43.13 Y46.835 Z255 F3.00 
G01 X43.035 Y46.74 Z255 F3.00 
G01 X43.13 Y46.645 Z255 F3.00 
G01 X43.13 Y46.74 Z255 F3.00 
G01 X43.035 Y46.835 Z255 F3.00 
G01 X43.13 Y46.93 Z255 F3.00 
G01 X43.13 Y46.93 Z255 F3.00 
G00 X43.51 Y46.74 Z0 F100.00 

G01 X43.51 Y46.55 Z255 F3.00 
G01 X43.605 Y46.455 Z255 F3.00 
G01 X43.795 Y46.075 Z255 F3.00 
G01 X43.7 Y45.79 Z255 F3.00 
G01 X43.605 Y45.695 Z255 F3.00 
G01 X43.51 Y45.79 Z255 F3.00 
G01 X43.415 Y45.79 Z255 F3.00 
G01 X43.51 Y45.695 Z255 F3.00 
G01 X43.51 Y45.505 Z255 F3.00 
G01 X43.415 Y45.505 Z255 F3.00 
G01 X43.51 Y45.6 Z255 F3.00 
G01 X43.51 Y45.6 Z255 F3.00 
G00 X43.415 Y45.315 Z0 F100.00 

G01 X43.32 Y45.41 Z255 F3.00 
G01 X43.32 Y45.315 Z255 F3.00 
G01 X43.225 Y45.22 Z255 F3.00 
G01 X43.32 Y45.125 Z255 F3.00 
G01 X43.225 Y45.03 Z255 F3.00 
G01 X43.13 Y44.745 Z255 F3.00 
G01 X43.035 Y44.65 Z255 F3.00 
G01 X42.94 Y44.365 Z255 F3.00 
G01 X43.225 Y44.08 Z255 F3.00 
G00 X43.51 Y44.46 Z0 F100.00 

G01 X43.605 Y44.555 Z255 F3.00 
G00 X43.795 Y45.125 Z0 F100.00 

G01 X43.89 Y45.41 Z255 F3.00 
G01 X43.985 Y45.505 Z255 F3.00 
G01 X44.175 Y45.695 Z255 F3.00 
G00 X44.27 Y45.98 Z0 F100.00 

G01 X44.46 Y46.17 Z255 F3.00 
G00 X44.46 Y46.455 Z0 F100.00 

G01 X44.365 Y46.55 Z255 F3.00 
G01 X44.46 Y46.55 Z255 F3.00 
G01 X44.365 Y46.645 Z255 F3.00 
G01 X44.365 Y46.835 Z255 F3.00 
G01 X44.555 Y46.93 Z255 F3.00 
G01 X44.84 Y46.835 Z255 F3.00 
G01 X44.84 Y46.835 Z255 F3.00 
G00 X44.65 Y47.215 Z0 F100.00 

G01 X44.65 Y47.215 Z255 F3.00 
G00 X44.745 Y47.69 Z0 F100.00 

G01 X44.935 Y47.88 Z255 F3.00 
G00 X44.46 Y47.595 Z0 F100.00 

G01 X44.365 Y47.5 Z255 F3.00 
G01 X43.89 Y47.215 Z255 F3.00 
G01 X43.795 Y47.12 Z255 F3.00 
G01 X43.795 Y47.12 Z255 F3.00 
G00 X43.89 Y46.645 Z0 F100.00 

G01 X43.985 Y46.74 Z255 F3.00 
G01 X44.175 Y47.025 Z255 F3.00 
G01 X44.27 Y47.12 Z255 F3.00 
G01 X44.365 Y47.12 Z255 F3.00 
G01 X44.46 Y47.12 Z255 F3.00 
G00 X44.08 Y46.55 Z0 F100.00 

G01 X43.89 Y46.455 Z255 F3.00 
G01 X43.985 Y46.55 Z255 F3.00 
G01 X43.985 Y46.55 Z255 F3.00 
G00 X43.89 Y46.265 Z0 F100.00 

G01 X43.795 Y46.36 Z255 F3.00 
G01 X43.795 Y46.55 Z255 F3.00 
G01 X43.7 Y46.645 Z255 F3.00 
G01 X43.7 Y46.645 Z255 F3.00 
G00 X43.13 Y46.455 Z0 F100.00 

G01 X43.035 Y46.36 Z255 F3.00 
G01 X42.845 Y46.36 Z255 F3.00 
G01 X42.845 Y46.55 Z255 F3.00 
G01 X42.94 Y46.645 Z255 F3.00 
G00 X42.56 Y46.74 Z0 F100.00 

G01 X42.655 Y46.74 Z255 F3.00 
G01 X42.56 Y46.835 Z255 F3.00 
G01 X42.56 Y47.025 Z255 F3.00 
G01 X42.465 Y47.12 Z255 F3.00 
G01 X42.37 Y47.025 Z255 F3.00 
G01 X42.275 Y47.12 Z255 F3.00 
G01 X42.275 Y47.215 Z255 F3.00 
G01 X42.37 Y47.31 Z255 F3.00 
G01 X42.37 Y47.5 Z255 F3.00 
G01 X42.37 Y47.405 Z255 F3.00 
G01 X42.465 Y47.31 Z255 F3.00 
G01 X42.465 Y47.215 Z255 F3.00 
G01 X42.465 Y47.215 Z255 F3.00 
G00 X42.275 Y46.93 Z0 F100.00 

G01 X42.18 Y46.645 Z255 F3.00 
G01 X42.275 Y46.55 Z255 F3.00 
G01 X42.18 Y46.55 Z255 F3.00 
G01 X42.275 Y46.645 Z255 F3.00 
G01 X42.275 Y46.645 Z255 F3.00 
G00 X42.275 Y46.36 Z0 F100.00 

G01 X42.18 Y46.265 Z255 F3.00 
G01 X42.085 Y46.36 Z255 F3.00 
G01 X41.8 Y46.55 Z255 F3.00 
G01 X41.705 Y46.645 Z255 F3.00 
G01 X41.515 Y46.93 Z255 F3.00 
G01 X41.42 Y47.025 Z255 F3.00 
G01 X41.515 Y47.12 Z255 F3.00 
G01 X41.42 Y47.215 Z255 F3.00 
G01 X41.515 Y47.31 Z255 F3.00 
G01 X41.515 Y47.405 Z255 F3.00 
G01 X41.42 Y47.5 Z255 F3.00 
G01 X41.42 Y47.595 Z255 F3.00 
G01 X41.325 Y48.26 Z255 F3.00 
G01 X41.42 Y48.355 Z255 F3.00 
G01 X41.325 Y48.45 Z255 F3.00 
G01 X41.42 Y48.545 Z255 F3.00 
G01 X41.325 Y48.64 Z255 F3.00 
G01 X41.325 Y48.735 Z255 F3.00 
G01 X41.23 Y48.83 Z255 F3.00 
G01 X41.325 Y48.83 Z255 F3.00 
G01 X41.42 Y48.925 Z255 F3.00 
G01 X41.42 Y49.115 Z255 F3.00 
G01 X41.515 Y49.21 Z255 F3.00 
G01 X41.42 Y49.305 Z255 F3.00 
G01 X41.325 Y49.21 Z255 F3.00 
G01 X41.23 Y49.305 Z255 F3.00 
G01 X41.135 Y49.21 Z255 F3.00 
G01 X41.23 Y49.21 Z255 F3.00 
G01 X41.325 Y49.305 Z255 F3.00 
G01 X41.325 Y49.305 Z255 F3.00 
G00 X41.23 Y49.02 Z0 F100.00 

G01 X41.325 Y49.02 Z255 F3.00 
G01 X41.23 Y48.925 Z255 F3.00 
G01 X41.135 Y49.02 Z255 F3.00 
G01 X41.135 Y49.02 Z255 F3.00 
G00 X41.42 Y48.45 Z0 F100.00 

G01 X41.325 Y48.355 Z255 F3.00 
G01 X41.42 Y48.26 Z255 F3.00 
G01 X41.42 Y48.26 Z255 F3.00 
G00 X41.23 Y48.07 Z0 F100.00 

G01 X41.325 Y47.31 Z255 F3.00 
G01 X41.23 Y47.215 Z255 F3.00 
G01 X41.23 Y47.31 Z255 F3.00 
G01 X41.23 Y47.31 Z255 F3.00 
G00 X41.23 Y47.025 Z0 F100.00 

G01 X41.135 Y46.835 Z255 F3.00 
G01 X41.23 Y46.74 Z255 F3.00 
G01 X41.135 Y46.74 Z255 F3.00 
G01 X41.23 Y46.835 Z255 F3.00 
G01 X41.23 Y46.835 Z255 F3.00 
G00 X41.135 Y46.55 Z0 F100.00 

G01 X41.23 Y46.455 Z255 F3.00 
G01 X41.135 Y46.36 Z255 F3.00 
G01 X41.04 Y46.455 Z255 F3.00 
G01 X40.85 Y46.455 Z255 F3.00 
G01 X40.755 Y46.55 Z255 F3.00 
G01 X40.565 Y46.55 Z255 F3.00 
G01 X40.66 Y46.455 Z255 F3.00 
G01 X40.755 Y46.455 Z255 F3.00 
G01 X40.85 Y46.55 Z255 F3.00 
G01 X40.945 Y46.455 Z255 F3.00 
G01 X41.04 Y46.55 Z255 F3.00 
G01 X41.04 Y46.55 Z255 F3.00 
G00 X41.135 Y46.265 Z0 F100.00 

G01 X40.945 Y46.265 Z255 F3.00 
G01 X40.85 Y46.17 Z255 F3.00 
G01 X40.945 Y46.075 Z255 F3.00 
G01 X40.85 Y46.075 Z255 F3.00 
G01 X40.945 Y45.98 Z255 F3.00 
G01 X41.325 Y45.695 Z255 F3.00 
G01 X41.8 Y45.79 Z255 F3.00 
G01 X42.18 Y46.17 Z255 F3.00 
G00 X41.99 Y45.885 Z0 F100.00 

G01 X41.895 Y45.79 Z255 F3.00 
G00 X41.8 Y46.17 Z0 F100.00 

G01 X41.61 Y46.455 Z255 F3.00 
G01 X41.515 Y46.645 Z255 F3.00 
G01 X41.515 Y46.74 Z255 F3.00 
G01 X41.515 Y46.74 Z255 F3.00 
G00 X41.42 Y47.12 Z0 F100.00 

G01 X41.515 Y47.215 Z255 F3.00 
G01 X41.515 Y47.215 Z255 F3.00 
G00 X40.945 Y46.835 Z0 F100.00 

G01 X40.85 Y46.93 Z255 F3.00 
G01 X40.565 Y47.025 Z255 F3.00 
G01 X40.47 Y47.12 Z255 F3.00 
G01 X40.28 Y47.12 Z255 F3.00 
G01 X40.185 Y47.215 Z255 F3.00 
G01 X39.995 Y47.215 Z255 F3.00 
G01 X39.9 Y47.31 Z255 F3.00 
G01 X39.71 Y47.31 Z255 F3.00 
G01 X39.615 Y47.405 Z255 F3.00 
G01 X39.615 Y47.5 Z255 F3.00 
G01 X39.71 Y47.405 Z255 F3.00 
G01 X39.9 Y47.405 Z255 F3.00 
G01 X39.995 Y47.31 Z255 F3.00 
G01 X40.185 Y47.31 Z255 F3.00 
G01 X40.28 Y47.215 Z255 F3.00 
G01 X40.375 Y47.12 Z255 F3.00 
G00 X40.66 Y47.025 Z0 F100.00 

G01 X40.85 Y47.025 Z255 F3.00 
G01 X40.945 Y46.93 Z255 F3.00 
G01 X41.04 Y46.835 Z255 F3.00 
G00 X40.47 Y46.55 Z0 F100.00 

G01 X40.375 Y46.645 Z255 F3.00 
G01 X40.28 Y46.55 Z255 F3.00 
G01 X40.185 Y46.645 Z255 F3.00 
G01 X39.995 Y46.645 Z255 F3.00 
G01 X39.9 Y46.74 Z255 F3.00 
G01 X39.805 Y46.645 Z255 F3.00 
G01 X39.71 Y46.74 Z255 F3.00 
G01 X39.615 Y46.645 Z255 F3.00 
G01 X39.52 Y46.74 Z255 F3.00 
G01 X39.33 Y46.74 Z255 F3.00 
G01 X39.235 Y46.835 Z255 F3.00 
G01 X39.14 Y46.74 Z255 F3.00 
G01 X39.045 Y46.835 Z255 F3.00 
G01 X38.95 Y46.74 Z255 F3.00 
G01 X38.855 Y46.835 Z255 F3.00 
G01 X38.95 Y46.835 Z255 F3.00 
G01 X39.045 Y46.74 Z255 F3.00 
G01 X39.14 Y46.835 Z255 F3.00 
G01 X39.235 Y46.74 Z255 F3.00 
G01 X39.33 Y46.835 Z255 F3.00 
G01 X39.425 Y46.74 Z255 F3.00 
G01 X39.425 Y46.74 Z255 F3.00 
G00 X39.71 Y46.645 Z0 F100.00 

G01 X39.805 Y46.74 Z255 F3.00 
G01 X39.9 Y46.645 Z255 F3.00 
G01 X39.995 Y46.74 Z255 F3.00 
G01 X40.09 Y46.645 Z255 F3.00 
G01 X40.28 Y46.645 Z255 F3.00 
G01 X40.375 Y46.55 Z255 F3.00 
G01 X40.47 Y46.645 Z255 F3.00 
G01 X40.47 Y46.645 Z255 F3.00 
G00 X41.135 Y46.17 Z0 F100.00 

G01 X41.135 Y46.17 Z255 F3.00 
G00 X41.04 Y45.79 Z0 F100.00 

G01 X41.04 Y45.79 Z255 F3.00 
G00 X40.755 Y45.125 Z0 F100.00 

G01 X40.565 Y45.22 Z255 F3.00 
G01 X40.47 Y45.22 Z255 F3.00 
G01 X40.28 Y45.315 Z255 F3.00 
G01 X40.185 Y45.315 Z255 F3.00 
G01 X40.09 Y45.315 Z255 F3.00 
G00 X39.805 Y45.41 Z0 F100.00 

G01 X39.615 Y45.505 Z255 F3.00 
G01 X39.52 Y45.505 Z255 F3.00 
G01 X39.33 Y45.6 Z255 F3.00 
G01 X39.235 Y45.6 Z255 F3.00 
G01 X39.14 Y45.695 Z255 F3.00 
G01 X39.045 Y45.695 Z255 F3.00 
G01 X38.855 Y45.79 Z255 F3.00 
G01 X38.76 Y45.79 Z255 F3.00 
G01 X38.76 Y45.79 Z255 F3.00 
G00 X37.81 Y46.075 Z0 F100.00 

G01 X37.715 Y46.075 Z255 F3.00 
G00 X37.43 Y46.17 Z0 F100.00 

G01 X37.335 Y46.265 Z255 F3.00 
G01 X37.24 Y46.265 Z255 F3.00 
G01 X36.955 Y46.265 Z255 F3.00 
G00 X37.05 Y47.12 Z0 F100.00 

G01 X37.145 Y47.025 Z255 F3.00 
G01 X37.24 Y47.025 Z255 F3.00 
G01 X37.335 Y47.12 Z255 F3.00 
G01 X37.43 Y47.025 Z255 F3.00 
G01 X37.62 Y47.025 Z255 F3.00 
G01 X37.715 Y46.93 Z255 F3.00 
G01 X37.81 Y47.025 Z255 F3.00 
G01 X37.905 Y46.93 Z255 F3.00 
G01 X38.0 Y47.025 Z255 F3.00 
G01 X38.095 Y46.93 Z255 F3.00 
G01 X38.19 Y46.93 Z255 F3.00 
G01 X38.285 Y46.835 Z255 F3.00 
G01 X38.38 Y46.93 Z255 F3.00 
G01 X38.475 Y46.835 Z255 F3.00 
G01 X38.57 Y46.835 Z255 F3.00 
G01 X38.76 Y46.835 Z255 F3.00 
G00 X38.285 Y46.93 Z0 F100.00 

G01 X38.285 Y46.93 Z255 F3.00 
G00 X37.905 Y47.025 Z0 F100.00 

G01 X37.81 Y46.93 Z255 F3.00 
G01 X37.715 Y47.025 Z255 F3.00 
G01 X37.62 Y46.93 Z255 F3.00 
G01 X37.525 Y47.025 Z255 F3.00 
G01 X37.525 Y47.025 Z255 F3.00 
G00 X37.145 Y47.31 Z0 F100.00 

G01 X37.145 Y47.405 Z255 F3.00 
G01 X37.05 Y47.595 Z255 F3.00 
G01 X37.145 Y47.595 Z255 F3.00 
G01 X37.05 Y47.69 Z255 F3.00 
G01 X37.05 Y47.785 Z255 F3.00 
G01 X36.955 Y47.88 Z255 F3.00 
G01 X37.05 Y47.975 Z255 F3.00 
G01 X36.955 Y48.07 Z255 F3.00 
G01 X37.05 Y48.165 Z255 F3.00 
G01 X37.24 Y48.165 Z255 F3.00 
G01 X37.43 Y48.165 Z255 F3.00 
G01 X37.525 Y48.07 Z255 F3.00 
G01 X37.62 Y48.165 Z255 F3.00 
G01 X37.715 Y48.07 Z255 F3.00 
G01 X37.905 Y48.07 Z255 F3.00 
G01 X38.0 Y47.975 Z255 F3.00 
G01 X38.19 Y47.975 Z255 F3.00 
G01 X38.285 Y47.975 Z255 F3.00 
G01 X38.38 Y47.88 Z255 F3.00 
G01 X38.665 Y47.785 Z255 F3.00 
G01 X38.76 Y47.69 Z255 F3.00 
G01 X38.95 Y47.69 Z255 F3.00 
G01 X39.045 Y47.595 Z255 F3.00 
G01 X39.235 Y47.595 Z255 F3.00 
G01 X39.33 Y47.5 Z255 F3.00 
G01 X39.425 Y47.5 Z255 F3.00 
G01 X39.52 Y47.405 Z255 F3.00 
G01 X39.52 Y47.405 Z255 F3.00 
G00 X39.235 Y47.5 Z0 F100.00 

G01 X39.14 Y47.595 Z255 F3.00 
G01 X38.95 Y47.595 Z255 F3.00 
G01 X38.855 Y47.69 Z255 F3.00 
G01 X38.665 Y47.69 Z255 F3.00 
G01 X38.57 Y47.785 Z255 F3.00 
G01 X38.38 Y47.785 Z255 F3.00 
G01 X38.285 Y47.785 Z255 F3.00 
G01 X38.19 Y47.88 Z255 F3.00 
G01 X38.0 Y47.88 Z255 F3.00 
G01 X37.905 Y47.975 Z255 F3.00 
G01 X37.715 Y47.975 Z255 F3.00 
G01 X37.62 Y47.975 Z255 F3.00 
G01 X37.62 Y47.975 Z255 F3.00 
G00 X37.525 Y48.165 Z0 F100.00 

G01 X37.525 Y48.165 Z255 F3.00 
G00 X37.24 Y48.26 Z0 F100.00 

G01 X37.145 Y48.165 Z255 F3.00 
G01 X37.05 Y48.26 Z255 F3.00 
G01 X36.86 Y48.26 Z255 F3.00 
G01 X36.955 Y48.165 Z255 F3.00 
G01 X36.955 Y48.165 Z255 F3.00 
G00 X37.05 Y47.88 Z0 F100.00 

G01 X37.05 Y47.88 Z255 F3.00 
G00 X36.67 Y47.975 Z0 F100.00 

G01 X36.765 Y48.07 Z255 F3.00 
G01 X36.67 Y48.165 Z255 F3.00 
G01 X36.67 Y48.355 Z255 F3.00 
G01 X36.765 Y48.545 Z255 F3.00 
G01 X36.86 Y49.305 Z255 F3.00 
G01 X36.86 Y49.495 Z255 F3.00 
G01 X36.955 Y49.59 Z255 F3.00 
G01 X36.86 Y49.685 Z255 F3.00 
G01 X36.86 Y49.78 Z255 F3.00 
G01 X36.955 Y49.685 Z255 F3.00 
G01 X36.955 Y49.685 Z255 F3.00 
G00 X36.67 Y49.495 Z0 F100.00 

G01 X36.67 Y49.59 Z255 F3.00 
G01 X36.765 Y49.685 Z255 F3.00 
G01 X36.67 Y49.78 Z255 F3.00 
G01 X36.575 Y49.685 Z255 F3.00 
G01 X36.575 Y49.685 Z255 F3.00 
G00 X36.67 Y49.4 Z0 F100.00 

G01 X36.67 Y49.305 Z255 F3.00 
G01 X36.67 Y49.305 Z255 F3.00 
G00 X36.955 Y49.115 Z0 F100.00 

G01 X36.955 Y48.45 Z255 F3.00 
G00 X36.67 Y48.07 Z0 F100.00 

G01 X36.765 Y47.975 Z255 F3.00 
G01 X36.67 Y47.88 Z255 F3.00 
G01 X36.765 Y47.785 Z255 F3.00 
G01 X36.67 Y47.69 Z255 F3.00 
G01 X36.765 Y47.595 Z255 F3.00 
G01 X36.67 Y47.5 Z255 F3.00 
G01 X36.67 Y47.595 Z255 F3.00 
G01 X36.765 Y47.69 Z255 F3.00 
G01 X36.67 Y47.785 Z255 F3.00 
G01 X36.67 Y47.785 Z255 F3.00 
G00 X36.575 Y47.31 Z0 F100.00 

G01 X36.67 Y47.215 Z255 F3.00 
G01 X36.955 Y47.12 Z255 F3.00 
G01 X37.05 Y47.025 Z255 F3.00 
G01 X37.145 Y47.12 Z255 F3.00 
G01 X37.145 Y47.12 Z255 F3.00 
G00 X36.575 Y47.215 Z0 F100.00 

G01 X36.67 Y47.31 Z255 F3.00 
G01 X36.67 Y47.31 Z255 F3.00 
G00 X36.48 Y47.12 Z0 F100.00 

G01 X36.385 Y47.215 Z255 F3.00 
G01 X36.29 Y47.12 Z255 F3.00 
G01 X36.195 Y47.215 Z255 F3.00 
G01 X36.1 Y47.12 Z255 F3.00 
G01 X36.005 Y47.215 Z255 F3.00 
G01 X35.91 Y47.12 Z255 F3.00 
G01 X35.815 Y47.215 Z255 F3.00 
G01 X35.91 Y47.215 Z255 F3.00 
G01 X36.005 Y47.12 Z255 F3.00 
G01 X36.1 Y47.215 Z255 F3.00 
G01 X36.195 Y47.12 Z255 F3.00 
G01 X36.29 Y47.215 Z255 F3.00 
G01 X36.385 Y47.12 Z255 F3.00 
G01 X36.385 Y47.12 Z255 F3.00 
G00 X35.625 Y47.31 Z0 F100.00 

G01 X35.53 Y47.5 Z255 F3.00 
G01 X35.435 Y47.595 Z255 F3.00 
G01 X35.435 Y47.69 Z255 F3.00 
G01 X35.34 Y47.785 Z255 F3.00 
G01 X35.34 Y47.88 Z255 F3.00 
G01 X35.245 Y47.975 Z255 F3.00 
G01 X35.34 Y47.975 Z255 F3.00 
G01 X35.245 Y48.07 Z255 F3.00 
G01 X35.245 Y48.26 Z255 F3.00 
G01 X35.15 Y48.355 Z255 F3.00 
G01 X35.15 Y48.45 Z255 F3.00 
G01 X35.245 Y48.545 Z255 F3.00 
G01 X35.15 Y48.64 Z255 F3.00 
G01 X34.96 Y48.64 Z255 F3.00 
G01 X35.055 Y48.545 Z255 F3.00 
G01 X34.96 Y48.45 Z255 F3.00 
G01 X34.96 Y48.26 Z255 F3.00 
G01 X34.865 Y48.165 Z255 F3.00 
G01 X34.96 Y48.07 Z255 F3.00 
G01 X34.865 Y47.975 Z255 F3.00 
G01 X34.96 Y47.88 Z255 F3.00 
G01 X34.865 Y47.785 Z255 F3.00 
G01 X34.96 Y47.69 Z255 F3.00 
G01 X34.865 Y47.595 Z255 F3.00 
G01 X34.96 Y47.5 Z255 F3.00 
G01 X34.865 Y47.405 Z255 F3.00 
G01 X34.865 Y47.215 Z255 F3.00 
G01 X34.96 Y47.215 Z255 F3.00 
G01 X35.055 Y47.31 Z255 F3.00 
G01 X35.15 Y47.215 Z255 F3.00 
G01 X35.245 Y47.31 Z255 F3.00 
G01 X35.34 Y47.215 Z255 F3.00 
G01 X35.435 Y47.215 Z255 F3.00 
G01 X35.53 Y47.31 Z255 F3.00 
G01 X35.625 Y47.215 Z255 F3.00 
G01 X35.53 Y47.215 Z255 F3.00 
G01 X35.53 Y47.215 Z255 F3.00 
G00 X35.245 Y47.215 Z0 F100.00 

G01 X35.15 Y47.31 Z255 F3.00 
G01 X35.055 Y47.215 Z255 F3.00 
G01 X35.055 Y47.215 Z255 F3.00 
G00 X34.865 Y47.5 Z0 F100.00 

G01 X34.96 Y47.595 Z255 F3.00 
G01 X34.865 Y47.69 Z255 F3.00 
G01 X34.96 Y47.785 Z255 F3.00 
G01 X34.865 Y47.88 Z255 F3.00 
G01 X34.96 Y47.975 Z255 F3.00 
G01 X34.865 Y48.07 Z255 F3.00 
G01 X34.96 Y48.165 Z255 F3.00 
G01 X34.865 Y48.26 Z255 F3.00 
G01 X34.96 Y48.355 Z255 F3.00 
G01 X34.865 Y48.45 Z255 F3.00 
G01 X34.675 Y48.545 Z255 F3.00 
G01 X34.77 Y48.64 Z255 F3.00 
G01 X34.77 Y48.83 Z255 F3.00 
G01 X34.675 Y48.735 Z255 F3.00 
G01 X34.58 Y48.83 Z255 F3.00 
G01 X34.485 Y48.735 Z255 F3.00 
G01 X34.485 Y48.545 Z255 F3.00 
G01 X34.58 Y48.545 Z255 F3.00 
G01 X34.58 Y48.545 Z255 F3.00 
G00 X34.295 Y48.45 Z0 F100.00 

G01 X34.2 Y48.545 Z255 F3.00 
G01 X34.295 Y48.545 Z255 F3.00 
G01 X34.2 Y48.45 Z255 F3.00 
G01 X34.2 Y48.26 Z255 F3.00 
G01 X34.105 Y48.165 Z255 F3.00 
G01 X34.2 Y48.07 Z255 F3.00 
G01 X34.105 Y47.975 Z255 F3.00 
G01 X34.2 Y47.975 Z255 F3.00 
G01 X34.295 Y47.88 Z255 F3.00 
G01 X34.295 Y47.785 Z255 F3.00 
G01 X34.39 Y47.215 Z255 F3.00 
G01 X34.295 Y47.12 Z255 F3.00 
G01 X34.105 Y47.025 Z255 F3.00 
G01 X34.01 Y47.12 Z255 F3.00 
G01 X34.105 Y47.215 Z255 F3.00 
G01 X34.105 Y47.31 Z255 F3.00 
G01 X34.105 Y47.88 Z255 F3.00 
G00 X34.2 Y48.165 Z0 F100.00 

G01 X34.105 Y48.26 Z255 F3.00 
G01 X34.2 Y48.355 Z255 F3.00 
G01 X34.2 Y48.355 Z255 F3.00 
G00 X34.675 Y49.02 Z0 F100.00 

G01 X34.675 Y49.115 Z255 F3.00 
G01 X34.58 Y49.4 Z255 F3.00 
G01 X34.39 Y49.4 Z255 F3.00 
G01 X34.295 Y49.495 Z255 F3.00 
G01 X34.39 Y49.495 Z255 F3.00 
G01 X34.485 Y49.4 Z255 F3.00 
G01 X34.485 Y49.4 Z255 F3.00 
G00 X34.77 Y49.495 Z0 F100.00 

G01 X34.675 Y49.59 Z255 F3.00 
G01 X34.77 Y49.59 Z255 F3.00 
G01 X34.865 Y49.685 Z255 F3.00 
G01 X35.055 Y49.97 Z255 F3.00 
G01 X34.96 Y50.255 Z255 F3.00 
G01 X34.865 Y50.16 Z255 F3.00 
G01 X34.865 Y49.97 Z255 F3.00 
G01 X34.865 Y49.875 Z255 F3.00 
G01 X34.96 Y49.685 Z255 F3.00 
G01 X34.96 Y49.59 Z255 F3.00 
G01 X35.055 Y49.115 Z255 F3.00 
G01 X35.055 Y49.02 Z255 F3.00 
G01 X34.96 Y48.925 Z255 F3.00 
G01 X35.055 Y48.83 Z255 F3.00 
G01 X35.055 Y48.925 Z255 F3.00 
G01 X35.055 Y48.925 Z255 F3.00 
G00 X35.435 Y48.45 Z0 F100.00 

G01 X35.53 Y48.545 Z255 F3.00 
G01 X35.625 Y48.45 Z255 F3.00 
G01 X35.72 Y48.545 Z255 F3.00 
G01 X35.815 Y48.45 Z255 F3.00 
G01 X35.91 Y48.45 Z255 F3.00 
G01 X36.005 Y48.355 Z255 F3.00 
G01 X36.1 Y48.45 Z255 F3.00 
G01 X36.195 Y48.355 Z255 F3.00 
G01 X36.29 Y48.45 Z255 F3.00 
G01 X36.385 Y48.45 Z255 F3.00 
G01 X36.48 Y48.355 Z255 F3.00 
G01 X36.385 Y48.26 Z255 F3.00 
G01 X36.29 Y48.355 Z255 F3.00 
G01 X36.1 Y48.355 Z255 F3.00 
G01 X36.005 Y48.45 Z255 F3.00 
G01 X36.005 Y48.45 Z255 F3.00 
G00 X35.72 Y48.45 Z0 F100.00 

G01 X35.625 Y48.545 Z255 F3.00 
G01 X35.53 Y48.45 Z255 F3.00 
G01 X35.435 Y48.545 Z255 F3.00 
G01 X35.435 Y48.545 Z255 F3.00 
G00 X35.245 Y48.165 Z0 F100.00 

G01 X35.245 Y48.165 Z255 F3.00 
G00 X34.77 Y47.215 Z0 F100.00 

G01 X34.675 Y47.215 Z255 F3.00 
G01 X34.58 Y47.31 Z255 F3.00 
G01 X34.485 Y47.215 Z255 F3.00 
G01 X34.39 Y47.12 Z255 F3.00 
G00 X33.915 Y47.025 Z0 F100.00 

G01 X33.82 Y46.93 Z255 F3.00 
G01 X33.915 Y46.835 Z255 F3.00 
G01 X33.82 Y46.835 Z255 F3.00 
G01 X33.915 Y46.74 Z255 F3.00 
G01 X33.82 Y46.645 Z255 F3.00 
G01 X33.725 Y46.74 Z255 F3.00 
G01 X33.725 Y46.645 Z255 F3.00 
G01 X33.82 Y46.55 Z255 F3.00 
G01 X33.725 Y46.455 Z255 F3.00 
G01 X33.82 Y46.36 Z255 F3.00 
G01 X33.725 Y46.265 Z255 F3.00 
G01 X33.63 Y46.36 Z255 F3.00 
G01 X33.63 Y46.265 Z255 F3.00 
G01 X33.725 Y46.17 Z255 F3.00 
G01 X33.63 Y46.17 Z255 F3.00 
G01 X33.725 Y46.075 Z255 F3.00 
G01 X33.63 Y45.98 Z255 F3.00 
G01 X33.535 Y46.075 Z255 F3.00 
G01 X33.345 Y46.075 Z255 F3.00 
G01 X33.25 Y46.17 Z255 F3.00 
G01 X33.155 Y46.075 Z255 F3.00 
G01 X33.06 Y46.17 Z255 F3.00 
G01 X32.87 Y46.17 Z255 F3.00 
G01 X32.775 Y46.265 Z255 F3.00 
G01 X32.68 Y46.17 Z255 F3.00 
G01 X32.585 Y46.265 Z255 F3.00 
G01 X32.68 Y46.265 Z255 F3.00 
G01 X32.775 Y46.17 Z255 F3.00 
G01 X32.87 Y46.265 Z255 F3.00 
G01 X32.965 Y46.17 Z255 F3.00 
G01 X32.965 Y46.17 Z255 F3.00 
G00 X33.25 Y46.075 Z0 F100.00 

G01 X33.345 Y46.17 Z255 F3.00 
G01 X33.44 Y46.075 Z255 F3.00 
G01 X33.44 Y46.075 Z255 F3.00 
G00 X33.63 Y45.79 Z0 F100.00 

G01 X33.535 Y45.695 Z255 F3.00 
G01 X33.535 Y45.505 Z255 F3.00 
G01 X33.44 Y45.41 Z255 F3.00 
G01 X33.535 Y45.315 Z255 F3.00 
G01 X33.44 Y45.22 Z255 F3.00 
G01 X33.44 Y45.03 Z255 F3.00 
G01 X33.345 Y44.935 Z255 F3.00 
G01 X33.345 Y44.745 Z255 F3.00 
G01 X33.25 Y44.65 Z255 F3.00 
G01 X33.345 Y44.555 Z255 F3.00 
G01 X33.25 Y44.46 Z255 F3.00 
G01 X33.155 Y44.555 Z255 F3.00 
G01 X33.155 Y44.46 Z255 F3.00 
G01 X33.25 Y44.365 Z255 F3.00 
G01 X33.155 Y44.27 Z255 F3.00 
G01 X33.25 Y44.27 Z255 F3.00 
G01 X33.155 Y44.365 Z255 F3.00 
G01 X33.155 Y44.365 Z255 F3.00 
G00 X33.06 Y44.08 Z0 F100.00 

G01 X33.155 Y43.985 Z255 F3.00 
G01 X33.06 Y43.89 Z255 F3.00 
G01 X33.155 Y43.795 Z255 F3.00 
G01 X33.06 Y43.7 Z255 F3.00 
G01 X32.965 Y43.51 Z255 F3.00 
G01 X33.06 Y43.415 Z255 F3.00 
G01 X32.965 Y43.32 Z255 F3.00 
G01 X32.965 Y43.225 Z255 F3.00 
G01 X33.06 Y43.13 Z255 F3.00 
G01 X33.06 Y43.035 Z255 F3.00 
G01 X33.155 Y42.94 Z255 F3.00 
G01 X33.155 Y42.845 Z255 F3.00 
G01 X33.155 Y42.845 Z255 F3.00 
G00 X33.06 Y42.56 Z0 F100.00 

G01 X33.155 Y42.465 Z255 F3.00 
G01 X33.06 Y42.37 Z255 F3.00 
G01 X33.155 Y42.275 Z255 F3.00 
G01 X33.06 Y42.18 Z255 F3.00 
G01 X33.06 Y42.18 Z255 F3.00 
G00 X32.775 Y42.18 Z0 F100.00 

G01 X32.87 Y42.275 Z255 F3.00 
G01 X32.775 Y42.37 Z255 F3.00 
G01 X32.775 Y42.465 Z255 F3.00 
G01 X32.68 Y42.56 Z255 F3.00 
G01 X32.68 Y42.655 Z255 F3.00 
G01 X32.585 Y42.75 Z255 F3.00 
G01 X32.49 Y43.035 Z255 F3.00 
G01 X32.395 Y43.13 Z255 F3.00 
G01 X32.205 Y43.51 Z255 F3.00 
G01 X32.11 Y43.605 Z255 F3.00 
G01 X31.825 Y43.985 Z255 F3.00 
G01 X31.92 Y43.89 Z255 F3.00 
G01 X31.92 Y43.7 Z255 F3.00 
G01 X32.015 Y43.605 Z255 F3.00 
G01 X32.3 Y43.32 Z255 F3.00 
G00 X32.395 Y43.035 Z0 F100.00 

G01 X32.585 Y42.845 Z255 F3.00 
G00 X32.775 Y42.275 Z0 F100.00 

G01 X32.775 Y42.275 Z255 F3.00 
G00 X33.63 Y42.56 Z0 F100.00 

G01 X33.725 Y42.465 Z255 F3.00 
G00 X33.44 Y42.845 Z0 F100.00 

G01 X33.44 Y42.845 Z255 F3.00 
G00 X33.535 Y43.32 Z0 F100.00 

G01 X33.155 Y43.89 Z255 F3.00 
G01 X33.06 Y43.985 Z255 F3.00 
G01 X33.155 Y44.08 Z255 F3.00 
G01 X33.155 Y44.08 Z255 F3.00 
G00 X33.25 Y44.745 Z0 F100.00 

G01 X33.345 Y44.84 Z255 F3.00 
G01 X33.345 Y45.03 Z255 F3.00 
G01 X33.44 Y45.125 Z255 F3.00 
G01 X33.345 Y45.22 Z255 F3.00 
G01 X33.44 Y45.315 Z255 F3.00 
G01 X33.44 Y45.505 Z255 F3.00 
G01 X33.535 Y45.6 Z255 F3.00 
G01 X33.535 Y45.79 Z255 F3.00 
G01 X33.63 Y45.885 Z255 F3.00 
G01 X33.725 Y45.98 Z255 F3.00 
G00 X33.725 Y46.55 Z0 F100.00 

G01 X33.725 Y46.55 Z255 F3.00 
G00 X32.395 Y46.265 Z0 F100.00 

G01 X31.635 Y46.36 Z255 F3.00 
G01 X31.54 Y46.265 Z255 F3.00 
G01 X31.445 Y46.36 Z255 F3.00 
G01 X31.35 Y46.265 Z255 F3.00 
G01 X31.445 Y46.265 Z255 F3.00 
G01 X31.54 Y46.36 Z255 F3.00 
G01 X31.635 Y46.265 Z255 F3.00 
G01 X31.635 Y46.265 Z255 F3.00 
G00 X31.16 Y46.265 Z0 F100.00 

G01 X31.065 Y46.17 Z255 F3.00 
G01 X30.97 Y46.265 Z255 F3.00 
G01 X30.875 Y46.17 Z255 F3.00 
G01 X30.78 Y46.265 Z255 F3.00 
G01 X30.685 Y46.17 Z255 F3.00 
G01 X30.78 Y46.17 Z255 F3.00 
G01 X30.875 Y46.265 Z255 F3.00 
G01 X30.97 Y46.17 Z255 F3.00 
G01 X31.065 Y46.265 Z255 F3.00 
G01 X31.065 Y46.265 Z255 F3.00 
G00 X30.495 Y46.265 Z0 F100.00 

G01 X30.495 Y46.455 Z255 F3.00 
G01 X30.59 Y46.645 Z255 F3.00 
G01 X30.495 Y47.88 Z255 F3.00 
G01 X30.59 Y47.975 Z255 F3.00 
G01 X30.495 Y48.07 Z255 F3.00 
G01 X30.59 Y48.165 Z255 F3.00 
G01 X30.495 Y48.26 Z255 F3.00 
G01 X30.59 Y48.355 Z255 F3.00 
G01 X30.495 Y48.45 Z255 F3.00 
G01 X30.59 Y48.545 Z255 F3.00 
G01 X30.495 Y48.64 Z255 F3.00 
G01 X30.59 Y48.64 Z255 F3.00 
G01 X30.685 Y48.735 Z255 F3.00 
G01 X30.59 Y48.83 Z255 F3.00 
G01 X30.685 Y48.925 Z255 F3.00 
G01 X30.59 Y49.02 Z255 F3.00 
G01 X30.685 Y49.115 Z255 F3.00 
G01 X30.59 Y49.21 Z255 F3.00 
G01 X30.685 Y49.305 Z255 F3.00 
G01 X30.59 Y49.4 Z255 F3.00 
G01 X30.685 Y49.4 Z255 F3.00 
G01 X30.78 Y49.495 Z255 F3.00 
G01 X30.78 Y49.59 Z255 F3.00 
G01 X30.875 Y49.685 Z255 F3.00 
G01 X30.78 Y49.78 Z255 F3.00 
G01 X30.78 Y49.97 Z255 F3.00 
G01 X30.685 Y50.065 Z255 F3.00 
G01 X30.78 Y50.16 Z255 F3.00 
G01 X30.78 Y50.35 Z255 F3.00 
G01 X30.875 Y50.445 Z255 F3.00 
G01 X30.78 Y50.54 Z255 F3.00 
G01 X30.875 Y50.635 Z255 F3.00 
G01 X30.78 Y50.73 Z255 F3.00 
G01 X30.875 Y50.825 Z255 F3.00 
G01 X30.78 Y50.92 Z255 F3.00 
G01 X30.875 Y51.015 Z255 F3.00 
G01 X30.78 Y51.11 Z255 F3.00 
G01 X30.875 Y51.205 Z255 F3.00 
G01 X30.78 Y51.3 Z255 F3.00 
G01 X30.875 Y51.395 Z255 F3.00 
G01 X30.78 Y51.49 Z255 F3.00 
G01 X30.875 Y51.585 Z255 F3.00 
G01 X30.78 Y51.68 Z255 F3.00 
G01 X30.875 Y51.775 Z255 F3.00 
G01 X30.78 Y51.87 Z255 F3.00 
G01 X30.875 Y51.965 Z255 F3.00 
G01 X30.78 Y52.06 Z255 F3.00 
G01 X30.875 Y52.155 Z255 F3.00 
G01 X30.78 Y52.25 Z255 F3.00 
G01 X30.875 Y52.345 Z255 F3.00 
G01 X30.78 Y52.44 Z255 F3.00 
G01 X30.875 Y52.535 Z255 F3.00 
G01 X30.78 Y52.63 Z255 F3.00 
