#############################################################
###########Gcode generated with LazerImg.py V0.1#############
######written by Nick Sidney Lemberger aka Holysocks#########
#############################################################

tracer2_BW
laser_engraver(diode, 445nm)
X10.0 Y10.0 



F80.0 


G00 X10.0 Y10.0 Z0 F80.00
 G01 X56.9125 Y10.0 Z0 F80.00 
G01 X61.0375 Y10.0 Z255 F20.00 
G01 X61.075 Y10.0 Z0 F80.00 
G00 X61.075 Y10.075 Z0 F80.00 
G01 X61.1125 Y10.075 Z0 F80.00 
G01 X56.9125 Y10.075 Z255 F20.00 
G01 X56.875 Y10.075 Z0 F80.00 
G00 X56.875 Y10.15 Z0 F80.00 
G01 X56.9875 Y10.15 Z0 F80.00 
G01 X61.1875 Y10.15 Z255 F20.00 
G01 X61.225 Y10.15 Z0 F80.00 
G00 X61.225 Y10.225 Z0 F80.00 
G01 X61.3375 Y10.225 Z0 F80.00 
G01 X56.9875 Y10.225 Z255 F20.00 
G01 X56.95 Y10.225 Z0 F80.00 
G00 X56.95 Y10.3 Z0 F80.00 
G01 X56.9875 Y10.3 Z0 F80.00 
G01 X61.4125 Y10.3 Z255 F20.00 
G01 X61.45 Y10.3 Z0 F80.00 
G00 X61.45 Y10.375 Z0 F80.00 
G01 X61.4875 Y10.375 Z0 F80.00 
G01 X56.9875 Y10.375 Z255 F20.00 
G01 X56.95 Y10.375 Z0 F80.00 
G00 X56.95 Y10.45 Z0 F80.00 
G01 X57.0625 Y10.45 Z0 F80.00 
G01 X61.5625 Y10.45 Z255 F20.00 
G01 X61.6 Y10.45 Z0 F80.00 
G00 X61.6 Y10.525 Z0 F80.00 
G01 X61.6375 Y10.525 Z0 F80.00 
G01 X57.0625 Y10.525 Z255 F20.00 
G01 X57.025 Y10.525 Z0 F80.00 
G00 X57.025 Y10.6 Z0 F80.00 
G01 X57.0625 Y10.6 Z0 F80.00 
G01 X61.7125 Y10.6 Z255 F20.00 
G01 X61.75 Y10.6 Z0 F80.00 
G00 X61.75 Y10.675 Z0 F80.00 
G01 X61.7875 Y10.675 Z0 F80.00 
G01 X57.1375 Y10.675 Z255 F20.00 
G01 X57.1 Y10.675 Z0 F80.00 
G00 X57.1 Y10.75 Z0 F80.00 
G01 X57.1375 Y10.75 Z0 F80.00 
G01 X61.9375 Y10.75 Z255 F20.00 
G01 X61.975 Y10.75 Z0 F80.00 
G00 X61.975 Y10.825 Z0 F80.00 
G01 X62.0125 Y10.825 Z0 F80.00 
G01 X57.1375 Y10.825 Z255 F20.00 
G01 X57.1 Y10.825 Z0 F80.00 
G00 X57.1 Y10.9 Z0 F80.00 
G01 X57.1375 Y10.9 Z0 F80.00 
G01 X62.0875 Y10.9 Z255 F20.00 
G01 X62.125 Y10.9 Z0 F80.00 
G00 X62.125 Y10.975 Z0 F80.00 
G01 X62.1625 Y10.975 Z0 F80.00 
G01 X57.2125 Y10.975 Z255 F20.00 
G01 X57.175 Y10.975 Z0 F80.00 
G00 X57.175 Y11.05 Z0 F80.00 
G01 X57.2125 Y11.05 Z0 F80.00 
G01 X62.2375 Y11.05 Z255 F20.00 
G01 X62.275 Y11.05 Z0 F80.00 
G00 X62.275 Y11.125 Z0 F80.00 
G01 X62.3125 Y11.125 Z0 F80.00 
G01 X57.2875 Y11.125 Z255 F20.00 
G01 X57.25 Y11.125 Z0 F80.00 
G00 X57.25 Y11.2 Z0 F80.00 
G01 X57.2875 Y11.2 Z0 F80.00 
G01 X62.4625 Y11.2 Z255 F20.00 
G01 X62.5 Y11.2 Z0 F80.00 
G00 X62.5 Y11.275 Z0 F80.00 
G01 X62.5375 Y11.275 Z0 F80.00 
G01 X57.2875 Y11.275 Z255 F20.00 
G01 X57.25 Y11.275 Z0 F80.00 
G00 X57.25 Y11.35 Z0 F80.00 
G01 X57.3625 Y11.35 Z0 F80.00 
G01 X62.6125 Y11.35 Z255 F20.00 
G01 X62.65 Y11.35 Z0 F80.00 
G00 X62.65 Y11.425 Z0 F80.00 
G01 X62.6875 Y11.425 Z0 F80.00 
G01 X57.3625 Y11.425 Z255 F20.00 
G01 X57.325 Y11.425 Z0 F80.00 
G00 X57.325 Y11.5 Z0 F80.00 
G01 X57.3625 Y11.5 Z0 F80.00 
G01 X62.7625 Y11.5 Z255 F20.00 
G01 X62.8 Y11.5 Z0 F80.00 
G00 X62.8 Y11.575 Z0 F80.00 
G01 X62.8375 Y11.575 Z0 F80.00 
G01 X57.4375 Y11.575 Z255 F20.00 
G01 X57.4 Y11.575 Z0 F80.00 
G00 X57.4 Y11.65 Z0 F80.00 
G01 X57.4375 Y11.65 Z0 F80.00 
G01 X62.9125 Y11.65 Z255 F20.00 
G01 X62.95 Y11.65 Z0 F80.00 
G00 X62.95 Y11.725 Z0 F80.00 
G01 X63.0625 Y11.725 Z0 F80.00 
G01 X57.4375 Y11.725 Z255 F20.00 
G01 X57.4 Y11.725 Z0 F80.00 
G00 X57.4 Y11.8 Z0 F80.00 
G01 X57.5125 Y11.8 Z0 F80.00 
G01 X63.1375 Y11.8 Z255 F20.00 
G01 X63.175 Y11.8 Z0 F80.00 
G00 X63.175 Y11.875 Z0 F80.00 
G01 X63.2125 Y11.875 Z0 F80.00 
G01 X57.5125 Y11.875 Z255 F20.00 
G01 X57.475 Y11.875 Z0 F80.00 
G00 X57.475 Y11.95 Z0 F80.00 
G01 X57.5875 Y11.95 Z0 F80.00 
G01 X63.2875 Y11.95 Z255 F20.00 
G01 X63.325 Y11.95 Z0 F80.00 
G00 X63.325 Y12.025 Z0 F80.00 
G01 X63.3625 Y12.025 Z0 F80.00 
G01 X57.5875 Y12.025 Z255 F20.00 
G01 X57.55 Y12.025 Z0 F80.00 
G00 X57.55 Y12.1 Z0 F80.00 
G01 X57.5875 Y12.1 Z0 F80.00 
G01 X63.4375 Y12.1 Z255 F20.00 
G01 X63.475 Y12.1 Z0 F80.00 
G00 X63.475 Y12.175 Z0 F80.00 
G01 X63.5875 Y12.175 Z0 F80.00 
G01 X57.6625 Y12.175 Z255 F20.00 
G01 X57.625 Y12.175 Z0 F80.00 
G00 X57.625 Y12.25 Z0 F80.00 
G01 X57.6625 Y12.25 Z0 F80.00 
G01 X63.6625 Y12.25 Z255 F20.00 
G01 X63.7 Y12.25 Z0 F80.00 
G00 X63.7 Y12.325 Z0 F80.00 
G01 X63.7375 Y12.325 Z0 F80.00 
G01 X57.7375 Y12.325 Z255 F20.00 
G01 X57.7 Y12.325 Z0 F80.00 
G00 X57.7 Y12.4 Z0 F80.00 
G01 X57.7375 Y12.4 Z0 F80.00 
G01 X63.8125 Y12.4 Z255 F20.00 
G01 X63.85 Y12.4 Z0 F80.00 
G00 X63.85 Y12.475 Z0 F80.00 
G01 X63.8875 Y12.475 Z0 F80.00 
G01 X57.8125 Y12.475 Z255 F20.00 
G01 X57.775 Y12.475 Z0 F80.00 
G00 X57.775 Y12.55 Z0 F80.00 
G01 X57.8125 Y12.55 Z0 F80.00 
G01 X63.9625 Y12.55 Z255 F20.00 
G01 X64.0 Y12.55 Z0 F80.00 
G00 X64.0 Y12.625 Z0 F80.00 
G01 X64.1125 Y12.625 Z0 F80.00 
G01 X57.8125 Y12.625 Z255 F20.00 
G01 X57.775 Y12.625 Z0 F80.00 
G00 X57.775 Y12.7 Z0 F80.00 
G01 X57.8875 Y12.7 Z0 F80.00 
G01 X64.1875 Y12.7 Z255 F20.00 
G01 X64.225 Y12.7 Z0 F80.00 
G00 X64.225 Y12.775 Z0 F80.00 
G01 X64.2625 Y12.775 Z0 F80.00 
G01 X57.8875 Y12.775 Z255 F20.00 
G01 X57.85 Y12.775 Z0 F80.00 
G00 X57.85 Y12.85 Z0 F80.00 
G01 X57.9625 Y12.85 Z0 F80.00 
G01 X64.3375 Y12.85 Z255 F20.00 
G01 X64.375 Y12.85 Z0 F80.00 
G00 X64.375 Y12.925 Z0 F80.00 
G01 X64.4125 Y12.925 Z0 F80.00 
G01 X57.9625 Y12.925 Z255 F20.00 
G01 X57.925 Y12.925 Z0 F80.00 
G00 X57.925 Y13.0 Z0 F80.00 
G01 X58.0375 Y13.0 Z0 F80.00 
G01 X64.4875 Y13.0 Z255 F20.00 
G01 X64.525 Y13.0 Z0 F80.00 
G00 X64.525 Y13.075 Z0 F80.00 
G01 X64.6375 Y13.075 Z0 F80.00 
G01 X58.0375 Y13.075 Z255 F20.00 
G01 X58.0 Y13.075 Z0 F80.00 
G00 X58.0 Y13.15 Z0 F80.00 
G01 X58.1125 Y13.15 Z0 F80.00 
G01 X64.7125 Y13.15 Z255 F20.00 
G01 X64.75 Y13.15 Z0 F80.00 
G00 X64.75 Y13.225 Z0 F80.00 
G01 X64.7875 Y13.225 Z0 F80.00 
G01 X58.1125 Y13.225 Z255 F20.00 
G01 X58.075 Y13.225 Z0 F80.00 
G00 X58.075 Y13.3 Z0 F80.00 
G01 X58.1875 Y13.3 Z0 F80.00 
G01 X64.8625 Y13.3 Z255 F20.00 
G01 X64.9 Y13.3 Z0 F80.00 
G00 X64.9 Y13.375 Z0 F80.00 
G01 X64.9375 Y13.375 Z0 F80.00 
G01 X58.1875 Y13.375 Z255 F20.00 
G01 X58.15 Y13.375 Z0 F80.00 
G00 X58.15 Y13.45 Z0 F80.00 
G01 X58.2625 Y13.45 Z0 F80.00 
G01 X65.0875 Y13.45 Z255 F20.00 
G01 X65.125 Y13.45 Z0 F80.00 
G00 X65.125 Y13.525 Z0 F80.00 
G01 X65.2375 Y13.525 Z0 F80.00 
G01 X58.2625 Y13.525 Z255 F20.00 
G01 X58.225 Y13.525 Z0 F80.00 
G00 X58.225 Y13.6 Z0 F80.00 
G01 X58.3375 Y13.6 Z0 F80.00 
G01 X65.3125 Y13.6 Z255 F20.00 
G01 X74.275 Y13.6 Z0 F80.00 
G00 X74.275 Y13.675 Z0 F80.00 
G01 X65.3875 Y13.675 Z0 F80.00 
G01 X58.3375 Y13.675 Z255 F20.00 
G01 X58.3 Y13.675 Z0 F80.00 
G00 X58.3 Y13.75 Z0 F80.00 
G01 X58.4125 Y13.75 Z0 F80.00 
G01 X65.4625 Y13.75 Z255 F20.00 
G01 X65.5 Y13.75 Z0 F80.00 
G00 X65.5 Y13.825 Z0 F80.00 
G01 X65.5375 Y13.825 Z0 F80.00 
G01 X58.4125 Y13.825 Z255 F20.00 
G01 X58.375 Y13.825 Z0 F80.00 
G00 X58.375 Y13.9 Z0 F80.00 
G01 X58.4875 Y13.9 Z0 F80.00 
G01 X65.6125 Y13.9 Z255 F20.00 
G01 X65.65 Y13.9 Z0 F80.00 
G00 X65.65 Y13.975 Z0 F80.00 
G01 X65.6875 Y13.975 Z0 F80.00 
G01 X58.5625 Y13.975 Z255 F20.00 
G01 X58.525 Y13.975 Z0 F80.00 
G00 X58.525 Y14.05 Z0 F80.00 
G01 X58.5625 Y14.05 Z0 F80.00 
G01 X65.8375 Y14.05 Z255 F20.00 
G01 X65.875 Y14.05 Z0 F80.00 
G00 X65.875 Y14.125 Z0 F80.00 
G01 X65.9125 Y14.125 Z0 F80.00 
G01 X58.6375 Y14.125 Z255 F20.00 
G01 X58.6 Y14.125 Z0 F80.00 
G00 X58.6 Y14.2 Z0 F80.00 
G01 X58.6375 Y14.2 Z0 F80.00 
G01 X65.9875 Y14.2 Z255 F20.00 
G01 X66.025 Y14.2 Z0 F80.00 
G00 X66.025 Y14.275 Z0 F80.00 
G01 X66.0625 Y14.275 Z0 F80.00 
G01 X58.7125 Y14.275 Z255 F20.00 
G01 X58.675 Y14.275 Z0 F80.00 
G00 X58.675 Y14.35 Z0 F80.00 
G01 X58.7125 Y14.35 Z0 F80.00 
G01 X66.2125 Y14.35 Z255 F20.00 
G01 X66.25 Y14.35 Z0 F80.00 
G00 X66.25 Y14.425 Z0 F80.00 
G01 X74.0875 Y14.425 Z0 F80.00 
G01 X74.0125 Y14.425 Z255 F20.00 
G01 X66.3625 Y14.425 Z0 F80.00 
G01 X58.7875 Y14.425 Z255 F20.00 
G01 X58.75 Y14.425 Z0 F80.00 
G00 X58.75 Y14.5 Z0 F80.00 
G01 X58.8625 Y14.5 Z0 F80.00 
G01 X66.4375 Y14.5 Z255 F20.00 
G01 X74.0125 Y14.5 Z0 F80.00 
G01 X74.0875 Y14.5 Z255 F20.00 
G01 X74.125 Y14.5 Z0 F80.00 
G00 X74.125 Y14.575 Z0 F80.00 
G01 X74.0875 Y14.575 Z0 F80.00 
G01 X74.0125 Y14.575 Z255 F20.00 
G01 X66.5875 Y14.575 Z0 F80.00 
G01 X58.8625 Y14.575 Z255 F20.00 
G01 X58.825 Y14.575 Z0 F80.00 
G00 X58.825 Y14.65 Z0 F80.00 
G01 X58.9375 Y14.65 Z0 F80.00 
G01 X66.6625 Y14.65 Z255 F20.00 
G01 X74.0125 Y14.65 Z0 F80.00 
G01 X74.0875 Y14.65 Z255 F20.00 
G01 X74.125 Y14.65 Z0 F80.00 
G00 X74.125 Y14.725 Z0 F80.00 
G01 X74.1625 Y14.725 Z0 F80.00 
G01 X73.9375 Y14.725 Z255 F20.00 
G01 X66.7375 Y14.725 Z0 F80.00 
G01 X58.9375 Y14.725 Z255 F20.00 
G01 X58.9 Y14.725 Z0 F80.00 
G00 X58.9 Y14.8 Z0 F80.00 
G01 X56.9875 Y14.8 Z0 F80.00 
G01 X57.8125 Y14.8 Z255 F20.00 
G01 X58.9375 Y14.8 Z0 F80.00 
G01 X66.8875 Y14.8 Z255 F20.00 
G01 X73.9375 Y14.8 Z0 F80.00 
G01 X74.1625 Y14.8 Z255 F20.00 
G01 X74.2 Y14.8 Z0 F80.00 
G00 X74.2 Y14.875 Z0 F80.00 
G01 X74.2375 Y14.875 Z0 F80.00 
G01 X73.9375 Y14.875 Z255 F20.00 
G01 X66.9625 Y14.875 Z0 F80.00 
G01 X59.0125 Y14.875 Z255 F20.00 
G01 X58.4125 Y14.875 Z0 F80.00 
G01 X56.7625 Y14.875 Z255 F20.00 
G01 X56.725 Y14.875 Z0 F80.00 
G00 X56.725 Y14.95 Z0 F80.00 
G01 X56.4625 Y14.95 Z0 F80.00 
G01 X58.8625 Y14.95 Z255 F20.00 
G01 X59.0125 Y14.95 Z0 F80.00 
G01 X67.1125 Y14.95 Z255 F20.00 
G01 X73.9375 Y14.95 Z0 F80.00 
G01 X74.2375 Y14.95 Z255 F20.00 
G01 X74.275 Y14.95 Z0 F80.00 
G00 X74.275 Y15.025 Z0 F80.00 
G01 X74.2375 Y15.025 Z0 F80.00 
G01 X73.9375 Y15.025 Z255 F20.00 
G01 X67.2625 Y15.025 Z0 F80.00 
G01 X56.2375 Y15.025 Z255 F20.00 
G01 X56.2 Y15.025 Z0 F80.00 
G00 X56.2 Y15.1 Z0 F80.00 
G01 X55.9375 Y15.1 Z0 F80.00 
G01 X67.4875 Y15.1 Z255 F20.00 
G01 X73.8625 Y15.1 Z0 F80.00 
G01 X74.3125 Y15.1 Z255 F20.00 
G01 X74.35 Y15.1 Z0 F80.00 
G00 X74.35 Y15.175 Z0 F80.00 
G01 X74.3125 Y15.175 Z0 F80.00 
G01 X73.8625 Y15.175 Z255 F20.00 
G01 X67.6375 Y15.175 Z0 F80.00 
G01 X55.7125 Y15.175 Z255 F20.00 
G01 X55.675 Y15.175 Z0 F80.00 
G00 X55.675 Y15.25 Z0 F80.00 
G01 X55.4875 Y15.25 Z0 F80.00 
G01 X67.8625 Y15.25 Z255 F20.00 
G01 X73.8625 Y15.25 Z0 F80.00 
G01 X74.3125 Y15.25 Z255 F20.00 
G01 X74.35 Y15.25 Z0 F80.00 
G00 X74.35 Y15.325 Z0 F80.00 
G01 X74.3875 Y15.325 Z0 F80.00 
G01 X73.8625 Y15.325 Z255 F20.00 
G01 X68.0125 Y15.325 Z0 F80.00 
G01 X55.1875 Y15.325 Z255 F20.00 
G01 X55.15 Y15.325 Z0 F80.00 
G00 X55.15 Y15.4 Z0 F80.00 
G01 X54.9625 Y15.4 Z0 F80.00 
G01 X68.2375 Y15.4 Z255 F20.00 
G01 X73.8625 Y15.4 Z0 F80.00 
G01 X74.3875 Y15.4 Z255 F20.00 
G01 X74.425 Y15.4 Z0 F80.00 
G00 X74.425 Y15.475 Z0 F80.00 
G01 X74.4625 Y15.475 Z0 F80.00 
G01 X73.8625 Y15.475 Z255 F20.00 
G01 X68.3875 Y15.475 Z0 F80.00 
G01 X54.7375 Y15.475 Z255 F20.00 
G01 X54.7 Y15.475 Z0 F80.00 
G00 X54.7 Y15.55 Z0 F80.00 
G01 X54.4375 Y15.55 Z0 F80.00 
G01 X68.6125 Y15.55 Z255 F20.00 
G01 X73.7875 Y15.55 Z0 F80.00 
G01 X74.4625 Y15.55 Z255 F20.00 
G01 X74.5 Y15.55 Z0 F80.00 
G00 X74.5 Y15.625 Z0 F80.00 
G01 X74.5375 Y15.625 Z0 F80.00 
G01 X73.7875 Y15.625 Z255 F20.00 
G01 X68.7625 Y15.625 Z0 F80.00 
G01 X54.2125 Y15.625 Z255 F20.00 
G01 X54.175 Y15.625 Z0 F80.00 
G00 X54.175 Y15.7 Z0 F80.00 
G01 X53.9125 Y15.7 Z0 F80.00 
G01 X68.9125 Y15.7 Z255 F20.00 
G01 X73.7875 Y15.7 Z0 F80.00 
G01 X74.5375 Y15.7 Z255 F20.00 
G01 X74.575 Y15.7 Z0 F80.00 
G00 X74.575 Y15.775 Z0 F80.00 
G01 X74.6125 Y15.775 Z0 F80.00 
G01 X73.7875 Y15.775 Z255 F20.00 
G01 X69.0625 Y15.775 Z0 F80.00 
G01 X53.6875 Y15.775 Z255 F20.00 
G01 X53.65 Y15.775 Z0 F80.00 
G00 X53.65 Y15.85 Z0 F80.00 
G01 X53.3875 Y15.85 Z0 F80.00 
G01 X69.2875 Y15.85 Z255 F20.00 
G01 X73.7875 Y15.85 Z0 F80.00 
G01 X74.6125 Y15.85 Z255 F20.00 
G01 X74.65 Y15.85 Z0 F80.00 
G00 X74.65 Y15.925 Z0 F80.00 
G01 X74.6875 Y15.925 Z0 F80.00 
G01 X73.7875 Y15.925 Z255 F20.00 
G01 X69.4375 Y15.925 Z0 F80.00 
G01 X53.0875 Y15.925 Z255 F20.00 
G01 X53.05 Y15.925 Z0 F80.00 
G00 X53.05 Y16.0 Z0 F80.00 
G01 X52.8625 Y16.0 Z0 F80.00 
G01 X69.5875 Y16.0 Z255 F20.00 
G01 X73.7875 Y16.0 Z0 F80.00 
G01 X74.6875 Y16.0 Z255 F20.00 
G01 X74.725 Y16.0 Z0 F80.00 
G00 X74.725 Y16.075 Z0 F80.00 
G01 X74.7625 Y16.075 Z0 F80.00 
G01 X73.7125 Y16.075 Z255 F20.00 
G01 X69.7375 Y16.075 Z0 F80.00 
G01 X52.5625 Y16.075 Z255 F20.00 
G01 X52.525 Y16.075 Z0 F80.00 
G00 X52.525 Y16.15 Z0 F80.00 
G01 X52.3375 Y16.15 Z0 F80.00 
G01 X69.8875 Y16.15 Z255 F20.00 
G01 X73.7125 Y16.15 Z0 F80.00 
G01 X74.7625 Y16.15 Z255 F20.00 
G01 X74.8 Y16.15 Z0 F80.00 
G00 X74.8 Y16.225 Z0 F80.00 
G01 X74.8375 Y16.225 Z0 F80.00 
G01 X73.7125 Y16.225 Z255 F20.00 
G01 X70.0375 Y16.225 Z0 F80.00 
G01 X52.0375 Y16.225 Z255 F20.00 
G01 X52.0 Y16.225 Z0 F80.00 
G00 X52.0 Y16.3 Z0 F80.00 
G01 X51.8125 Y16.3 Z0 F80.00 
G01 X70.1875 Y16.3 Z255 F20.00 
G01 X73.7125 Y16.3 Z0 F80.00 
G01 X74.8375 Y16.3 Z255 F20.00 
G01 X74.875 Y16.3 Z0 F80.00 
G00 X74.875 Y16.375 Z0 F80.00 
G01 X74.9125 Y16.375 Z0 F80.00 
G01 X73.7125 Y16.375 Z255 F20.00 
G01 X70.3375 Y16.375 Z0 F80.00 
G01 X51.5125 Y16.375 Z255 F20.00 
G01 X51.475 Y16.375 Z0 F80.00 
G00 X51.475 Y16.45 Z0 F80.00 
G01 X51.2125 Y16.45 Z0 F80.00 
G01 X70.4875 Y16.45 Z255 F20.00 
G01 X73.7125 Y16.45 Z0 F80.00 
G01 X74.9875 Y16.45 Z255 F20.00 
G01 X75.025 Y16.45 Z0 F80.00 
G00 X75.025 Y16.525 Z0 F80.00 
G01 X74.9875 Y16.525 Z0 F80.00 
G01 X73.7125 Y16.525 Z255 F20.00 
G01 X70.6375 Y16.525 Z0 F80.00 
G01 X50.9875 Y16.525 Z255 F20.00 
G01 X50.95 Y16.525 Z0 F80.00 
G00 X50.95 Y16.6 Z0 F80.00 
G01 X50.6875 Y16.6 Z0 F80.00 
G01 X70.7875 Y16.6 Z255 F20.00 
G01 X73.7125 Y16.6 Z0 F80.00 
G01 X75.0625 Y16.6 Z255 F20.00 
G01 X75.1 Y16.6 Z0 F80.00 
G00 X75.1 Y16.675 Z0 F80.00 
G01 X75.0625 Y16.675 Z0 F80.00 
G01 X73.7125 Y16.675 Z255 F20.00 
G01 X70.9375 Y16.675 Z0 F80.00 
G01 X50.3875 Y16.675 Z255 F20.00 
G01 X50.35 Y16.675 Z0 F80.00 
G00 X50.35 Y16.75 Z0 F80.00 
G01 X50.1625 Y16.75 Z0 F80.00 
G01 X71.0125 Y16.75 Z255 F20.00 
G01 X73.7125 Y16.75 Z0 F80.00 
G01 X75.1375 Y16.75 Z255 F20.00 
G01 X75.175 Y16.75 Z0 F80.00 
G00 X75.175 Y16.825 Z0 F80.00 
G01 X75.1375 Y16.825 Z0 F80.00 
G01 X73.7125 Y16.825 Z255 F20.00 
G01 X71.1625 Y16.825 Z0 F80.00 
G01 X49.8625 Y16.825 Z255 F20.00 
G01 X49.825 Y16.825 Z0 F80.00 
G00 X49.825 Y16.9 Z0 F80.00 
G01 X49.5625 Y16.9 Z0 F80.00 
G01 X71.3125 Y16.9 Z255 F20.00 
G01 X73.7125 Y16.9 Z0 F80.00 
G01 X75.2125 Y16.9 Z255 F20.00 
G01 X75.25 Y16.9 Z0 F80.00 
G00 X75.25 Y16.975 Z0 F80.00 
G01 X75.2875 Y16.975 Z0 F80.00 
G01 X73.7125 Y16.975 Z255 F20.00 
G01 X71.3875 Y16.975 Z0 F80.00 
G01 X49.3375 Y16.975 Z255 F20.00 
G01 X49.3 Y16.975 Z0 F80.00 
G00 X49.3 Y17.05 Z0 F80.00 
G01 X49.0375 Y17.05 Z0 F80.00 
G01 X71.5375 Y17.05 Z255 F20.00 
G01 X73.6375 Y17.05 Z0 F80.00 
G01 X75.2875 Y17.05 Z255 F20.00 
G01 X75.325 Y17.05 Z0 F80.00 
G00 X75.325 Y17.125 Z0 F80.00 
G01 X75.3625 Y17.125 Z0 F80.00 
G01 X73.6375 Y17.125 Z255 F20.00 
G01 X71.6875 Y17.125 Z0 F80.00 
G01 X48.7375 Y17.125 Z255 F20.00 
G01 X48.7 Y17.125 Z0 F80.00 
G00 X48.7 Y17.2 Z0 F80.00 
G01 X48.4375 Y17.2 Z0 F80.00 
G01 X71.8375 Y17.2 Z255 F20.00 
G01 X73.6375 Y17.2 Z0 F80.00 
G01 X75.3625 Y17.2 Z255 F20.00 
G01 X75.4 Y17.2 Z0 F80.00 
G00 X75.4 Y17.275 Z0 F80.00 
G01 X75.4375 Y17.275 Z0 F80.00 
G01 X73.6375 Y17.275 Z255 F20.00 
G01 X71.9125 Y17.275 Z0 F80.00 
G01 X48.1375 Y17.275 Z255 F20.00 
G01 X48.1 Y17.275 Z0 F80.00 
G00 X48.1 Y17.35 Z0 F80.00 
G01 X47.8375 Y17.35 Z0 F80.00 
G01 X72.0625 Y17.35 Z255 F20.00 
G01 X73.6375 Y17.35 Z0 F80.00 
G01 X75.4375 Y17.35 Z255 F20.00 
G01 X75.475 Y17.35 Z0 F80.00 
G00 X75.475 Y17.425 Z0 F80.00 
G01 X75.5125 Y17.425 Z0 F80.00 
G01 X73.6375 Y17.425 Z255 F20.00 
G01 X72.2125 Y17.425 Z0 F80.00 
G01 X72.0625 Y17.425 Z255 F20.00 
G01 X71.9875 Y17.425 Z0 F80.00 
G01 X47.5375 Y17.425 Z255 F20.00 
G01 X47.5 Y17.425 Z0 F80.00 
G00 X47.5 Y17.5 Z0 F80.00 
G01 X47.2375 Y17.5 Z0 F80.00 
G01 X72.3625 Y17.5 Z255 F20.00 
G01 X73.6375 Y17.5 Z0 F80.00 
G01 X75.5875 Y17.5 Z255 F20.00 
G01 X75.625 Y17.5 Z0 F80.00 
G00 X75.625 Y17.575 Z0 F80.00 
G01 X75.5875 Y17.575 Z0 F80.00 
G01 X73.6375 Y17.575 Z255 F20.00 
G01 X72.4375 Y17.575 Z0 F80.00 
G01 X46.9375 Y17.575 Z255 F20.00 
G01 X46.9 Y17.575 Z0 F80.00 
G00 X46.9 Y17.65 Z0 F80.00 
G01 X46.5625 Y17.65 Z0 F80.00 
G01 X72.3625 Y17.65 Z255 F20.00 
G01 X72.4375 Y17.65 Z0 F80.00 
G01 X72.5875 Y17.65 Z255 F20.00 
G01 X73.6375 Y17.65 Z0 F80.00 
G01 X75.6625 Y17.65 Z255 F20.00 
G01 X75.7 Y17.65 Z0 F80.00 
G00 X75.7 Y17.725 Z0 F80.00 
G01 X75.6625 Y17.725 Z0 F80.00 
G01 X73.6375 Y17.725 Z255 F20.00 
G01 X72.7375 Y17.725 Z0 F80.00 
G01 X72.5125 Y17.725 Z255 F20.00 
G01 X72.4375 Y17.725 Z0 F80.00 
G01 X46.2625 Y17.725 Z255 F20.00 
G01 X46.225 Y17.725 Z0 F80.00 
G00 X46.225 Y17.8 Z0 F80.00 
G01 X45.9625 Y17.8 Z0 F80.00 
G01 X72.5875 Y17.8 Z255 F20.00 
G01 X72.6625 Y17.8 Z0 F80.00 
G01 X72.8125 Y17.8 Z255 F20.00 
G01 X73.7125 Y17.8 Z0 F80.00 
G01 X75.7375 Y17.8 Z255 F20.00 
G01 X75.775 Y17.8 Z0 F80.00 
G00 X75.775 Y17.875 Z0 F80.00 
G01 X75.8125 Y17.875 Z0 F80.00 
G01 X73.7125 Y17.875 Z255 F20.00 
G01 X72.9625 Y17.875 Z0 F80.00 
G01 X72.7375 Y17.875 Z255 F20.00 
G01 X72.6625 Y17.875 Z0 F80.00 
G01 X45.5875 Y17.875 Z255 F20.00 
G01 X45.55 Y17.875 Z0 F80.00 
G00 X45.55 Y17.95 Z0 F80.00 
G01 X45.2125 Y17.95 Z0 F80.00 
G01 X72.7375 Y17.95 Z255 F20.00 
G01 X72.8125 Y17.95 Z0 F80.00 
G01 X73.1125 Y17.95 Z255 F20.00 
G01 X73.7125 Y17.95 Z0 F80.00 
G01 X75.8125 Y17.95 Z255 F20.00 
G01 X75.85 Y17.95 Z0 F80.00 
G00 X75.85 Y18.025 Z0 F80.00 
G01 X75.9625 Y18.025 Z0 F80.00 
G01 X73.7125 Y18.025 Z255 F20.00 
G01 X73.2625 Y18.025 Z0 F80.00 
G01 X44.8375 Y18.025 Z255 F20.00 
G01 X44.8 Y18.025 Z0 F80.00 
G00 X44.8 Y18.1 Z0 F80.00 
G01 X44.4625 Y18.1 Z0 F80.00 
G01 X73.3375 Y18.1 Z255 F20.00 
G01 X73.6375 Y18.1 Z0 F80.00 
G01 X76.0375 Y18.1 Z255 F20.00 
G01 X76.7875 Y18.1 Z0 F80.00 
G01 X76.8625 Y18.1 Z255 F20.00 
G01 X76.9 Y18.1 Z0 F80.00 
G00 X76.9 Y18.175 Z0 F80.00 
G01 X76.1125 Y18.175 Z0 F80.00 
G01 X73.6375 Y18.175 Z255 F20.00 
G01 X73.4875 Y18.175 Z0 F80.00 
G01 X73.2625 Y18.175 Z255 F20.00 
G01 X73.1875 Y18.175 Z0 F80.00 
G01 X73.1125 Y18.175 Z255 F20.00 
G01 X73.0375 Y18.175 Z0 F80.00 
G01 X44.0875 Y18.175 Z255 F20.00 
G01 X44.05 Y18.175 Z0 F80.00 
G00 X44.05 Y18.25 Z0 F80.00 
G01 X43.7125 Y18.25 Z0 F80.00 
G01 X73.2625 Y18.25 Z255 F20.00 
G01 X73.3375 Y18.25 Z0 F80.00 
G01 X73.5625 Y18.25 Z255 F20.00 
G01 X73.6375 Y18.25 Z0 F80.00 
G01 X76.1875 Y18.25 Z255 F20.00 
G01 X76.8625 Y18.25 Z0 F80.00 
G01 X76.9375 Y18.25 Z255 F20.00 
G01 X76.975 Y18.25 Z0 F80.00 
G00 X76.975 Y18.325 Z0 F80.00 
G01 X77.0125 Y18.325 Z0 F80.00 
G01 X76.9375 Y18.325 Z255 F20.00 
G01 X76.2625 Y18.325 Z0 F80.00 
G01 X73.4125 Y18.325 Z255 F20.00 
G01 X73.3375 Y18.325 Z0 F80.00 
G01 X73.2625 Y18.325 Z255 F20.00 
G01 X73.1875 Y18.325 Z0 F80.00 
G01 X43.2625 Y18.325 Z255 F20.00 
G01 X43.225 Y18.325 Z0 F80.00 
G00 X43.225 Y18.4 Z0 F80.00 
G01 X42.8875 Y18.4 Z0 F80.00 
G01 X73.2625 Y18.4 Z255 F20.00 
G01 X73.3375 Y18.4 Z0 F80.00 
G01 X73.4125 Y18.4 Z255 F20.00 
G01 X73.4875 Y18.4 Z0 F80.00 
G01 X76.3375 Y18.4 Z255 F20.00 
G01 X76.9375 Y18.4 Z0 F80.00 
G01 X77.0875 Y18.4 Z255 F20.00 
G01 X77.125 Y18.4 Z0 F80.00 
G00 X77.125 Y18.475 Z0 F80.00 
G01 X77.0875 Y18.475 Z0 F80.00 
G01 X77.0125 Y18.475 Z255 F20.00 
G01 X76.4125 Y18.475 Z0 F80.00 
G01 X73.5625 Y18.475 Z255 F20.00 
G01 X73.4875 Y18.475 Z0 F80.00 
G01 X73.4125 Y18.475 Z255 F20.00 
G01 X73.3375 Y18.475 Z0 F80.00 
G01 X42.4375 Y18.475 Z255 F20.00 
G01 X42.4 Y18.475 Z0 F80.00 
G00 X42.4 Y18.55 Z0 F80.00 
G01 X41.9875 Y18.55 Z0 F80.00 
G01 X73.4125 Y18.55 Z255 F20.00 
G01 X73.4875 Y18.55 Z0 F80.00 
G01 X73.5625 Y18.55 Z255 F20.00 
G01 X73.6375 Y18.55 Z0 F80.00 
G01 X76.4875 Y18.55 Z255 F20.00 
G01 X77.0875 Y18.55 Z0 F80.00 
G01 X77.1625 Y18.55 Z255 F20.00 
G01 X77.2 Y18.55 Z0 F80.00 
G00 X77.2 Y18.625 Z0 F80.00 
G01 X77.1625 Y18.625 Z0 F80.00 
G01 X77.0875 Y18.625 Z255 F20.00 
G01 X76.5625 Y18.625 Z0 F80.00 
G01 X73.7125 Y18.625 Z255 F20.00 
G01 X73.6375 Y18.625 Z0 F80.00 
G01 X73.5625 Y18.625 Z255 F20.00 
G01 X73.4875 Y18.625 Z0 F80.00 
G01 X41.5375 Y18.625 Z255 F20.00 
G01 X41.5 Y18.625 Z0 F80.00 
G00 X41.5 Y18.7 Z0 F80.00 
G01 X41.1625 Y18.7 Z0 F80.00 
G01 X73.7125 Y18.7 Z255 F20.00 
G01 X73.7875 Y18.7 Z0 F80.00 
G01 X76.5625 Y18.7 Z255 F20.00 
G01 X77.1625 Y18.7 Z0 F80.00 
G01 X77.2375 Y18.7 Z255 F20.00 
G01 X77.275 Y18.7 Z0 F80.00 
G00 X77.275 Y18.775 Z0 F80.00 
G01 X77.3125 Y18.775 Z0 F80.00 
G01 X77.2375 Y18.775 Z255 F20.00 
G01 X76.6375 Y18.775 Z0 F80.00 
G01 X73.8625 Y18.775 Z255 F20.00 
G01 X73.7875 Y18.775 Z0 F80.00 
G01 X40.7125 Y18.775 Z255 F20.00 
G01 X40.675 Y18.775 Z0 F80.00 
G00 X40.675 Y18.85 Z0 F80.00 
G01 X40.2625 Y18.85 Z0 F80.00 
G01 X73.6375 Y18.85 Z255 F20.00 
G01 X73.7125 Y18.85 Z0 F80.00 
G01 X73.7875 Y18.85 Z255 F20.00 
G01 X73.9375 Y18.85 Z0 F80.00 
G01 X76.7125 Y18.85 Z255 F20.00 
G01 X77.2375 Y18.85 Z0 F80.00 
G01 X77.3125 Y18.85 Z255 F20.00 
G01 X77.35 Y18.85 Z0 F80.00 
G00 X77.35 Y18.925 Z0 F80.00 
G01 X77.3875 Y18.925 Z0 F80.00 
G01 X77.2375 Y18.925 Z255 F20.00 
G01 X76.7125 Y18.925 Z0 F80.00 
G01 X74.0125 Y18.925 Z255 F20.00 
G01 X73.8625 Y18.925 Z0 F80.00 
G01 X73.7875 Y18.925 Z255 F20.00 
G01 X73.7125 Y18.925 Z0 F80.00 
G01 X39.8125 Y18.925 Z255 F20.00 
G01 X39.775 Y18.925 Z0 F80.00 
G00 X39.775 Y19.0 Z0 F80.00 
G01 X39.2875 Y19.0 Z0 F80.00 
G01 X73.7875 Y19.0 Z255 F20.00 
G01 X73.8625 Y19.0 Z0 F80.00 
G01 X73.9375 Y19.0 Z255 F20.00 
G01 X74.0875 Y19.0 Z0 F80.00 
G01 X76.7125 Y19.0 Z255 F20.00 
G01 X77.3125 Y19.0 Z0 F80.00 
G01 X77.3875 Y19.0 Z255 F20.00 
G01 X77.425 Y19.0 Z0 F80.00 
G00 X77.425 Y19.075 Z0 F80.00 
G01 X77.4625 Y19.075 Z0 F80.00 
G01 X77.3125 Y19.075 Z255 F20.00 
G01 X76.7875 Y19.075 Z0 F80.00 
G01 X74.0875 Y19.075 Z255 F20.00 
G01 X74.0125 Y19.075 Z0 F80.00 
G01 X73.9375 Y19.075 Z255 F20.00 
G01 X73.8625 Y19.075 Z0 F80.00 
G01 X38.8375 Y19.075 Z255 F20.00 
G01 X38.8 Y19.075 Z0 F80.00 
G00 X38.8 Y19.15 Z0 F80.00 
G01 X38.3125 Y19.15 Z0 F80.00 
G01 X73.9375 Y19.15 Z255 F20.00 
G01 X74.0125 Y19.15 Z0 F80.00 
G01 X74.0875 Y19.15 Z255 F20.00 
G01 X74.1625 Y19.15 Z0 F80.00 
G01 X76.7875 Y19.15 Z255 F20.00 
G01 X77.3875 Y19.15 Z0 F80.00 
G01 X77.4625 Y19.15 Z255 F20.00 
G01 X77.5 Y19.15 Z0 F80.00 
G00 X77.5 Y19.225 Z0 F80.00 
G01 X77.4625 Y19.225 Z0 F80.00 
G01 X77.3875 Y19.225 Z255 F20.00 
G01 X76.7875 Y19.225 Z0 F80.00 
G01 X74.2375 Y19.225 Z255 F20.00 
G01 X74.1625 Y19.225 Z0 F80.00 
G01 X74.0875 Y19.225 Z255 F20.00 
G01 X73.9375 Y19.225 Z0 F80.00 
G01 X37.5625 Y19.225 Z255 F20.00 
G01 X37.525 Y19.225 Z0 F80.00 
G00 X37.525 Y19.3 Z0 F80.00 
G01 X37.0375 Y19.3 Z0 F80.00 
G01 X74.0125 Y19.3 Z255 F20.00 
G01 X74.3125 Y19.3 Z0 F80.00 
G01 X76.8625 Y19.3 Z255 F20.00 
G01 X77.4625 Y19.3 Z0 F80.00 
G01 X77.5375 Y19.3 Z255 F20.00 
G01 X77.575 Y19.3 Z0 F80.00 
G00 X77.575 Y19.375 Z0 F80.00 
G01 X77.5375 Y19.375 Z0 F80.00 
G01 X77.4625 Y19.375 Z255 F20.00 
G01 X76.8625 Y19.375 Z0 F80.00 
G01 X74.3125 Y19.375 Z255 F20.00 
G01 X74.0875 Y19.375 Z0 F80.00 
G01 X36.4375 Y19.375 Z255 F20.00 
G01 X36.4 Y19.375 Z0 F80.00 
G00 X36.4 Y19.45 Z0 F80.00 
G01 X35.6875 Y19.45 Z0 F80.00 
G01 X74.1625 Y19.45 Z255 F20.00 
G01 X74.3875 Y19.45 Z0 F80.00 
G01 X76.8625 Y19.45 Z255 F20.00 
G01 X77.4625 Y19.45 Z0 F80.00 
G01 X77.6125 Y19.45 Z255 F20.00 
G01 X77.65 Y19.45 Z0 F80.00 
G00 X77.65 Y19.525 Z0 F80.00 
G01 X77.6125 Y19.525 Z0 F80.00 
G01 X77.4625 Y19.525 Z255 F20.00 
G01 X76.8625 Y19.525 Z0 F80.00 
G01 X74.4625 Y19.525 Z255 F20.00 
G01 X74.1625 Y19.525 Z0 F80.00 
G01 X34.7875 Y19.525 Z255 F20.00 
G01 X33.9625 Y19.525 Z0 F80.00 
G01 X33.8875 Y19.525 Z255 F20.00 
G01 X33.85 Y19.525 Z0 F80.00 
G00 X33.85 Y19.6 Z0 F80.00 
G01 X33.8125 Y19.6 Z0 F80.00 
G01 X74.2375 Y19.6 Z255 F20.00 
G01 X74.5375 Y19.6 Z0 F80.00 
G01 X76.8625 Y19.6 Z255 F20.00 
G01 X77.5375 Y19.6 Z0 F80.00 
G01 X77.6125 Y19.6 Z255 F20.00 
G01 X77.65 Y19.6 Z0 F80.00 
G00 X77.65 Y19.675 Z0 F80.00 
G01 X77.6875 Y19.675 Z0 F80.00 
G01 X77.5375 Y19.675 Z255 F20.00 
G01 X76.9375 Y19.675 Z0 F80.00 
G01 X74.6125 Y19.675 Z255 F20.00 
G01 X74.3125 Y19.675 Z0 F80.00 
G01 X33.8875 Y19.675 Z255 F20.00 
G01 X33.85 Y19.675 Z0 F80.00 
G00 X33.85 Y19.75 Z0 F80.00 
G01 X33.9625 Y19.75 Z0 F80.00 
G01 X74.3875 Y19.75 Z255 F20.00 
G01 X74.6125 Y19.75 Z0 F80.00 
G01 X76.9375 Y19.75 Z255 F20.00 
G01 X77.5375 Y19.75 Z0 F80.00 
G01 X77.7625 Y19.75 Z255 F20.00 
G01 X77.8 Y19.75 Z0 F80.00 
G00 X77.8 Y19.825 Z0 F80.00 
G01 X77.7625 Y19.825 Z0 F80.00 
G01 X77.5375 Y19.825 Z255 F20.00 
G01 X76.9375 Y19.825 Z0 F80.00 
G01 X74.6875 Y19.825 Z255 F20.00 
G01 X74.3875 Y19.825 Z0 F80.00 
G01 X34.0375 Y19.825 Z255 F20.00 
G01 X34.0 Y19.825 Z0 F80.00 
G00 X34.0 Y19.9 Z0 F80.00 
G01 X34.1125 Y19.9 Z0 F80.00 
G01 X74.4625 Y19.9 Z255 F20.00 
G01 X74.7625 Y19.9 Z0 F80.00 
G01 X76.9375 Y19.9 Z255 F20.00 
G01 X77.6125 Y19.9 Z0 F80.00 
G01 X77.7625 Y19.9 Z255 F20.00 
G01 X77.8 Y19.9 Z0 F80.00 
G00 X77.8 Y19.975 Z0 F80.00 
G01 X77.7625 Y19.975 Z0 F80.00 
G01 X77.6125 Y19.975 Z255 F20.00 
G01 X76.9375 Y19.975 Z0 F80.00 
G01 X74.7625 Y19.975 Z255 F20.00 
G01 X74.5375 Y19.975 Z0 F80.00 
G01 X34.1875 Y19.975 Z255 F20.00 
G01 X34.15 Y19.975 Z0 F80.00 
G00 X34.15 Y20.05 Z0 F80.00 
G01 X34.2625 Y20.05 Z0 F80.00 
G01 X74.6125 Y20.05 Z255 F20.00 
G01 X74.8375 Y20.05 Z0 F80.00 
G01 X76.9375 Y20.05 Z255 F20.00 
G01 X77.6125 Y20.05 Z0 F80.00 
G01 X77.7625 Y20.05 Z255 F20.00 
G01 X77.8 Y20.05 Z0 F80.00 
G00 X77.8 Y20.125 Z0 F80.00 
G01 X77.7625 Y20.125 Z0 F80.00 
G01 X77.6875 Y20.125 Z255 F20.00 
G01 X76.9375 Y20.125 Z0 F80.00 
G01 X74.9125 Y20.125 Z255 F20.00 
G01 X74.6125 Y20.125 Z0 F80.00 
G01 X34.4125 Y20.125 Z255 F20.00 
G01 X34.375 Y20.125 Z0 F80.00 
G00 X34.375 Y20.2 Z0 F80.00 
G01 X34.4875 Y20.2 Z0 F80.00 
G01 X74.6875 Y20.2 Z255 F20.00 
G01 X74.9875 Y20.2 Z0 F80.00 
G01 X77.0125 Y20.2 Z255 F20.00 
G01 X77.6875 Y20.2 Z0 F80.00 
G01 X77.7625 Y20.2 Z255 F20.00 
G01 X77.8 Y20.2 Z0 F80.00 
G00 X77.8 Y20.275 Z0 F80.00 
G01 X77.7625 Y20.275 Z0 F80.00 
G01 X77.6875 Y20.275 Z255 F20.00 
G01 X77.0125 Y20.275 Z0 F80.00 
G01 X74.9875 Y20.275 Z255 F20.00 
G01 X74.7625 Y20.275 Z0 F80.00 
G01 X34.5625 Y20.275 Z255 F20.00 
G01 X34.525 Y20.275 Z0 F80.00 
G00 X34.525 Y20.35 Z0 F80.00 
G01 X34.6375 Y20.35 Z0 F80.00 
G01 X74.7625 Y20.35 Z255 F20.00 
G01 X75.0625 Y20.35 Z0 F80.00 
G01 X77.0125 Y20.35 Z255 F20.00 
G01 X77.725 Y20.35 Z0 F80.00 
G00 X77.725 Y20.425 Z0 F80.00 
G01 X76.9375 Y20.425 Z0 F80.00 
G01 X75.0625 Y20.425 Z255 F20.00 
G01 X74.8375 Y20.425 Z0 F80.00 
G01 X34.9375 Y20.425 Z255 F20.00 
G01 X34.9 Y20.425 Z0 F80.00 
G00 X34.9 Y20.5 Z0 F80.00 
G01 X35.0875 Y20.5 Z0 F80.00 
G01 X74.9125 Y20.5 Z255 F20.00 
G01 X75.1375 Y20.5 Z0 F80.00 
G01 X76.9375 Y20.5 Z255 F20.00 
G01 X76.975 Y20.5 Z0 F80.00 
G00 X76.975 Y20.575 Z0 F80.00 
G01 X76.9375 Y20.575 Z0 F80.00 
G01 X75.2125 Y20.575 Z255 F20.00 
G01 X74.9125 Y20.575 Z0 F80.00 
G01 X35.2375 Y20.575 Z255 F20.00 
G01 X35.2 Y20.575 Z0 F80.00 
G00 X35.2 Y20.65 Z0 F80.00 
G01 X35.3875 Y20.65 Z0 F80.00 
G01 X74.9875 Y20.65 Z255 F20.00 
G01 X75.2125 Y20.65 Z0 F80.00 
G01 X76.9375 Y20.65 Z255 F20.00 
G01 X76.975 Y20.65 Z0 F80.00 
G00 X76.975 Y20.725 Z0 F80.00 
G01 X76.9375 Y20.725 Z0 F80.00 
G01 X75.2875 Y20.725 Z255 F20.00 
G01 X75.0625 Y20.725 Z0 F80.00 
G01 X35.5375 Y20.725 Z255 F20.00 
G01 X35.5 Y20.725 Z0 F80.00 
G00 X35.5 Y20.8 Z0 F80.00 
G01 X35.7625 Y20.8 Z0 F80.00 
G01 X75.0625 Y20.8 Z255 F20.00 
G01 X75.2875 Y20.8 Z0 F80.00 
G01 X76.9375 Y20.8 Z255 F20.00 
G01 X76.975 Y20.8 Z0 F80.00 
G00 X76.975 Y20.875 Z0 F80.00 
G01 X76.9375 Y20.875 Z0 F80.00 
G01 X75.3625 Y20.875 Z255 F20.00 
G01 X75.1375 Y20.875 Z0 F80.00 
G01 X35.9125 Y20.875 Z255 F20.00 
G01 X35.875 Y20.875 Z0 F80.00 
G00 X35.875 Y20.95 Z0 F80.00 
G01 X36.1375 Y20.95 Z0 F80.00 
G01 X75.2125 Y20.95 Z255 F20.00 
G01 X75.4375 Y20.95 Z0 F80.00 
G01 X76.9375 Y20.95 Z255 F20.00 
G01 X76.975 Y20.95 Z0 F80.00 
G00 X76.975 Y21.025 Z0 F80.00 
G01 X76.9375 Y21.025 Z0 F80.00 
G01 X75.4375 Y21.025 Z255 F20.00 
G01 X75.2125 Y21.025 Z0 F80.00 
G01 X36.3625 Y21.025 Z255 F20.00 
G01 X36.325 Y21.025 Z0 F80.00 
G00 X36.325 Y21.1 Z0 F80.00 
G01 X36.5875 Y21.1 Z0 F80.00 
G01 X75.2875 Y21.1 Z255 F20.00 
G01 X75.3625 Y21.1 Z0 F80.00 
G01 X75.4375 Y21.1 Z255 F20.00 
G01 X75.5125 Y21.1 Z0 F80.00 
G01 X76.9375 Y21.1 Z255 F20.00 
G01 X76.975 Y21.1 Z0 F80.00 
G00 X76.975 Y21.175 Z0 F80.00 
G01 X76.9375 Y21.175 Z0 F80.00 
G01 X75.5125 Y21.175 Z255 F20.00 
G01 X75.3625 Y21.175 Z0 F80.00 
G01 X36.8125 Y21.175 Z255 F20.00 
G01 X36.775 Y21.175 Z0 F80.00 
G00 X36.775 Y21.25 Z0 F80.00 
G01 X37.0375 Y21.25 Z0 F80.00 
G01 X75.3625 Y21.25 Z255 F20.00 
G01 X75.4375 Y21.25 Z0 F80.00 
G01 X75.5125 Y21.25 Z255 F20.00 
G01 X75.5875 Y21.25 Z0 F80.00 
G01 X76.9375 Y21.25 Z255 F20.00 
G01 X76.975 Y21.25 Z0 F80.00 
G00 X76.975 Y21.325 Z0 F80.00 
G01 X76.9375 Y21.325 Z0 F80.00 
G01 X75.5125 Y21.325 Z255 F20.00 
G01 X75.4375 Y21.325 Z0 F80.00 
G01 X37.3375 Y21.325 Z255 F20.00 
G01 X37.3 Y21.325 Z0 F80.00 
G00 X37.3 Y21.4 Z0 F80.00 
G01 X37.5625 Y21.4 Z0 F80.00 
G01 X76.9375 Y21.4 Z255 F20.00 
G01 X76.975 Y21.4 Z0 F80.00 
G00 X76.975 Y21.475 Z0 F80.00 
G01 X76.9375 Y21.475 Z0 F80.00 
G01 X37.8625 Y21.475 Z255 F20.00 
G01 X37.825 Y21.475 Z0 F80.00 
G00 X37.825 Y21.55 Z0 F80.00 
G01 X38.1625 Y21.55 Z0 F80.00 
G01 X76.9375 Y21.55 Z255 F20.00 
G01 X76.975 Y21.55 Z0 F80.00 
G00 X76.975 Y21.625 Z0 F80.00 
G01 X76.9375 Y21.625 Z0 F80.00 
G01 X38.4625 Y21.625 Z255 F20.00 
G01 X38.425 Y21.625 Z0 F80.00 
G00 X38.425 Y21.7 Z0 F80.00 
G01 X38.8375 Y21.7 Z0 F80.00 
G01 X76.9375 Y21.7 Z255 F20.00 
G01 X76.975 Y21.7 Z0 F80.00 
G00 X76.975 Y21.775 Z0 F80.00 
G01 X76.9375 Y21.775 Z0 F80.00 
G01 X39.1375 Y21.775 Z255 F20.00 
G01 X39.1 Y21.775 Z0 F80.00 
G00 X39.1 Y21.85 Z0 F80.00 
G01 X39.5125 Y21.85 Z0 F80.00 
G01 X76.8625 Y21.85 Z255 F20.00 
G01 X76.9 Y21.85 Z0 F80.00 
G00 X76.9 Y21.925 Z0 F80.00 
G01 X76.8625 Y21.925 Z0 F80.00 
G01 X39.8875 Y21.925 Z255 F20.00 
G01 X39.85 Y21.925 Z0 F80.00 
G00 X39.85 Y22.0 Z0 F80.00 
G01 X40.3375 Y22.0 Z0 F80.00 
G01 X76.8625 Y22.0 Z255 F20.00 
G01 X76.9 Y22.0 Z0 F80.00 
G00 X76.9 Y22.075 Z0 F80.00 
G01 X76.8625 Y22.075 Z0 F80.00 
G01 X40.7875 Y22.075 Z255 F20.00 
G01 X40.75 Y22.075 Z0 F80.00 
G00 X40.75 Y22.15 Z0 F80.00 
G01 X41.3125 Y22.15 Z0 F80.00 
G01 X76.8625 Y22.15 Z255 F20.00 
G01 X76.9 Y22.15 Z0 F80.00 
G00 X76.9 Y22.225 Z0 F80.00 
G01 X76.8625 Y22.225 Z0 F80.00 
G01 X41.9125 Y22.225 Z255 F20.00 
G01 X41.875 Y22.225 Z0 F80.00 
G00 X41.875 Y22.3 Z0 F80.00 
G01 X42.5125 Y22.3 Z0 F80.00 
G01 X76.8625 Y22.3 Z255 F20.00 
G01 X76.9 Y22.3 Z0 F80.00 
G00 X76.9 Y22.375 Z0 F80.00 
G01 X76.8625 Y22.375 Z0 F80.00 
G01 X43.0375 Y22.375 Z255 F20.00 
G01 X43.0 Y22.375 Z0 F80.00 
G00 X43.0 Y22.45 Z0 F80.00 
G01 X43.6375 Y22.45 Z0 F80.00 
G01 X76.8625 Y22.45 Z255 F20.00 
G01 X76.9 Y22.45 Z0 F80.00 
G00 X76.9 Y22.525 Z0 F80.00 
G01 X76.8625 Y22.525 Z0 F80.00 
G01 X44.5375 Y22.525 Z255 F20.00 
G01 X44.5 Y22.525 Z0 F80.00 
G00 X44.5 Y22.6 Z0 F80.00 
G01 X44.9125 Y22.6 Z0 F80.00 
G01 X76.8625 Y22.6 Z255 F20.00 
G01 X76.9 Y22.6 Z0 F80.00 
G00 X76.9 Y22.675 Z0 F80.00 
G01 X76.8625 Y22.675 Z0 F80.00 
G01 X44.8375 Y22.675 Z255 F20.00 
G01 X44.8 Y22.675 Z0 F80.00 
G00 X44.8 Y22.75 Z0 F80.00 
G01 X44.7625 Y22.75 Z0 F80.00 
G01 X76.7875 Y22.75 Z255 F20.00 
G01 X76.825 Y22.75 Z0 F80.00 
G00 X76.825 Y22.825 Z0 F80.00 
G01 X76.7875 Y22.825 Z0 F80.00 
G01 X44.6125 Y22.825 Z255 F20.00 
G01 X44.575 Y22.825 Z0 F80.00 
G00 X44.575 Y22.9 Z0 F80.00 
G01 X44.5375 Y22.9 Z0 F80.00 
G01 X76.7875 Y22.9 Z255 F20.00 
G01 X76.825 Y22.9 Z0 F80.00 
G00 X76.825 Y22.975 Z0 F80.00 
G01 X76.7875 Y22.975 Z0 F80.00 
G01 X44.4625 Y22.975 Z255 F20.00 
G01 X44.425 Y22.975 Z0 F80.00 
G00 X44.425 Y23.05 Z0 F80.00 
G01 X44.3875 Y23.05 Z0 F80.00 
G01 X76.7875 Y23.05 Z255 F20.00 
G01 X76.825 Y23.05 Z0 F80.00 
G00 X76.825 Y23.125 Z0 F80.00 
G01 X76.7875 Y23.125 Z0 F80.00 
G01 X44.2375 Y23.125 Z255 F20.00 
G01 X44.2 Y23.125 Z0 F80.00 
G00 X44.2 Y23.2 Z0 F80.00 
G01 X44.1625 Y23.2 Z0 F80.00 
G01 X76.7875 Y23.2 Z255 F20.00 
G01 X76.825 Y23.2 Z0 F80.00 
G00 X76.825 Y23.275 Z0 F80.00 
G01 X76.8625 Y23.275 Z0 F80.00 
G01 X44.0875 Y23.275 Z255 F20.00 
G01 X44.05 Y23.275 Z0 F80.00 
G00 X44.05 Y23.35 Z0 F80.00 
G01 X44.0125 Y23.35 Z0 F80.00 
G01 X76.8625 Y23.35 Z255 F20.00 
G01 X77.35 Y23.35 Z0 F80.00 
G00 X77.35 Y23.425 Z0 F80.00 
G01 X77.3875 Y23.425 Z0 F80.00 
G01 X77.3125 Y23.425 Z255 F20.00 
G01 X76.8625 Y23.425 Z0 F80.00 
G01 X43.9375 Y23.425 Z255 F20.00 
G01 X43.9 Y23.425 Z0 F80.00 
G00 X43.9 Y23.5 Z0 F80.00 
G01 X43.7875 Y23.5 Z0 F80.00 
G01 X76.9375 Y23.5 Z255 F20.00 
G01 X77.1625 Y23.5 Z0 F80.00 
G01 X77.3875 Y23.5 Z255 F20.00 
G01 X77.425 Y23.5 Z0 F80.00 
G00 X77.425 Y23.575 Z0 F80.00 
G01 X77.3875 Y23.575 Z0 F80.00 
G01 X43.7125 Y23.575 Z255 F20.00 
G01 X43.675 Y23.575 Z0 F80.00 
G00 X43.675 Y23.65 Z0 F80.00 
G01 X43.6375 Y23.65 Z0 F80.00 
G01 X77.3875 Y23.65 Z255 F20.00 
G01 X77.425 Y23.65 Z0 F80.00 
G00 X77.425 Y23.725 Z0 F80.00 
G01 X77.4625 Y23.725 Z0 F80.00 
G01 X43.5625 Y23.725 Z255 F20.00 
G01 X43.525 Y23.725 Z0 F80.00 
G00 X43.525 Y23.8 Z0 F80.00 
G01 X43.4875 Y23.8 Z0 F80.00 
G01 X77.4625 Y23.8 Z255 F20.00 
G01 X77.5 Y23.8 Z0 F80.00 
G00 X77.5 Y23.875 Z0 F80.00 
G01 X77.1625 Y23.875 Z0 F80.00 
G01 X43.4125 Y23.875 Z255 F20.00 
G01 X43.375 Y23.875 Z0 F80.00 
G00 X43.375 Y23.95 Z0 F80.00 
G01 X43.3375 Y23.95 Z0 F80.00 
G01 X77.0875 Y23.95 Z255 F20.00 
G01 X77.125 Y23.95 Z0 F80.00 
G00 X77.125 Y24.025 Z0 F80.00 
G01 X77.1625 Y24.025 Z0 F80.00 
G01 X43.2625 Y24.025 Z255 F20.00 
G01 X43.225 Y24.025 Z0 F80.00 
G00 X43.225 Y24.1 Z0 F80.00 
G01 X43.1125 Y24.1 Z0 F80.00 
G01 X77.2375 Y24.1 Z255 F20.00 
G01 X77.275 Y24.1 Z0 F80.00 
G00 X77.275 Y24.175 Z0 F80.00 
G01 X77.3125 Y24.175 Z0 F80.00 
G01 X43.0375 Y24.175 Z255 F20.00 
G01 X43.0 Y24.175 Z0 F80.00 
G00 X43.0 Y24.25 Z0 F80.00 
G01 X42.9625 Y24.25 Z0 F80.00 
G01 X77.3875 Y24.25 Z255 F20.00 
G01 X77.425 Y24.25 Z0 F80.00 
G00 X77.425 Y24.325 Z0 F80.00 
G01 X77.3875 Y24.325 Z0 F80.00 
G01 X42.8875 Y24.325 Z255 F20.00 
G01 X42.85 Y24.325 Z0 F80.00 
G00 X42.85 Y24.4 Z0 F80.00 
G01 X42.8125 Y24.4 Z0 F80.00 
G01 X77.4625 Y24.4 Z255 F20.00 
G01 X77.5 Y24.4 Z0 F80.00 
G00 X77.5 Y24.475 Z0 F80.00 
G01 X77.5375 Y24.475 Z0 F80.00 
G01 X42.7375 Y24.475 Z255 F20.00 
G01 X42.7 Y24.475 Z0 F80.00 
G00 X42.7 Y24.55 Z0 F80.00 
G01 X42.6625 Y24.55 Z0 F80.00 
G01 X77.5375 Y24.55 Z255 F20.00 
G01 X77.575 Y24.55 Z0 F80.00 
G00 X77.575 Y24.625 Z0 F80.00 
G01 X77.6125 Y24.625 Z0 F80.00 
G01 X42.5875 Y24.625 Z255 F20.00 
G01 X42.55 Y24.625 Z0 F80.00 
G00 X42.55 Y24.7 Z0 F80.00 
G01 X42.5125 Y24.7 Z0 F80.00 
G01 X77.6875 Y24.7 Z255 F20.00 
G01 X77.725 Y24.7 Z0 F80.00 
G00 X77.725 Y24.775 Z0 F80.00 
G01 X77.7625 Y24.775 Z0 F80.00 
G01 X42.4375 Y24.775 Z255 F20.00 
G01 X42.4 Y24.775 Z0 F80.00 
G00 X42.4 Y24.85 Z0 F80.00 
G01 X42.3625 Y24.85 Z0 F80.00 
G01 X77.8375 Y24.85 Z255 F20.00 
G01 X77.875 Y24.85 Z0 F80.00 
G00 X77.875 Y24.925 Z0 F80.00 
G01 X77.8375 Y24.925 Z0 F80.00 
G01 X42.2875 Y24.925 Z255 F20.00 
G01 X42.25 Y24.925 Z0 F80.00 
G00 X42.25 Y25.0 Z0 F80.00 
G01 X42.2125 Y25.0 Z0 F80.00 
G01 X77.9125 Y25.0 Z255 F20.00 
G01 X77.95 Y25.0 Z0 F80.00 
G00 X77.95 Y25.075 Z0 F80.00 
G01 X77.9875 Y25.075 Z0 F80.00 
G01 X42.1375 Y25.075 Z255 F20.00 
G01 X42.1 Y25.075 Z0 F80.00 
G00 X42.1 Y25.15 Z0 F80.00 
G01 X42.0625 Y25.15 Z0 F80.00 
G01 X78.0625 Y25.15 Z255 F20.00 
G01 X78.1 Y25.15 Z0 F80.00 
G00 X78.1 Y25.225 Z0 F80.00 
G01 X78.0625 Y25.225 Z0 F80.00 
G01 X41.9875 Y25.225 Z255 F20.00 
G01 X41.95 Y25.225 Z0 F80.00 
G00 X41.95 Y25.3 Z0 F80.00 
G01 X41.9125 Y25.3 Z0 F80.00 
G01 X78.1375 Y25.3 Z255 F20.00 
G01 X78.175 Y25.3 Z0 F80.00 
G00 X78.175 Y25.375 Z0 F80.00 
G01 X78.2125 Y25.375 Z0 F80.00 
G01 X41.8375 Y25.375 Z255 F20.00 
G01 X41.8 Y25.375 Z0 F80.00 
G00 X41.8 Y25.45 Z0 F80.00 
G01 X41.7625 Y25.45 Z0 F80.00 
G01 X78.2125 Y25.45 Z255 F20.00 
G01 X78.25 Y25.45 Z0 F80.00 
G00 X78.25 Y25.525 Z0 F80.00 
G01 X78.2875 Y25.525 Z0 F80.00 
G01 X41.6875 Y25.525 Z255 F20.00 
G01 X41.65 Y25.525 Z0 F80.00 
G00 X41.65 Y25.6 Z0 F80.00 
G01 X41.6125 Y25.6 Z0 F80.00 
G01 X78.3625 Y25.6 Z255 F20.00 
G01 X78.4 Y25.6 Z0 F80.00 
G00 X78.4 Y25.675 Z0 F80.00 
G01 X78.3625 Y25.675 Z0 F80.00 
G01 X41.5375 Y25.675 Z255 F20.00 
G01 X41.5 Y25.675 Z0 F80.00 
G00 X41.5 Y25.75 Z0 F80.00 
G01 X41.4625 Y25.75 Z0 F80.00 
G01 X78.4375 Y25.75 Z255 F20.00 
G01 X78.475 Y25.75 Z0 F80.00 
G00 X78.475 Y25.825 Z0 F80.00 
G01 X78.5125 Y25.825 Z0 F80.00 
G01 X41.3875 Y25.825 Z255 F20.00 
G01 X41.35 Y25.825 Z0 F80.00 
G00 X41.35 Y25.9 Z0 F80.00 
G01 X41.3125 Y25.9 Z0 F80.00 
G01 X78.5125 Y25.9 Z255 F20.00 
G01 X78.55 Y25.9 Z0 F80.00 
G00 X78.55 Y25.975 Z0 F80.00 
G01 X78.5875 Y25.975 Z0 F80.00 
G01 X41.2375 Y25.975 Z255 F20.00 
G01 X41.2 Y25.975 Z0 F80.00 
G00 X41.2 Y26.05 Z0 F80.00 
G01 X41.1625 Y26.05 Z0 F80.00 
G01 X78.6625 Y26.05 Z255 F20.00 
G01 X78.7 Y26.05 Z0 F80.00 
G00 X78.7 Y26.125 Z0 F80.00 
G01 X78.6625 Y26.125 Z0 F80.00 
G01 X41.0875 Y26.125 Z255 F20.00 
G01 X41.05 Y26.125 Z0 F80.00 
G00 X41.05 Y26.2 Z0 F80.00 
G01 X41.0125 Y26.2 Z0 F80.00 
G01 X78.7375 Y26.2 Z255 F20.00 
G01 X78.775 Y26.2 Z0 F80.00 
G00 X78.775 Y26.275 Z0 F80.00 
G01 X78.8125 Y26.275 Z0 F80.00 
G01 X40.9375 Y26.275 Z255 F20.00 
G01 X40.9 Y26.275 Z0 F80.00 
G00 X40.9 Y26.35 Z0 F80.00 
G01 X40.8625 Y26.35 Z0 F80.00 
G01 X78.8125 Y26.35 Z255 F20.00 
G01 X78.85 Y26.35 Z0 F80.00 
G00 X78.85 Y26.425 Z0 F80.00 
G01 X78.8875 Y26.425 Z0 F80.00 
G01 X40.7875 Y26.425 Z255 F20.00 
G01 X40.75 Y26.425 Z0 F80.00 
G00 X40.75 Y26.5 Z0 F80.00 
G01 X40.7125 Y26.5 Z0 F80.00 
G01 X78.8875 Y26.5 Z255 F20.00 
G01 X78.925 Y26.5 Z0 F80.00 
G00 X78.925 Y26.575 Z0 F80.00 
G01 X78.9625 Y26.575 Z0 F80.00 
G01 X40.6375 Y26.575 Z255 F20.00 
G01 X40.6 Y26.575 Z0 F80.00 
G00 X40.6 Y26.65 Z0 F80.00 
G01 X40.5625 Y26.65 Z0 F80.00 
G01 X79.0375 Y26.65 Z255 F20.00 
G01 X79.075 Y26.65 Z0 F80.00 
G00 X79.075 Y26.725 Z0 F80.00 
G01 X79.0375 Y26.725 Z0 F80.00 
G01 X40.5625 Y26.725 Z255 F20.00 
G01 X40.525 Y26.725 Z0 F80.00 
G00 X40.525 Y26.8 Z0 F80.00 
G01 X40.4875 Y26.8 Z0 F80.00 
G01 X79.1125 Y26.8 Z255 F20.00 
G01 X79.15 Y26.8 Z0 F80.00 
G00 X79.15 Y26.875 Z0 F80.00 
G01 X79.1125 Y26.875 Z0 F80.00 
G01 X40.4125 Y26.875 Z255 F20.00 
G01 X40.375 Y26.875 Z0 F80.00 
G00 X40.375 Y26.95 Z0 F80.00 
G01 X40.3375 Y26.95 Z0 F80.00 
G01 X79.1875 Y26.95 Z255 F20.00 
G01 X79.225 Y26.95 Z0 F80.00 
G00 X79.225 Y27.025 Z0 F80.00 
G01 X79.2625 Y27.025 Z0 F80.00 
G01 X40.2625 Y27.025 Z255 F20.00 
G01 X40.225 Y27.025 Z0 F80.00 
G00 X40.225 Y27.1 Z0 F80.00 
G01 X40.1875 Y27.1 Z0 F80.00 
G01 X79.2625 Y27.1 Z255 F20.00 
G01 X79.3 Y27.1 Z0 F80.00 
G00 X79.3 Y27.175 Z0 F80.00 
G01 X79.3375 Y27.175 Z0 F80.00 
G01 X40.1125 Y27.175 Z255 F20.00 
G01 X40.075 Y27.175 Z0 F80.00 
G00 X40.075 Y27.25 Z0 F80.00 
G01 X40.0375 Y27.25 Z0 F80.00 
G01 X79.3375 Y27.25 Z255 F20.00 
G01 X79.375 Y27.25 Z0 F80.00 
G00 X79.375 Y27.325 Z0 F80.00 
G01 X79.4125 Y27.325 Z0 F80.00 
G01 X39.9625 Y27.325 Z255 F20.00 
G01 X39.925 Y27.325 Z0 F80.00 
G00 X39.925 Y27.4 Z0 F80.00 
G01 X39.8875 Y27.4 Z0 F80.00 
G01 X79.4875 Y27.4 Z255 F20.00 
G01 X79.525 Y27.4 Z0 F80.00 
G00 X79.525 Y27.475 Z0 F80.00 
G01 X79.4875 Y27.475 Z0 F80.00 
G01 X39.8125 Y27.475 Z255 F20.00 
G01 X39.775 Y27.475 Z0 F80.00 
G00 X39.775 Y27.55 Z0 F80.00 
G01 X39.7375 Y27.55 Z0 F80.00 
G01 X79.5625 Y27.55 Z255 F20.00 
G01 X79.6 Y27.55 Z0 F80.00 
G00 X79.6 Y27.625 Z0 F80.00 
G01 X79.5625 Y27.625 Z0 F80.00 
G01 X39.6625 Y27.625 Z255 F20.00 
G01 X39.625 Y27.625 Z0 F80.00 
G00 X39.625 Y27.7 Z0 F80.00 
G01 X39.5125 Y27.7 Z0 F80.00 
G01 X79.6375 Y27.7 Z255 F20.00 
G01 X79.675 Y27.7 Z0 F80.00 
G00 X79.675 Y27.775 Z0 F80.00 
G01 X79.7125 Y27.775 Z0 F80.00 
G01 X39.4375 Y27.775 Z255 F20.00 
G01 X39.4 Y27.775 Z0 F80.00 
G00 X39.4 Y27.85 Z0 F80.00 
G01 X39.3625 Y27.85 Z0 F80.00 
G01 X77.3875 Y27.85 Z255 F20.00 
G01 X77.4625 Y27.85 Z0 F80.00 
G01 X79.7125 Y27.85 Z255 F20.00 
G01 X79.75 Y27.85 Z0 F80.00 
G00 X79.75 Y27.925 Z0 F80.00 
G01 X79.7875 Y27.925 Z0 F80.00 
G01 X77.6125 Y27.925 Z255 F20.00 
G01 X77.3875 Y27.925 Z0 F80.00 
G01 X39.2875 Y27.925 Z255 F20.00 
G01 X39.25 Y27.925 Z0 F80.00 
G00 X39.25 Y28.0 Z0 F80.00 
G01 X39.2125 Y28.0 Z0 F80.00 
G01 X77.3875 Y28.0 Z255 F20.00 
G01 X77.6125 Y28.0 Z0 F80.00 
G01 X79.8625 Y28.0 Z255 F20.00 
G01 X79.9 Y28.0 Z0 F80.00 
G00 X79.9 Y28.075 Z0 F80.00 
G01 X79.9375 Y28.075 Z0 F80.00 
G01 X77.6125 Y28.075 Z255 F20.00 
G01 X77.3875 Y28.075 Z0 F80.00 
G01 X39.1375 Y28.075 Z255 F20.00 
G01 X39.1 Y28.075 Z0 F80.00 
G00 X39.1 Y28.15 Z0 F80.00 
G01 X38.9875 Y28.15 Z0 F80.00 
G01 X77.3875 Y28.15 Z255 F20.00 
G01 X77.6125 Y28.15 Z0 F80.00 
G01 X80.0125 Y28.15 Z255 F20.00 
G01 X80.65 Y28.15 Z0 F80.00 
G00 X80.65 Y28.225 Z0 F80.00 
G01 X80.0125 Y28.225 Z0 F80.00 
G01 X77.6125 Y28.225 Z255 F20.00 
G01 X77.3875 Y28.225 Z0 F80.00 
G01 X38.9125 Y28.225 Z255 F20.00 
G01 X38.875 Y28.225 Z0 F80.00 
G00 X38.875 Y28.3 Z0 F80.00 
G01 X38.8375 Y28.3 Z0 F80.00 
G01 X77.3875 Y28.3 Z255 F20.00 
G01 X77.6125 Y28.3 Z0 F80.00 
G01 X80.0875 Y28.3 Z255 F20.00 
G01 X80.6125 Y28.3 Z0 F80.00 
G01 X80.6875 Y28.3 Z255 F20.00 
G01 X80.725 Y28.3 Z0 F80.00 
G00 X80.725 Y28.375 Z0 F80.00 
G01 X80.1625 Y28.375 Z0 F80.00 
G01 X77.6875 Y28.375 Z255 F20.00 
G01 X77.3875 Y28.375 Z0 F80.00 
G01 X38.7625 Y28.375 Z255 F20.00 
G01 X38.725 Y28.375 Z0 F80.00 
G00 X38.725 Y28.45 Z0 F80.00 
G01 X38.6125 Y28.45 Z0 F80.00 
G01 X77.3875 Y28.45 Z255 F20.00 
G01 X77.6875 Y28.45 Z0 F80.00 
G01 X80.1625 Y28.45 Z255 F20.00 
G01 X80.6875 Y28.45 Z0 F80.00 
G01 X80.7625 Y28.45 Z255 F20.00 
G01 X80.8 Y28.45 Z0 F80.00 
G00 X80.8 Y28.525 Z0 F80.00 
G01 X80.2375 Y28.525 Z0 F80.00 
G01 X77.6875 Y28.525 Z255 F20.00 
G01 X77.3875 Y28.525 Z0 F80.00 
G01 X38.5375 Y28.525 Z255 F20.00 
G01 X38.5 Y28.525 Z0 F80.00 
G00 X38.5 Y28.6 Z0 F80.00 
G01 X38.4625 Y28.6 Z0 F80.00 
G01 X77.3125 Y28.6 Z255 F20.00 
G01 X77.6875 Y28.6 Z0 F80.00 
G01 X80.2375 Y28.6 Z255 F20.00 
G01 X80.8 Y28.6 Z0 F80.00 
G00 X80.8 Y28.675 Z0 F80.00 
G01 X80.3125 Y28.675 Z0 F80.00 
G01 X77.6875 Y28.675 Z255 F20.00 
G01 X77.3125 Y28.675 Z0 F80.00 
G01 X38.3125 Y28.675 Z255 F20.00 
G01 X38.275 Y28.675 Z0 F80.00 
G00 X38.275 Y28.75 Z0 F80.00 
G01 X38.2375 Y28.75 Z0 F80.00 
G01 X77.3125 Y28.75 Z255 F20.00 
G01 X77.6875 Y28.75 Z0 F80.00 
G01 X80.2375 Y28.75 Z255 F20.00 
G01 X80.275 Y28.75 Z0 F80.00 
G00 X80.275 Y28.825 Z0 F80.00 
G01 X80.2375 Y28.825 Z0 F80.00 
G01 X77.6875 Y28.825 Z255 F20.00 
G01 X77.3125 Y28.825 Z0 F80.00 
G01 X38.0875 Y28.825 Z255 F20.00 
G01 X38.05 Y28.825 Z0 F80.00 
G00 X38.05 Y28.9 Z0 F80.00 
G01 X38.0125 Y28.9 Z0 F80.00 
G01 X77.3125 Y28.9 Z255 F20.00 
G01 X77.6875 Y28.9 Z0 F80.00 
G01 X80.3125 Y28.9 Z255 F20.00 
G01 X80.35 Y28.9 Z0 F80.00 
G00 X80.35 Y28.975 Z0 F80.00 
G01 X80.3125 Y28.975 Z0 F80.00 
G01 X77.6875 Y28.975 Z255 F20.00 
G01 X77.3125 Y28.975 Z0 F80.00 
G01 X37.9375 Y28.975 Z255 F20.00 
G01 X37.9 Y28.975 Z0 F80.00 
G00 X37.9 Y29.05 Z0 F80.00 
G01 X37.7875 Y29.05 Z0 F80.00 
G01 X77.2375 Y29.05 Z255 F20.00 
G01 X77.6875 Y29.05 Z0 F80.00 
G01 X80.3125 Y29.05 Z255 F20.00 
G01 X80.35 Y29.05 Z0 F80.00 
G00 X80.35 Y29.125 Z0 F80.00 
G01 X80.3125 Y29.125 Z0 F80.00 
G01 X77.6125 Y29.125 Z255 F20.00 
G01 X77.2375 Y29.125 Z0 F80.00 
G01 X37.7125 Y29.125 Z255 F20.00 
G01 X37.675 Y29.125 Z0 F80.00 
G00 X37.675 Y29.2 Z0 F80.00 
G01 X37.6375 Y29.2 Z0 F80.00 
G01 X77.2375 Y29.2 Z255 F20.00 
G01 X77.6125 Y29.2 Z0 F80.00 
G01 X80.3125 Y29.2 Z255 F20.00 
G01 X80.35 Y29.2 Z0 F80.00 
G00 X80.35 Y29.275 Z0 F80.00 
G01 X80.3125 Y29.275 Z0 F80.00 
G01 X77.6125 Y29.275 Z255 F20.00 
G01 X77.2375 Y29.275 Z0 F80.00 
G01 X37.4875 Y29.275 Z255 F20.00 
G01 X37.45 Y29.275 Z0 F80.00 
G00 X37.45 Y29.35 Z0 F80.00 
G01 X37.4125 Y29.35 Z0 F80.00 
G01 X77.2375 Y29.35 Z255 F20.00 
G01 X77.6125 Y29.35 Z0 F80.00 
G01 X80.3875 Y29.35 Z255 F20.00 
G01 X80.425 Y29.35 Z0 F80.00 
G00 X80.425 Y29.425 Z0 F80.00 
G01 X80.3875 Y29.425 Z0 F80.00 
G01 X77.6125 Y29.425 Z255 F20.00 
G01 X77.1625 Y29.425 Z0 F80.00 
G01 X37.2625 Y29.425 Z255 F20.00 
G01 X37.225 Y29.425 Z0 F80.00 
G00 X37.225 Y29.5 Z0 F80.00 
G01 X37.1875 Y29.5 Z0 F80.00 
G01 X77.1625 Y29.5 Z255 F20.00 
G01 X77.5375 Y29.5 Z0 F80.00 
G01 X80.3875 Y29.5 Z255 F20.00 
G01 X80.425 Y29.5 Z0 F80.00 
G00 X80.425 Y29.575 Z0 F80.00 
G01 X80.3875 Y29.575 Z0 F80.00 
G01 X77.5375 Y29.575 Z255 F20.00 
G01 X77.1625 Y29.575 Z0 F80.00 
G01 X37.1125 Y29.575 Z255 F20.00 
G01 X37.075 Y29.575 Z0 F80.00 
G00 X37.075 Y29.65 Z0 F80.00 
G01 X36.9625 Y29.65 Z0 F80.00 
G01 X77.1625 Y29.65 Z255 F20.00 
G01 X77.5375 Y29.65 Z0 F80.00 
G01 X80.3875 Y29.65 Z255 F20.00 
G01 X80.425 Y29.65 Z0 F80.00 
G00 X80.425 Y29.725 Z0 F80.00 
G01 X80.3875 Y29.725 Z0 F80.00 
G01 X77.5375 Y29.725 Z255 F20.00 
G01 X77.0875 Y29.725 Z0 F80.00 
G01 X36.8875 Y29.725 Z255 F20.00 
G01 X36.85 Y29.725 Z0 F80.00 
G00 X36.85 Y29.8 Z0 F80.00 
G01 X36.7375 Y29.8 Z0 F80.00 
G01 X77.0875 Y29.8 Z255 F20.00 
G01 X77.4625 Y29.8 Z0 F80.00 
G01 X80.3875 Y29.8 Z255 F20.00 
G01 X80.425 Y29.8 Z0 F80.00 
G00 X80.425 Y29.875 Z0 F80.00 
G01 X80.3875 Y29.875 Z0 F80.00 
G01 X77.4625 Y29.875 Z255 F20.00 
G01 X77.0875 Y29.875 Z0 F80.00 
G01 X36.6625 Y29.875 Z255 F20.00 
G01 X36.625 Y29.875 Z0 F80.00 
G00 X36.625 Y29.95 Z0 F80.00 
G01 X36.5125 Y29.95 Z0 F80.00 
G01 X77.0125 Y29.95 Z255 F20.00 
G01 X77.4625 Y29.95 Z0 F80.00 
G01 X80.3875 Y29.95 Z255 F20.00 
G01 X80.425 Y29.95 Z0 F80.00 
G00 X80.425 Y30.025 Z0 F80.00 
G01 X80.3875 Y30.025 Z0 F80.00 
G01 X77.3875 Y30.025 Z255 F20.00 
G01 X77.0125 Y30.025 Z0 F80.00 
G01 X36.4375 Y30.025 Z255 F20.00 
G01 X36.4 Y30.025 Z0 F80.00 
G00 X36.4 Y30.1 Z0 F80.00 
G01 X36.2875 Y30.1 Z0 F80.00 
G01 X77.0125 Y30.1 Z255 F20.00 
G01 X77.3875 Y30.1 Z0 F80.00 
G01 X80.3875 Y30.1 Z255 F20.00 
G01 X80.425 Y30.1 Z0 F80.00 
G00 X80.425 Y30.175 Z0 F80.00 
G01 X80.4625 Y30.175 Z0 F80.00 
G01 X77.3875 Y30.175 Z255 F20.00 
G01 X76.9375 Y30.175 Z0 F80.00 
G01 X36.2125 Y30.175 Z255 F20.00 
G01 X36.175 Y30.175 Z0 F80.00 
G00 X36.175 Y30.25 Z0 F80.00 
G01 X36.0625 Y30.25 Z0 F80.00 
G01 X76.9375 Y30.25 Z255 F20.00 
G01 X77.3125 Y30.25 Z0 F80.00 
G01 X80.4625 Y30.25 Z255 F20.00 
G01 X80.5 Y30.25 Z0 F80.00 
G00 X80.5 Y30.325 Z0 F80.00 
G01 X80.4625 Y30.325 Z0 F80.00 
G01 X77.3125 Y30.325 Z255 F20.00 
G01 X76.8625 Y30.325 Z0 F80.00 
G01 X35.9125 Y30.325 Z255 F20.00 
G01 X35.875 Y30.325 Z0 F80.00 
G00 X35.875 Y30.4 Z0 F80.00 
G01 X35.8375 Y30.4 Z0 F80.00 
G01 X41.0875 Y30.4 Z255 F20.00 
G01 X41.2375 Y30.4 Z0 F80.00 
G01 X76.8625 Y30.4 Z255 F20.00 
G01 X77.3125 Y30.4 Z0 F80.00 
G01 X80.4625 Y30.4 Z255 F20.00 
G01 X80.5 Y30.4 Z0 F80.00 
G00 X80.5 Y30.475 Z0 F80.00 
G01 X80.5375 Y30.475 Z0 F80.00 
G01 X77.2375 Y30.475 Z255 F20.00 
G01 X76.7875 Y30.475 Z0 F80.00 
G01 X41.1625 Y30.475 Z255 F20.00 
G01 X40.5625 Y30.475 Z0 F80.00 
G01 X35.6875 Y30.475 Z255 F20.00 
G01 X35.65 Y30.475 Z0 F80.00 
G00 X35.65 Y30.55 Z0 F80.00 
G01 X35.6125 Y30.55 Z0 F80.00 
G01 X39.8875 Y30.55 Z255 F20.00 
G01 X41.0875 Y30.55 Z0 F80.00 
G01 X76.7875 Y30.55 Z255 F20.00 
G01 X77.2375 Y30.55 Z0 F80.00 
G01 X80.4625 Y30.55 Z255 F20.00 
G01 X80.5 Y30.55 Z0 F80.00 
G00 X80.5 Y30.625 Z0 F80.00 
G01 X80.4625 Y30.625 Z0 F80.00 
G01 X77.1625 Y30.625 Z255 F20.00 
G01 X76.7875 Y30.625 Z0 F80.00 
G01 X41.0875 Y30.625 Z255 F20.00 
G01 X39.2125 Y30.625 Z0 F80.00 
G01 X35.4625 Y30.625 Z255 F20.00 
G01 X35.425 Y30.625 Z0 F80.00 
G00 X35.425 Y30.7 Z0 F80.00 
G01 X35.3125 Y30.7 Z0 F80.00 
G01 X38.7625 Y30.7 Z255 F20.00 
G01 X41.0125 Y30.7 Z0 F80.00 
G01 X76.7125 Y30.7 Z255 F20.00 
G01 X77.1625 Y30.7 Z0 F80.00 
G01 X80.4625 Y30.7 Z255 F20.00 
G01 X80.5 Y30.7 Z0 F80.00 
G00 X80.5 Y30.775 Z0 F80.00 
G01 X80.4625 Y30.775 Z0 F80.00 
G01 X77.1625 Y30.775 Z255 F20.00 
G01 X76.7125 Y30.775 Z0 F80.00 
G01 X40.9375 Y30.775 Z255 F20.00 
G01 X38.2375 Y30.775 Z0 F80.00 
G01 X35.2375 Y30.775 Z255 F20.00 
G01 X35.2 Y30.775 Z0 F80.00 
G00 X35.2 Y30.85 Z0 F80.00 
G01 X35.0125 Y30.85 Z0 F80.00 
G01 X37.7125 Y30.85 Z255 F20.00 
G01 X40.9375 Y30.85 Z0 F80.00 
G01 X76.6375 Y30.85 Z255 F20.00 
G01 X77.0875 Y30.85 Z0 F80.00 
G01 X80.4625 Y30.85 Z255 F20.00 
G01 X80.5 Y30.85 Z0 F80.00 
G00 X80.5 Y30.925 Z0 F80.00 
G01 X80.4625 Y30.925 Z0 F80.00 
G01 X77.0875 Y30.925 Z255 F20.00 
G01 X76.6375 Y30.925 Z0 F80.00 
G01 X40.8625 Y30.925 Z255 F20.00 
G01 X37.1125 Y30.925 Z0 F80.00 
G01 X34.3375 Y30.925 Z255 F20.00 
G01 X34.3 Y30.925 Z0 F80.00 
G00 X34.3 Y31.0 Z0 F80.00 
G01 X34.1875 Y31.0 Z0 F80.00 
G01 X36.4375 Y31.0 Z255 F20.00 
G01 X40.7875 Y31.0 Z0 F80.00 
G01 X76.5625 Y31.0 Z255 F20.00 
G01 X77.0125 Y31.0 Z0 F80.00 
G01 X80.3875 Y31.0 Z255 F20.00 
G01 X80.425 Y31.0 Z0 F80.00 
G00 X80.425 Y31.075 Z0 F80.00 
G01 X80.3875 Y31.075 Z0 F80.00 
G01 X77.0125 Y31.075 Z255 F20.00 
G01 X76.5625 Y31.075 Z0 F80.00 
G01 X40.7125 Y31.075 Z255 F20.00 
G01 X35.6125 Y31.075 Z0 F80.00 
G01 X34.2625 Y31.075 Z255 F20.00 
G01 X34.225 Y31.075 Z0 F80.00 
G00 X34.225 Y31.15 Z0 F80.00 
G01 X40.7125 Y31.15 Z0 F80.00 
G01 X76.4875 Y31.15 Z255 F20.00 
G01 X76.9375 Y31.15 Z0 F80.00 
G01 X80.3875 Y31.15 Z255 F20.00 
G01 X80.425 Y31.15 Z0 F80.00 
G00 X80.425 Y31.225 Z0 F80.00 
G01 X80.3875 Y31.225 Z0 F80.00 
G01 X76.9375 Y31.225 Z255 F20.00 
G01 X76.4875 Y31.225 Z0 F80.00 
G01 X40.6375 Y31.225 Z255 F20.00 
G01 X40.6 Y31.225 Z0 F80.00 
G00 X40.6 Y31.3 Z0 F80.00 
G01 X40.5625 Y31.3 Z0 F80.00 
G01 X76.4125 Y31.3 Z255 F20.00 
G01 X76.8625 Y31.3 Z0 F80.00 
G01 X80.3875 Y31.3 Z255 F20.00 
G01 X80.425 Y31.3 Z0 F80.00 
G00 X80.425 Y31.375 Z0 F80.00 
G01 X80.3875 Y31.375 Z0 F80.00 
G01 X76.8625 Y31.375 Z255 F20.00 
G01 X76.3375 Y31.375 Z0 F80.00 
G01 X40.5625 Y31.375 Z255 F20.00 
G01 X40.525 Y31.375 Z0 F80.00 
G00 X40.525 Y31.45 Z0 F80.00 
G01 X40.4875 Y31.45 Z0 F80.00 
G01 X76.3375 Y31.45 Z255 F20.00 
G01 X76.7875 Y31.45 Z0 F80.00 
G01 X80.3875 Y31.45 Z255 F20.00 
G01 X80.425 Y31.45 Z0 F80.00 
G00 X80.425 Y31.525 Z0 F80.00 
G01 X80.3875 Y31.525 Z0 F80.00 
G01 X76.7875 Y31.525 Z255 F20.00 
G01 X76.2625 Y31.525 Z0 F80.00 
G01 X40.4125 Y31.525 Z255 F20.00 
G01 X40.375 Y31.525 Z0 F80.00 
G00 X40.375 Y31.6 Z0 F80.00 
G01 X40.4125 Y31.6 Z0 F80.00 
G01 X76.2625 Y31.6 Z255 F20.00 
G01 X76.7125 Y31.6 Z0 F80.00 
G01 X80.3875 Y31.6 Z255 F20.00 
G01 X80.425 Y31.6 Z0 F80.00 
G00 X80.425 Y31.675 Z0 F80.00 
G01 X80.3875 Y31.675 Z0 F80.00 
G01 X76.7125 Y31.675 Z255 F20.00 
G01 X76.1875 Y31.675 Z0 F80.00 
G01 X40.3375 Y31.675 Z255 F20.00 
G01 X40.3 Y31.675 Z0 F80.00 
G00 X40.3 Y31.75 Z0 F80.00 
G01 X40.2625 Y31.75 Z0 F80.00 
G01 X76.1875 Y31.75 Z255 F20.00 
G01 X76.6375 Y31.75 Z0 F80.00 
G01 X80.3875 Y31.75 Z255 F20.00 
G01 X80.425 Y31.75 Z0 F80.00 
G00 X80.425 Y31.825 Z0 F80.00 
G01 X80.3875 Y31.825 Z0 F80.00 
G01 X76.5625 Y31.825 Z255 F20.00 
G01 X76.1125 Y31.825 Z0 F80.00 
G01 X40.2625 Y31.825 Z255 F20.00 
G01 X40.225 Y31.825 Z0 F80.00 
G00 X40.225 Y31.9 Z0 F80.00 
G01 X40.1875 Y31.9 Z0 F80.00 
G01 X76.0375 Y31.9 Z255 F20.00 
G01 X76.5625 Y31.9 Z0 F80.00 
G01 X80.3875 Y31.9 Z255 F20.00 
G01 X80.425 Y31.9 Z0 F80.00 
G00 X80.425 Y31.975 Z0 F80.00 
G01 X80.3125 Y31.975 Z0 F80.00 
G01 X76.4875 Y31.975 Z255 F20.00 
G01 X76.0375 Y31.975 Z0 F80.00 
G01 X40.1875 Y31.975 Z255 F20.00 
G01 X40.15 Y31.975 Z0 F80.00 
G00 X40.15 Y32.05 Z0 F80.00 
G01 X40.1125 Y32.05 Z0 F80.00 
G01 X74.9125 Y32.05 Z255 F20.00 
G01 X74.9875 Y32.05 Z0 F80.00 
G01 X75.9625 Y32.05 Z255 F20.00 
G01 X76.4875 Y32.05 Z0 F80.00 
G01 X80.3125 Y32.05 Z255 F20.00 
G01 X80.35 Y32.05 Z0 F80.00 
G00 X80.35 Y32.125 Z0 F80.00 
G01 X80.3125 Y32.125 Z0 F80.00 
G01 X76.4125 Y32.125 Z255 F20.00 
G01 X75.9625 Y32.125 Z0 F80.00 
G01 X74.9125 Y32.125 Z255 F20.00 
G01 X74.8375 Y32.125 Z0 F80.00 
G01 X40.0375 Y32.125 Z255 F20.00 
G01 X40.0 Y32.125 Z0 F80.00 
G00 X40.0 Y32.2 Z0 F80.00 
G01 X40.0375 Y32.2 Z0 F80.00 
G01 X74.7625 Y32.2 Z255 F20.00 
G01 X74.9875 Y32.2 Z0 F80.00 
G01 X75.8875 Y32.2 Z255 F20.00 
G01 X76.3375 Y32.2 Z0 F80.00 
G01 X80.3125 Y32.2 Z255 F20.00 
G01 X80.35 Y32.2 Z0 F80.00 
G00 X80.35 Y32.275 Z0 F80.00 
G01 X80.3125 Y32.275 Z0 F80.00 
G01 X76.3375 Y32.275 Z255 F20.00 
G01 X75.8125 Y32.275 Z0 F80.00 
G01 X74.9875 Y32.275 Z255 F20.00 
G01 X74.6875 Y32.275 Z0 F80.00 
G01 X39.9625 Y32.275 Z255 F20.00 
G01 X39.925 Y32.275 Z0 F80.00 
G00 X39.925 Y32.35 Z0 F80.00 
G01 X39.8875 Y32.35 Z0 F80.00 
G01 X74.6125 Y32.35 Z255 F20.00 
G01 X74.9125 Y32.35 Z0 F80.00 
G01 X75.8125 Y32.35 Z255 F20.00 
G01 X76.2625 Y32.35 Z0 F80.00 
G01 X80.3125 Y32.35 Z255 F20.00 
G01 X80.35 Y32.35 Z0 F80.00 
G00 X80.35 Y32.425 Z0 F80.00 
G01 X80.3125 Y32.425 Z0 F80.00 
G01 X76.1875 Y32.425 Z255 F20.00 
G01 X75.7375 Y32.425 Z0 F80.00 
G01 X74.8375 Y32.425 Z255 F20.00 
G01 X74.5375 Y32.425 Z0 F80.00 
G01 X39.8875 Y32.425 Z255 F20.00 
G01 X39.85 Y32.425 Z0 F80.00 
G00 X39.85 Y32.5 Z0 F80.00 
G01 X39.8125 Y32.5 Z0 F80.00 
G01 X74.4625 Y32.5 Z255 F20.00 
G01 X74.7625 Y32.5 Z0 F80.00 
G01 X75.6625 Y32.5 Z255 F20.00 
G01 X76.1875 Y32.5 Z0 F80.00 
G01 X80.3125 Y32.5 Z255 F20.00 
G01 X80.35 Y32.5 Z0 F80.00 
G00 X80.35 Y32.575 Z0 F80.00 
G01 X80.3125 Y32.575 Z0 F80.00 
G01 X76.1125 Y32.575 Z255 F20.00 
G01 X75.6625 Y32.575 Z0 F80.00 
G01 X74.6875 Y32.575 Z255 F20.00 
G01 X74.3125 Y32.575 Z0 F80.00 
G01 X39.8125 Y32.575 Z255 F20.00 
G01 X39.775 Y32.575 Z0 F80.00 
G00 X39.775 Y32.65 Z0 F80.00 
G01 X39.7375 Y32.65 Z0 F80.00 
G01 X74.2375 Y32.65 Z255 F20.00 
G01 X74.6125 Y32.65 Z0 F80.00 
G01 X75.5875 Y32.65 Z255 F20.00 
G01 X76.0375 Y32.65 Z0 F80.00 
G01 X80.3125 Y32.65 Z255 F20.00 
G01 X80.35 Y32.65 Z0 F80.00 
G00 X80.35 Y32.725 Z0 F80.00 
G01 X80.3125 Y32.725 Z0 F80.00 
G01 X75.9625 Y32.725 Z255 F20.00 
G01 X75.5125 Y32.725 Z0 F80.00 
G01 X74.5375 Y32.725 Z255 F20.00 
G01 X74.1625 Y32.725 Z0 F80.00 
G01 X39.6625 Y32.725 Z255 F20.00 
G01 X39.625 Y32.725 Z0 F80.00 
G00 X39.625 Y32.8 Z0 F80.00 
G01 X39.6625 Y32.8 Z0 F80.00 
G01 X74.0875 Y32.8 Z255 F20.00 
G01 X74.4625 Y32.8 Z0 F80.00 
G01 X75.5125 Y32.8 Z255 F20.00 
G01 X75.9625 Y32.8 Z0 F80.00 
G01 X80.3125 Y32.8 Z255 F20.00 
G01 X80.35 Y32.8 Z0 F80.00 
G00 X80.35 Y32.875 Z0 F80.00 
G01 X80.3125 Y32.875 Z0 F80.00 
G01 X75.8875 Y32.875 Z255 F20.00 
G01 X75.4375 Y32.875 Z0 F80.00 
G01 X74.3875 Y32.875 Z255 F20.00 
G01 X74.0125 Y32.875 Z0 F80.00 
G01 X39.5875 Y32.875 Z255 F20.00 
G01 X39.55 Y32.875 Z0 F80.00 
G00 X39.55 Y32.95 Z0 F80.00 
G01 X39.5875 Y32.95 Z0 F80.00 
G01 X73.8625 Y32.95 Z255 F20.00 
G01 X74.3125 Y32.95 Z0 F80.00 
G01 X75.3625 Y32.95 Z255 F20.00 
G01 X75.8125 Y32.95 Z0 F80.00 
G01 X80.3125 Y32.95 Z255 F20.00 
G01 X80.35 Y32.95 Z0 F80.00 
G00 X80.35 Y33.025 Z0 F80.00 
G01 X80.3125 Y33.025 Z0 F80.00 
G01 X75.8125 Y33.025 Z255 F20.00 
G01 X75.2875 Y33.025 Z0 F80.00 
G01 X74.2375 Y33.025 Z255 F20.00 
G01 X73.7875 Y33.025 Z0 F80.00 
G01 X39.5125 Y33.025 Z255 F20.00 
G01 X39.475 Y33.025 Z0 F80.00 
G00 X39.475 Y33.1 Z0 F80.00 
G01 X39.4375 Y33.1 Z0 F80.00 
G01 X73.7125 Y33.1 Z255 F20.00 
G01 X74.0875 Y33.1 Z0 F80.00 
G01 X75.2875 Y33.1 Z255 F20.00 
G01 X75.7375 Y33.1 Z0 F80.00 
G01 X80.3125 Y33.1 Z255 F20.00 
G01 X80.35 Y33.1 Z0 F80.00 
G00 X80.35 Y33.175 Z0 F80.00 
G01 X80.3125 Y33.175 Z0 F80.00 
G01 X75.7375 Y33.175 Z255 F20.00 
G01 X75.2875 Y33.175 Z0 F80.00 
G01 X74.0125 Y33.175 Z255 F20.00 
G01 X73.6375 Y33.175 Z0 F80.00 
G01 X39.4375 Y33.175 Z255 F20.00 
G01 X39.4 Y33.175 Z0 F80.00 
G00 X39.4 Y33.25 Z0 F80.00 
G01 X39.3625 Y33.25 Z0 F80.00 
G01 X73.5625 Y33.25 Z255 F20.00 
G01 X73.9375 Y33.25 Z0 F80.00 
G01 X75.2125 Y33.25 Z255 F20.00 
G01 X75.6625 Y33.25 Z0 F80.00 
G01 X80.3125 Y33.25 Z255 F20.00 
G01 X80.35 Y33.25 Z0 F80.00 
G00 X80.35 Y33.325 Z0 F80.00 
G01 X80.3125 Y33.325 Z0 F80.00 
G01 X75.6625 Y33.325 Z255 F20.00 
G01 X75.2125 Y33.325 Z0 F80.00 
G01 X73.8625 Y33.325 Z255 F20.00 
G01 X73.4125 Y33.325 Z0 F80.00 
G01 X64.7875 Y33.325 Z255 F20.00 
G01 X64.7125 Y33.325 Z0 F80.00 
G01 X39.3625 Y33.325 Z255 F20.00 
G01 X39.325 Y33.325 Z0 F80.00 
G00 X39.325 Y33.4 Z0 F80.00 
G01 X39.2875 Y33.4 Z0 F80.00 
G01 X64.5625 Y33.4 Z255 F20.00 
G01 X64.7875 Y33.4 Z0 F80.00 
G01 X73.3375 Y33.4 Z255 F20.00 
G01 X73.7875 Y33.4 Z0 F80.00 
G01 X75.1375 Y33.4 Z255 F20.00 
G01 X75.5875 Y33.4 Z0 F80.00 
G01 X80.3125 Y33.4 Z255 F20.00 
G01 X80.35 Y33.4 Z0 F80.00 
G00 X80.35 Y33.475 Z0 F80.00 
G01 X80.3125 Y33.475 Z0 F80.00 
G01 X75.5125 Y33.475 Z255 F20.00 
G01 X75.1375 Y33.475 Z0 F80.00 
G01 X73.7125 Y33.475 Z255 F20.00 
G01 X73.2625 Y33.475 Z0 F80.00 
G01 X64.7125 Y33.475 Z255 F20.00 
G01 X64.4875 Y33.475 Z0 F80.00 
G01 X39.2875 Y33.475 Z255 F20.00 
G01 X39.25 Y33.475 Z0 F80.00 
G00 X39.25 Y33.55 Z0 F80.00 
G01 X39.2125 Y33.55 Z0 F80.00 
G01 X64.5625 Y33.55 Z255 F20.00 
G01 X64.7125 Y33.55 Z0 F80.00 
G01 X73.1875 Y33.55 Z255 F20.00 
G01 X73.6375 Y33.55 Z0 F80.00 
G01 X75.0625 Y33.55 Z255 F20.00 
G01 X75.5125 Y33.55 Z0 F80.00 
G01 X80.3125 Y33.55 Z255 F20.00 
G01 X80.35 Y33.55 Z0 F80.00 
G00 X80.35 Y33.625 Z0 F80.00 
G01 X80.2375 Y33.625 Z0 F80.00 
G01 X75.4375 Y33.625 Z255 F20.00 
G01 X74.9875 Y33.625 Z0 F80.00 
G01 X73.4875 Y33.625 Z255 F20.00 
G01 X73.0375 Y33.625 Z0 F80.00 
G01 X39.1375 Y33.625 Z255 F20.00 
G01 X39.1 Y33.625 Z0 F80.00 
G00 X39.1 Y33.7 Z0 F80.00 
G01 X39.1375 Y33.7 Z0 F80.00 
G01 X64.0375 Y33.7 Z255 F20.00 
G01 X64.3375 Y33.7 Z0 F80.00 
G01 X72.9625 Y33.7 Z255 F20.00 
G01 X73.4125 Y33.7 Z0 F80.00 
G01 X74.9875 Y33.7 Z255 F20.00 
G01 X75.4375 Y33.7 Z0 F80.00 
G01 X80.2375 Y33.7 Z255 F20.00 
G01 X80.275 Y33.7 Z0 F80.00 
G00 X80.275 Y33.775 Z0 F80.00 
G01 X80.2375 Y33.775 Z0 F80.00 
G01 X75.3625 Y33.775 Z255 F20.00 
G01 X74.9125 Y33.775 Z0 F80.00 
G01 X74.8375 Y33.775 Z255 F20.00 
G01 X74.7625 Y33.775 Z0 F80.00 
G01 X73.3375 Y33.775 Z255 F20.00 
G01 X72.8875 Y33.775 Z0 F80.00 
G01 X64.4875 Y33.775 Z255 F20.00 
G01 X63.9625 Y33.775 Z0 F80.00 
G01 X39.0625 Y33.775 Z255 F20.00 
G01 X39.025 Y33.775 Z0 F80.00 
G00 X39.025 Y33.85 Z0 F80.00 
G01 X39.0625 Y33.85 Z0 F80.00 
G01 X63.8125 Y33.85 Z255 F20.00 
G01 X64.4875 Y33.85 Z0 F80.00 
G01 X72.8125 Y33.85 Z255 F20.00 
G01 X73.2625 Y33.85 Z0 F80.00 
G01 X74.6875 Y33.85 Z255 F20.00 
G01 X74.7625 Y33.85 Z0 F80.00 
G01 X74.8375 Y33.85 Z255 F20.00 
G01 X75.3625 Y33.85 Z0 F80.00 
G01 X80.2375 Y33.85 Z255 F20.00 
G01 X80.275 Y33.85 Z0 F80.00 
G00 X80.275 Y33.925 Z0 F80.00 
G01 X80.2375 Y33.925 Z0 F80.00 
G01 X75.2875 Y33.925 Z255 F20.00 
G01 X74.8375 Y33.925 Z0 F80.00 
G01 X74.6875 Y33.925 Z255 F20.00 
G01 X74.6125 Y33.925 Z0 F80.00 
G01 X73.1875 Y33.925 Z255 F20.00 
G01 X72.6625 Y33.925 Z0 F80.00 
G01 X64.4875 Y33.925 Z255 F20.00 
G01 X63.7375 Y33.925 Z0 F80.00 
G01 X38.9875 Y33.925 Z255 F20.00 
G01 X38.95 Y33.925 Z0 F80.00 
G00 X38.95 Y34.0 Z0 F80.00 
G01 X38.9875 Y34.0 Z0 F80.00 
G01 X63.5875 Y34.0 Z255 F20.00 
G01 X64.4125 Y34.0 Z0 F80.00 
G01 X72.5875 Y34.0 Z255 F20.00 
G01 X73.1125 Y34.0 Z0 F80.00 
G01 X74.6125 Y34.0 Z255 F20.00 
G01 X74.6875 Y34.0 Z0 F80.00 
G01 X74.7625 Y34.0 Z255 F20.00 
G01 X75.2125 Y34.0 Z0 F80.00 
G01 X80.2375 Y34.0 Z255 F20.00 
G01 X80.275 Y34.0 Z0 F80.00 
G00 X80.275 Y34.075 Z0 F80.00 
G01 X80.2375 Y34.075 Z0 F80.00 
G01 X75.8125 Y34.075 Z255 F20.00 
G01 X75.5875 Y34.075 Z0 F80.00 
G01 X75.2125 Y34.075 Z255 F20.00 
G01 X74.7625 Y34.075 Z0 F80.00 
G01 X74.6125 Y34.075 Z255 F20.00 
G01 X74.5375 Y34.075 Z0 F80.00 
G01 X72.9625 Y34.075 Z255 F20.00 
G01 X72.5125 Y34.075 Z0 F80.00 
G01 X64.3375 Y34.075 Z255 F20.00 
G01 X63.5125 Y34.075 Z0 F80.00 
G01 X38.9125 Y34.075 Z255 F20.00 
G01 X38.875 Y34.075 Z0 F80.00 
G00 X38.875 Y34.15 Z0 F80.00 
G01 X38.9125 Y34.15 Z0 F80.00 
G01 X63.3625 Y34.15 Z255 F20.00 
G01 X64.2625 Y34.15 Z0 F80.00 
G01 X72.4375 Y34.15 Z255 F20.00 
G01 X72.8875 Y34.15 Z0 F80.00 
G01 X74.4625 Y34.15 Z255 F20.00 
G01 X74.6125 Y34.15 Z0 F80.00 
G01 X74.6875 Y34.15 Z255 F20.00 
G01 X75.1375 Y34.15 Z0 F80.00 
G01 X75.5125 Y34.15 Z255 F20.00 
G01 X75.8125 Y34.15 Z0 F80.00 
G01 X80.2375 Y34.15 Z255 F20.00 
G01 X80.275 Y34.15 Z0 F80.00 
G00 X80.275 Y34.225 Z0 F80.00 
G01 X80.2375 Y34.225 Z0 F80.00 
G01 X75.8125 Y34.225 Z255 F20.00 
G01 X75.4375 Y34.225 Z0 F80.00 
G01 X75.1375 Y34.225 Z255 F20.00 
G01 X74.6875 Y34.225 Z0 F80.00 
G01 X74.5375 Y34.225 Z255 F20.00 
G01 X74.3875 Y34.225 Z0 F80.00 
G01 X72.8125 Y34.225 Z255 F20.00 
G01 X72.2875 Y34.225 Z0 F80.00 
G01 X64.2625 Y34.225 Z255 F20.00 
G01 X63.2875 Y34.225 Z0 F80.00 
G01 X38.8375 Y34.225 Z255 F20.00 
G01 X38.8 Y34.225 Z0 F80.00 
G00 X38.8 Y34.3 Z0 F80.00 
G01 X38.8375 Y34.3 Z0 F80.00 
G01 X63.1375 Y34.3 Z255 F20.00 
G01 X64.1875 Y34.3 Z0 F80.00 
G01 X72.2125 Y34.3 Z255 F20.00 
G01 X72.7375 Y34.3 Z0 F80.00 
G01 X74.3125 Y34.3 Z255 F20.00 
G01 X74.5375 Y34.3 Z0 F80.00 
G01 X74.6125 Y34.3 Z255 F20.00 
G01 X75.0625 Y34.3 Z0 F80.00 
G01 X75.4375 Y34.3 Z255 F20.00 
G01 X75.8125 Y34.3 Z0 F80.00 
G01 X80.2375 Y34.3 Z255 F20.00 
G01 X80.275 Y34.3 Z0 F80.00 
G00 X80.275 Y34.375 Z0 F80.00 
G01 X80.2375 Y34.375 Z0 F80.00 
G01 X75.8125 Y34.375 Z255 F20.00 
G01 X75.3625 Y34.375 Z0 F80.00 
G01 X74.9875 Y34.375 Z255 F20.00 
G01 X74.6125 Y34.375 Z0 F80.00 
G01 X74.4625 Y34.375 Z255 F20.00 
G01 X74.2375 Y34.375 Z0 F80.00 
G01 X72.5875 Y34.375 Z255 F20.00 
G01 X72.1375 Y34.375 Z0 F80.00 
G01 X64.1125 Y34.375 Z255 F20.00 
G01 X63.0625 Y34.375 Z0 F80.00 
G01 X38.8375 Y34.375 Z255 F20.00 
G01 X38.8 Y34.375 Z0 F80.00 
G00 X38.8 Y34.45 Z0 F80.00 
G01 X38.7625 Y34.45 Z0 F80.00 
G01 X62.9125 Y34.45 Z255 F20.00 
G01 X64.0375 Y34.45 Z0 F80.00 
G01 X71.9875 Y34.45 Z255 F20.00 
G01 X72.5125 Y34.45 Z0 F80.00 
G01 X74.2375 Y34.45 Z255 F20.00 
G01 X74.4625 Y34.45 Z0 F80.00 
G01 X74.5375 Y34.45 Z255 F20.00 
G01 X74.9875 Y34.45 Z0 F80.00 
G01 X75.2875 Y34.45 Z255 F20.00 
G01 X75.8125 Y34.45 Z0 F80.00 
G01 X80.2375 Y34.45 Z255 F20.00 
G01 X80.275 Y34.45 Z0 F80.00 
G00 X80.275 Y34.525 Z0 F80.00 
G01 X80.2375 Y34.525 Z0 F80.00 
G01 X75.8875 Y34.525 Z255 F20.00 
G01 X75.2125 Y34.525 Z0 F80.00 
G01 X74.9125 Y34.525 Z255 F20.00 
G01 X74.5375 Y34.525 Z0 F80.00 
G01 X74.3875 Y34.525 Z255 F20.00 
G01 X74.1625 Y34.525 Z0 F80.00 
G01 X72.4375 Y34.525 Z255 F20.00 
G01 X71.9125 Y34.525 Z0 F80.00 
G01 X64.0375 Y34.525 Z255 F20.00 
G01 X62.8375 Y34.525 Z0 F80.00 
G01 X38.7625 Y34.525 Z255 F20.00 
G01 X38.725 Y34.525 Z0 F80.00 
G00 X38.725 Y34.6 Z0 F80.00 
G01 X38.6875 Y34.6 Z0 F80.00 
G01 X62.6875 Y34.6 Z255 F20.00 
G01 X63.9625 Y34.6 Z0 F80.00 
G01 X71.8375 Y34.6 Z255 F20.00 
G01 X72.3625 Y34.6 Z0 F80.00 
G01 X74.0875 Y34.6 Z255 F20.00 
G01 X74.3875 Y34.6 Z0 F80.00 
G01 X74.4625 Y34.6 Z255 F20.00 
G01 X74.8375 Y34.6 Z0 F80.00 
G01 X75.1375 Y34.6 Z255 F20.00 
G01 X75.8875 Y34.6 Z0 F80.00 
G01 X80.2375 Y34.6 Z255 F20.00 
G01 X80.275 Y34.6 Z0 F80.00 
G00 X80.275 Y34.675 Z0 F80.00 
G01 X80.2375 Y34.675 Z0 F80.00 
G01 X75.8875 Y34.675 Z255 F20.00 
G01 X75.0625 Y34.675 Z0 F80.00 
G01 X74.8375 Y34.675 Z255 F20.00 
G01 X74.4625 Y34.675 Z0 F80.00 
G01 X74.3125 Y34.675 Z255 F20.00 
G01 X74.0125 Y34.675 Z0 F80.00 
G01 X72.2125 Y34.675 Z255 F20.00 
G01 X71.6875 Y34.675 Z0 F80.00 
G01 X63.8875 Y34.675 Z255 F20.00 
G01 X62.6125 Y34.675 Z0 F80.00 
G01 X38.6875 Y34.675 Z255 F20.00 
G01 X38.65 Y34.675 Z0 F80.00 
G00 X38.65 Y34.75 Z0 F80.00 
G01 X38.6875 Y34.75 Z0 F80.00 
G01 X62.6125 Y34.75 Z255 F20.00 
G01 X63.8875 Y34.75 Z0 F80.00 
G01 X71.6125 Y34.75 Z255 F20.00 
G01 X72.1375 Y34.75 Z0 F80.00 
G01 X74.0125 Y34.75 Z255 F20.00 
G01 X74.2375 Y34.75 Z0 F80.00 
G01 X74.3875 Y34.75 Z255 F20.00 
G01 X74.7625 Y34.75 Z0 F80.00 
G01 X74.9875 Y34.75 Z255 F20.00 
G01 X75.8875 Y34.75 Z0 F80.00 
G01 X80.2375 Y34.75 Z255 F20.00 
G01 X80.275 Y34.75 Z0 F80.00 
G00 X80.275 Y34.825 Z0 F80.00 
G01 X80.2375 Y34.825 Z0 F80.00 
G01 X75.8875 Y34.825 Z255 F20.00 
G01 X74.9125 Y34.825 Z0 F80.00 
G01 X74.6875 Y34.825 Z255 F20.00 
G01 X74.3875 Y34.825 Z0 F80.00 
G01 X74.2375 Y34.825 Z255 F20.00 
G01 X73.9375 Y34.825 Z0 F80.00 
G01 X72.0625 Y34.825 Z255 F20.00 
G01 X71.5375 Y34.825 Z0 F80.00 
G01 X63.8125 Y34.825 Z255 F20.00 
G01 X62.7625 Y34.825 Z0 F80.00 
G01 X38.6125 Y34.825 Z255 F20.00 
G01 X38.575 Y34.825 Z0 F80.00 
G00 X38.575 Y34.9 Z0 F80.00 
G01 X38.6125 Y34.9 Z0 F80.00 
G01 X62.3125 Y34.9 Z255 F20.00 
G01 X62.5375 Y34.9 Z0 F80.00 
G01 X62.9125 Y34.9 Z255 F20.00 
G01 X63.7375 Y34.9 Z0 F80.00 
G01 X71.3875 Y34.9 Z255 F20.00 
G01 X71.9875 Y34.9 Z0 F80.00 
G01 X73.8625 Y34.9 Z255 F20.00 
G01 X74.1625 Y34.9 Z0 F80.00 
G01 X74.3125 Y34.9 Z255 F20.00 
G01 X74.6875 Y34.9 Z0 F80.00 
G01 X74.8375 Y34.9 Z255 F20.00 
G01 X75.9625 Y34.9 Z0 F80.00 
G01 X80.2375 Y34.9 Z255 F20.00 
G01 X80.275 Y34.9 Z0 F80.00 
G00 X80.275 Y34.975 Z0 F80.00 
G01 X80.2375 Y34.975 Z0 F80.00 
G01 X75.9625 Y34.975 Z255 F20.00 
G01 X74.8375 Y34.975 Z0 F80.00 
G01 X74.6125 Y34.975 Z255 F20.00 
G01 X74.2375 Y34.975 Z0 F80.00 
G01 X74.0875 Y34.975 Z255 F20.00 
G01 X73.7875 Y34.975 Z0 F80.00 
G01 X71.8375 Y34.975 Z255 F20.00 
G01 X71.3125 Y34.975 Z0 F80.00 
G01 X63.6625 Y34.975 Z255 F20.00 
G01 X62.9875 Y34.975 Z0 F80.00 
G01 X62.6875 Y34.975 Z255 F20.00 
G01 X62.1625 Y34.975 Z0 F80.00 
G01 X38.5375 Y34.975 Z255 F20.00 
G01 X38.5 Y34.975 Z0 F80.00 
G00 X38.5 Y35.05 Z0 F80.00 
G01 X38.5375 Y35.05 Z0 F80.00 
G01 X41.0125 Y35.05 Z255 F20.00 
G01 X41.0875 Y35.05 Z0 F80.00 
G01 X62.0875 Y35.05 Z255 F20.00 
G01 X62.7625 Y35.05 Z0 F80.00 
G01 X63.0625 Y35.05 Z255 F20.00 
G01 X63.6625 Y35.05 Z0 F80.00 
G01 X71.1625 Y35.05 Z255 F20.00 
G01 X71.7625 Y35.05 Z0 F80.00 
G01 X72.6625 Y35.05 Z255 F20.00 
G01 X72.8125 Y35.05 Z0 F80.00 
G01 X73.7125 Y35.05 Z255 F20.00 
G01 X74.0875 Y35.05 Z0 F80.00 
G01 X74.2375 Y35.05 Z255 F20.00 
G01 X74.5375 Y35.05 Z0 F80.00 
G01 X74.7625 Y35.05 Z255 F20.00 
G01 X75.9625 Y35.05 Z0 F80.00 
G01 X80.2375 Y35.05 Z255 F20.00 
G01 X80.275 Y35.05 Z0 F80.00 
G00 X80.275 Y35.125 Z0 F80.00 
G01 X80.2375 Y35.125 Z0 F80.00 
G01 X75.9625 Y35.125 Z255 F20.00 
G01 X74.6875 Y35.125 Z0 F80.00 
G01 X74.4625 Y35.125 Z255 F20.00 
G01 X74.1625 Y35.125 Z0 F80.00 
G01 X74.0125 Y35.125 Z255 F20.00 
G01 X73.7125 Y35.125 Z0 F80.00 
G01 X72.7375 Y35.125 Z255 F20.00 
G01 X72.5125 Y35.125 Z0 F80.00 
G01 X71.6875 Y35.125 Z255 F20.00 
G01 X71.0875 Y35.125 Z0 F80.00 
G01 X63.5875 Y35.125 Z255 F20.00 
G01 X63.1375 Y35.125 Z0 F80.00 
G01 X62.9125 Y35.125 Z255 F20.00 
G01 X61.9375 Y35.125 Z0 F80.00 
G01 X41.0125 Y35.125 Z255 F20.00 
G01 X40.9375 Y35.125 Z0 F80.00 
G01 X38.5375 Y35.125 Z255 F20.00 
G01 X38.5 Y35.125 Z0 F80.00 
G00 X38.5 Y35.2 Z0 F80.00 
G01 X38.4625 Y35.2 Z0 F80.00 
G01 X40.8625 Y35.2 Z255 F20.00 
G01 X40.9375 Y35.2 Z0 F80.00 
G01 X61.7875 Y35.2 Z255 F20.00 
G01 X62.9875 Y35.2 Z0 F80.00 
G01 X63.2125 Y35.2 Z255 F20.00 
G01 X63.5125 Y35.2 Z0 F80.00 
G01 X70.9375 Y35.2 Z255 F20.00 
G01 X71.5375 Y35.2 Z0 F80.00 
G01 X72.2875 Y35.2 Z255 F20.00 
G01 X72.6625 Y35.2 Z0 F80.00 
G01 X73.6375 Y35.2 Z255 F20.00 
G01 X73.9375 Y35.2 Z0 F80.00 
G01 X74.1625 Y35.2 Z255 F20.00 
G01 X74.3875 Y35.2 Z0 F80.00 
G01 X74.6125 Y35.2 Z255 F20.00 
G01 X75.9625 Y35.2 Z0 F80.00 
G01 X80.2375 Y35.2 Z255 F20.00 
G01 X80.275 Y35.2 Z0 F80.00 
G00 X80.275 Y35.275 Z0 F80.00 
G01 X80.2375 Y35.275 Z0 F80.00 
G01 X75.8875 Y35.275 Z255 F20.00 
G01 X74.6125 Y35.275 Z0 F80.00 
G01 X74.3125 Y35.275 Z255 F20.00 
G01 X74.0875 Y35.275 Z0 F80.00 
G01 X73.9375 Y35.275 Z255 F20.00 
G01 X73.5625 Y35.275 Z0 F80.00 
G01 X72.5875 Y35.275 Z255 F20.00 
G01 X72.2125 Y35.275 Z0 F80.00 
G01 X71.4625 Y35.275 Z255 F20.00 
G01 X70.8625 Y35.275 Z0 F80.00 
G01 X63.4375 Y35.275 Z255 F20.00 
G01 X63.2875 Y35.275 Z0 F80.00 
G01 X63.0625 Y35.275 Z255 F20.00 
G01 X61.7125 Y35.275 Z0 F80.00 
G01 X40.9375 Y35.275 Z255 F20.00 
G01 X40.7875 Y35.275 Z0 F80.00 
G01 X38.4625 Y35.275 Z255 F20.00 
G01 X38.425 Y35.275 Z0 F80.00 
G00 X38.425 Y35.35 Z0 F80.00 
G01 X38.4625 Y35.35 Z0 F80.00 
G01 X40.7875 Y35.35 Z255 F20.00 
G01 X40.8625 Y35.35 Z0 F80.00 
G01 X61.5625 Y35.35 Z255 F20.00 
G01 X63.1375 Y35.35 Z0 F80.00 
G01 X63.3625 Y35.35 Z255 F20.00 
G01 X63.4375 Y35.35 Z0 F80.00 
G01 X70.7125 Y35.35 Z255 F20.00 
G01 X71.3875 Y35.35 Z0 F80.00 
G01 X71.9875 Y35.35 Z255 F20.00 
G01 X72.5125 Y35.35 Z0 F80.00 
G01 X73.4875 Y35.35 Z255 F20.00 
G01 X73.8625 Y35.35 Z0 F80.00 
G01 X74.0875 Y35.35 Z255 F20.00 
G01 X74.2375 Y35.35 Z0 F80.00 
G01 X74.5375 Y35.35 Z255 F20.00 
G01 X75.8875 Y35.35 Z0 F80.00 
G01 X80.2375 Y35.35 Z255 F20.00 
G01 X80.275 Y35.35 Z0 F80.00 
G00 X80.275 Y35.425 Z0 F80.00 
G01 X80.2375 Y35.425 Z0 F80.00 
G01 X75.8875 Y35.425 Z255 F20.00 
G01 X74.4625 Y35.425 Z0 F80.00 
G01 X74.2375 Y35.425 Z255 F20.00 
G01 X74.0125 Y35.425 Z0 F80.00 
G01 X73.7875 Y35.425 Z255 F20.00 
G01 X73.4875 Y35.425 Z0 F80.00 
G01 X72.5125 Y35.425 Z255 F20.00 
G01 X71.6875 Y35.425 Z0 F80.00 
G01 X71.2375 Y35.425 Z255 F20.00 
G01 X70.6375 Y35.425 Z0 F80.00 
G01 X63.1375 Y35.425 Z255 F20.00 
G01 X61.4125 Y35.425 Z0 F80.00 
G01 X40.7875 Y35.425 Z255 F20.00 
G01 X40.7125 Y35.425 Z0 F80.00 
G01 X38.3875 Y35.425 Z255 F20.00 
G01 X38.35 Y35.425 Z0 F80.00 
G00 X38.35 Y35.5 Z0 F80.00 
G01 X38.3875 Y35.5 Z0 F80.00 
G01 X40.6375 Y35.5 Z255 F20.00 
G01 X40.7125 Y35.5 Z0 F80.00 
G01 X61.3375 Y35.5 Z255 F20.00 
G01 X63.2125 Y35.5 Z0 F80.00 
G01 X70.4875 Y35.5 Z255 F20.00 
G01 X71.1625 Y35.5 Z0 F80.00 
G01 X71.5375 Y35.5 Z255 F20.00 
G01 X72.4375 Y35.5 Z0 F80.00 
G01 X73.4125 Y35.5 Z255 F20.00 
G01 X73.7875 Y35.5 Z0 F80.00 
G01 X73.9375 Y35.5 Z255 F20.00 
G01 X74.1625 Y35.5 Z0 F80.00 
G01 X74.3875 Y35.5 Z255 F20.00 
G01 X75.9625 Y35.5 Z0 F80.00 
G01 X80.2375 Y35.5 Z255 F20.00 
G01 X80.275 Y35.5 Z0 F80.00 
G00 X80.275 Y35.575 Z0 F80.00 
G01 X80.2375 Y35.575 Z0 F80.00 
G01 X75.9625 Y35.575 Z255 F20.00 
G01 X74.3875 Y35.575 Z0 F80.00 
G01 X74.0875 Y35.575 Z255 F20.00 
G01 X73.9375 Y35.575 Z0 F80.00 
G01 X73.7125 Y35.575 Z255 F20.00 
G01 X73.3375 Y35.575 Z0 F80.00 
G01 X72.3625 Y35.575 Z255 F20.00 
G01 X71.3875 Y35.575 Z0 F80.00 
G01 X71.0875 Y35.575 Z255 F20.00 
G01 X70.4125 Y35.575 Z0 F80.00 
G01 X63.2875 Y35.575 Z255 F20.00 
G01 X61.1875 Y35.575 Z0 F80.00 
G01 X40.7125 Y35.575 Z255 F20.00 
G01 X40.5625 Y35.575 Z0 F80.00 
G01 X38.3875 Y35.575 Z255 F20.00 
G01 X38.35 Y35.575 Z0 F80.00 
G00 X38.35 Y35.65 Z0 F80.00 
G01 X38.3125 Y35.65 Z0 F80.00 
G01 X40.4875 Y35.65 Z255 F20.00 
G01 X40.6375 Y35.65 Z0 F80.00 
G01 X61.0375 Y35.65 Z255 F20.00 
G01 X63.2125 Y35.65 Z0 F80.00 
G01 X70.2625 Y35.65 Z255 F20.00 
G01 X70.9375 Y35.65 Z0 F80.00 
G01 X71.3125 Y35.65 Z255 F20.00 
G01 X72.2875 Y35.65 Z0 F80.00 
G01 X73.2625 Y35.65 Z255 F20.00 
G01 X73.6375 Y35.65 Z0 F80.00 
G01 X73.8625 Y35.65 Z255 F20.00 
G01 X74.0125 Y35.65 Z0 F80.00 
G01 X74.3125 Y35.65 Z255 F20.00 
G01 X75.9625 Y35.65 Z0 F80.00 
G01 X80.2375 Y35.65 Z255 F20.00 
G01 X80.275 Y35.65 Z0 F80.00 
G00 X80.275 Y35.725 Z0 F80.00 
G01 X80.3125 Y35.725 Z0 F80.00 
G01 X75.9625 Y35.725 Z255 F20.00 
G01 X74.2375 Y35.725 Z0 F80.00 
G01 X73.9375 Y35.725 Z255 F20.00 
G01 X73.8625 Y35.725 Z0 F80.00 
G01 X73.5625 Y35.725 Z255 F20.00 
G01 X73.2625 Y35.725 Z0 F80.00 
G01 X72.2125 Y35.725 Z255 F20.00 
G01 X71.1625 Y35.725 Z0 F80.00 
G01 X70.8625 Y35.725 Z255 F20.00 
G01 X70.1875 Y35.725 Z0 F80.00 
G01 X63.2125 Y35.725 Z255 F20.00 
G01 X60.9625 Y35.725 Z0 F80.00 
G01 X40.5625 Y35.725 Z255 F20.00 
G01 X40.4125 Y35.725 Z0 F80.00 
G01 X38.3125 Y35.725 Z255 F20.00 
G01 X38.275 Y35.725 Z0 F80.00 
G00 X38.275 Y35.8 Z0 F80.00 
G01 X38.3125 Y35.8 Z0 F80.00 
G01 X40.3375 Y35.8 Z255 F20.00 
G01 X40.4875 Y35.8 Z0 F80.00 
G01 X60.8125 Y35.8 Z255 F20.00 
G01 X63.1375 Y35.8 Z0 F80.00 
G01 X70.0375 Y35.8 Z255 F20.00 
G01 X70.7125 Y35.8 Z0 F80.00 
G01 X71.0125 Y35.8 Z255 F20.00 
G01 X72.2125 Y35.8 Z0 F80.00 
G01 X73.1875 Y35.8 Z255 F20.00 
G01 X73.5625 Y35.8 Z0 F80.00 
G01 X74.1625 Y35.8 Z255 F20.00 
G01 X75.9625 Y35.8 Z0 F80.00 
G01 X80.3125 Y35.8 Z255 F20.00 
G01 X80.35 Y35.8 Z0 F80.00 
G00 X80.35 Y35.875 Z0 F80.00 
G01 X80.3125 Y35.875 Z0 F80.00 
G01 X76.0375 Y35.875 Z255 F20.00 
G01 X74.1625 Y35.875 Z0 F80.00 
G01 X73.4875 Y35.875 Z255 F20.00 
G01 X73.1125 Y35.875 Z0 F80.00 
G01 X72.1375 Y35.875 Z255 F20.00 
G01 X70.9375 Y35.875 Z0 F80.00 
G01 X70.6375 Y35.875 Z255 F20.00 
G01 X69.9625 Y35.875 Z0 F80.00 
G01 X63.0625 Y35.875 Z255 F20.00 
G01 X60.6625 Y35.875 Z0 F80.00 
G01 X40.4125 Y35.875 Z255 F20.00 
G01 X40.3375 Y35.875 Z0 F80.00 
G01 X38.3125 Y35.875 Z255 F20.00 
G01 X38.275 Y35.875 Z0 F80.00 
G00 X38.275 Y35.95 Z0 F80.00 
G01 X38.2375 Y35.95 Z0 F80.00 
G01 X40.2625 Y35.95 Z255 F20.00 
G01 X40.4125 Y35.95 Z0 F80.00 
G01 X60.5875 Y35.95 Z255 F20.00 
G01 X63.0625 Y35.95 Z0 F80.00 
G01 X69.8125 Y35.95 Z255 F20.00 
G01 X70.4875 Y35.95 Z0 F80.00 
G01 X70.7875 Y35.95 Z255 F20.00 
G01 X72.0625 Y35.95 Z0 F80.00 
G01 X73.0375 Y35.95 Z255 F20.00 
G01 X73.4125 Y35.95 Z0 F80.00 
G01 X74.0875 Y35.95 Z255 F20.00 
G01 X76.0375 Y35.95 Z0 F80.00 
G01 X80.3125 Y35.95 Z255 F20.00 
G01 X80.35 Y35.95 Z0 F80.00 
G00 X80.35 Y36.025 Z0 F80.00 
G01 X80.3125 Y36.025 Z0 F80.00 
G01 X76.0375 Y36.025 Z255 F20.00 
G01 X74.0125 Y36.025 Z0 F80.00 
G01 X73.3375 Y36.025 Z255 F20.00 
G01 X72.9625 Y36.025 Z0 F80.00 
G01 X71.9875 Y36.025 Z255 F20.00 
G01 X70.6375 Y36.025 Z0 F80.00 
G01 X70.4125 Y36.025 Z255 F20.00 
G01 X69.7375 Y36.025 Z0 F80.00 
G01 X62.9875 Y36.025 Z255 F20.00 
G01 X60.4375 Y36.025 Z0 F80.00 
G01 X40.3375 Y36.025 Z255 F20.00 
G01 X40.1875 Y36.025 Z0 F80.00 
G01 X38.2375 Y36.025 Z255 F20.00 
G01 X38.2 Y36.025 Z0 F80.00 
G00 X38.2 Y36.1 Z0 F80.00 
G01 X38.2375 Y36.1 Z0 F80.00 
G01 X40.1125 Y36.1 Z255 F20.00 
G01 X40.2625 Y36.1 Z0 F80.00 
G01 X60.2875 Y36.1 Z255 F20.00 
G01 X62.9875 Y36.1 Z0 F80.00 
G01 X69.5875 Y36.1 Z255 F20.00 
G01 X70.2625 Y36.1 Z0 F80.00 
G01 X70.4875 Y36.1 Z255 F20.00 
G01 X71.9125 Y36.1 Z0 F80.00 
G01 X72.9625 Y36.1 Z255 F20.00 
G01 X73.3375 Y36.1 Z0 F80.00 
G01 X73.9375 Y36.1 Z255 F20.00 
G01 X76.0375 Y36.1 Z0 F80.00 
G01 X80.3125 Y36.1 Z255 F20.00 
G01 X80.35 Y36.1 Z0 F80.00 
G00 X80.35 Y36.175 Z0 F80.00 
G01 X80.3125 Y36.175 Z0 F80.00 
G01 X76.0375 Y36.175 Z255 F20.00 
G01 X73.8625 Y36.175 Z0 F80.00 
G01 X73.2625 Y36.175 Z255 F20.00 
G01 X72.8875 Y36.175 Z0 F80.00 
G01 X71.8375 Y36.175 Z255 F20.00 
G01 X70.4125 Y36.175 Z0 F80.00 
G01 X70.1125 Y36.175 Z255 F20.00 
G01 X69.5125 Y36.175 Z0 F80.00 
G01 X62.9125 Y36.175 Z255 F20.00 
G01 X60.2125 Y36.175 Z0 F80.00 
G01 X40.1875 Y36.175 Z255 F20.00 
G01 X40.1125 Y36.175 Z0 F80.00 
G01 X38.2375 Y36.175 Z255 F20.00 
G01 X38.2 Y36.175 Z0 F80.00 
G00 X38.2 Y36.25 Z0 F80.00 
G01 X38.1625 Y36.25 Z0 F80.00 
G01 X40.0375 Y36.25 Z255 F20.00 
G01 X40.1875 Y36.25 Z0 F80.00 
G01 X60.0625 Y36.25 Z255 F20.00 
G01 X62.8375 Y36.25 Z0 F80.00 
G01 X69.3625 Y36.25 Z255 F20.00 
G01 X70.0375 Y36.25 Z0 F80.00 
G01 X70.2625 Y36.25 Z255 F20.00 
G01 X71.7625 Y36.25 Z0 F80.00 
G01 X72.8125 Y36.25 Z255 F20.00 
G01 X73.1875 Y36.25 Z0 F80.00 
G01 X73.8625 Y36.25 Z255 F20.00 
G01 X76.1125 Y36.25 Z0 F80.00 
G01 X80.3125 Y36.25 Z255 F20.00 
G01 X80.35 Y36.25 Z0 F80.00 
G00 X80.35 Y36.325 Z0 F80.00 
G01 X80.3125 Y36.325 Z0 F80.00 
G01 X76.1125 Y36.325 Z255 F20.00 
G01 X73.7875 Y36.325 Z0 F80.00 
G01 X73.1125 Y36.325 Z255 F20.00 
G01 X72.7375 Y36.325 Z0 F80.00 
G01 X71.7625 Y36.325 Z255 F20.00 
G01 X70.1125 Y36.325 Z0 F80.00 
G01 X69.8875 Y36.325 Z255 F20.00 
G01 X69.2875 Y36.325 Z0 F80.00 
G01 X62.8375 Y36.325 Z255 F20.00 
G01 X59.9125 Y36.325 Z0 F80.00 
G01 X40.1125 Y36.325 Z255 F20.00 
G01 X39.9625 Y36.325 Z0 F80.00 
G01 X38.1625 Y36.325 Z255 F20.00 
G01 X38.125 Y36.325 Z0 F80.00 
G00 X38.125 Y36.4 Z0 F80.00 
G01 X38.1625 Y36.4 Z0 F80.00 
G01 X39.8875 Y36.4 Z255 F20.00 
G01 X40.0375 Y36.4 Z0 F80.00 
G01 X59.6875 Y36.4 Z255 F20.00 
G01 X62.7625 Y36.4 Z0 F80.00 
G01 X69.1375 Y36.4 Z255 F20.00 
G01 X69.7375 Y36.4 Z0 F80.00 
G01 X69.9625 Y36.4 Z255 F20.00 
G01 X71.6875 Y36.4 Z0 F80.00 
G01 X72.7375 Y36.4 Z255 F20.00 
G01 X73.1125 Y36.4 Z0 F80.00 
G01 X73.7125 Y36.4 Z255 F20.00 
G01 X76.1125 Y36.4 Z0 F80.00 
G01 X80.3125 Y36.4 Z255 F20.00 
G01 X80.35 Y36.4 Z0 F80.00 
G00 X80.35 Y36.475 Z0 F80.00 
G01 X80.3125 Y36.475 Z0 F80.00 
G01 X76.1125 Y36.475 Z255 F20.00 
G01 X73.6375 Y36.475 Z0 F80.00 
G01 X73.0375 Y36.475 Z255 F20.00 
G01 X72.6625 Y36.475 Z0 F80.00 
G01 X71.6125 Y36.475 Z255 F20.00 
G01 X69.8125 Y36.475 Z0 F80.00 
G01 X69.6625 Y36.475 Z255 F20.00 
G01 X68.9875 Y36.475 Z0 F80.00 
G01 X62.7625 Y36.475 Z255 F20.00 
G01 X59.5375 Y36.475 Z0 F80.00 
G01 X39.9625 Y36.475 Z255 F20.00 
G01 X39.8125 Y36.475 Z0 F80.00 
G01 X38.1625 Y36.475 Z255 F20.00 
G01 X38.125 Y36.475 Z0 F80.00 
G00 X38.125 Y36.55 Z0 F80.00 
G01 X38.0875 Y36.55 Z0 F80.00 
G01 X39.8125 Y36.55 Z255 F20.00 
G01 X39.8875 Y36.55 Z0 F80.00 
G01 X59.3875 Y36.55 Z255 F20.00 
G01 X62.6875 Y36.55 Z0 F80.00 
G01 X68.9125 Y36.55 Z255 F20.00 
G01 X71.5375 Y36.55 Z0 F80.00 
G01 X72.5875 Y36.55 Z255 F20.00 
G01 X72.9625 Y36.55 Z0 F80.00 
G01 X73.5625 Y36.55 Z255 F20.00 
G01 X76.1125 Y36.55 Z0 F80.00 
G01 X80.3125 Y36.55 Z255 F20.00 
G01 X80.35 Y36.55 Z0 F80.00 
G00 X80.35 Y36.625 Z0 F80.00 
G01 X80.3125 Y36.625 Z0 F80.00 
G01 X76.1125 Y36.625 Z255 F20.00 
G01 X73.4875 Y36.625 Z0 F80.00 
G01 X72.8875 Y36.625 Z255 F20.00 
G01 X72.5125 Y36.625 Z0 F80.00 
G01 X71.4625 Y36.625 Z255 F20.00 
G01 X68.7625 Y36.625 Z0 F80.00 
G01 X62.6125 Y36.625 Z255 F20.00 
G01 X59.2375 Y36.625 Z0 F80.00 
G01 X39.8125 Y36.625 Z255 F20.00 
G01 X39.7375 Y36.625 Z0 F80.00 
G01 X38.0875 Y36.625 Z255 F20.00 
G01 X38.05 Y36.625 Z0 F80.00 
G00 X38.05 Y36.7 Z0 F80.00 
G01 X38.0875 Y36.7 Z0 F80.00 
G01 X39.6625 Y36.7 Z255 F20.00 
G01 X39.8125 Y36.7 Z0 F80.00 
G01 X59.1625 Y36.7 Z255 F20.00 
G01 X60.2125 Y36.7 Z0 F80.00 
G01 X61.8625 Y36.7 Z255 F20.00 
G01 X62.5375 Y36.7 Z0 F80.00 
G01 X68.6875 Y36.7 Z255 F20.00 
G01 X71.3875 Y36.7 Z0 F80.00 
G01 X72.4375 Y36.7 Z255 F20.00 
G01 X72.8875 Y36.7 Z0 F80.00 
G01 X73.4875 Y36.7 Z255 F20.00 
G01 X76.1125 Y36.7 Z0 F80.00 
G01 X80.3125 Y36.7 Z255 F20.00 
G01 X80.35 Y36.7 Z0 F80.00 
G00 X80.35 Y36.775 Z0 F80.00 
G01 X80.2375 Y36.775 Z0 F80.00 
G01 X76.1125 Y36.775 Z255 F20.00 
G01 X73.4125 Y36.775 Z0 F80.00 
G01 X72.8125 Y36.775 Z255 F20.00 
G01 X72.3625 Y36.775 Z0 F80.00 
G01 X71.3125 Y36.775 Z255 F20.00 
G01 X69.3625 Y36.775 Z0 F80.00 
G01 X69.2125 Y36.775 Z255 F20.00 
G01 X68.5375 Y36.775 Z0 F80.00 
G01 X62.4625 Y36.775 Z255 F20.00 
G01 X62.3125 Y36.775 Z0 F80.00 
G01 X59.9875 Y36.775 Z255 F20.00 
G01 X59.0125 Y36.775 Z0 F80.00 
G01 X39.7375 Y36.775 Z255 F20.00 
G01 X39.6625 Y36.775 Z0 F80.00 
G01 X38.0125 Y36.775 Z255 F20.00 
G01 X37.975 Y36.775 Z0 F80.00 
G00 X37.975 Y36.85 Z0 F80.00 
G01 X38.0125 Y36.85 Z0 F80.00 
G01 X39.5875 Y36.85 Z255 F20.00 
G01 X39.6625 Y36.85 Z0 F80.00 
G01 X58.8625 Y36.85 Z255 F20.00 
G01 X60.0625 Y36.85 Z0 F80.00 
G01 X68.4625 Y36.85 Z255 F20.00 
G01 X69.1375 Y36.85 Z0 F80.00 
G01 X69.4375 Y36.85 Z255 F20.00 
G01 X71.2375 Y36.85 Z0 F80.00 
G01 X72.2875 Y36.85 Z255 F20.00 
G01 X72.7375 Y36.85 Z0 F80.00 
G01 X73.3375 Y36.85 Z255 F20.00 
G01 X76.1125 Y36.85 Z0 F80.00 
G01 X80.2375 Y36.85 Z255 F20.00 
G01 X80.275 Y36.85 Z0 F80.00 
G00 X80.275 Y36.925 Z0 F80.00 
G01 X80.2375 Y36.925 Z0 F80.00 
G01 X76.1875 Y36.925 Z255 F20.00 
G01 X73.2625 Y36.925 Z0 F80.00 
G01 X72.7375 Y36.925 Z255 F20.00 
G01 X72.2125 Y36.925 Z0 F80.00 
G01 X71.1625 Y36.925 Z255 F20.00 
G01 X69.5125 Y36.925 Z0 F80.00 
G01 X69.1375 Y36.925 Z255 F20.00 
G01 X68.3875 Y36.925 Z0 F80.00 
G01 X60.2875 Y36.925 Z255 F20.00 
G01 X58.7875 Y36.925 Z0 F80.00 
G01 X38.0125 Y36.925 Z255 F20.00 
G01 X37.975 Y36.925 Z0 F80.00 
G00 X37.975 Y37.0 Z0 F80.00 
G01 X37.9375 Y37.0 Z0 F80.00 
G01 X58.6375 Y37.0 Z255 F20.00 
G01 X61.0375 Y37.0 Z0 F80.00 
G01 X68.2375 Y37.0 Z255 F20.00 
G01 X69.2125 Y37.0 Z0 F80.00 
G01 X69.5875 Y37.0 Z255 F20.00 
G01 X71.0875 Y37.0 Z0 F80.00 
G01 X72.2125 Y37.0 Z255 F20.00 
G01 X72.6625 Y37.0 Z0 F80.00 
G01 X73.1875 Y37.0 Z255 F20.00 
G01 X76.1875 Y37.0 Z0 F80.00 
G01 X80.2375 Y37.0 Z255 F20.00 
G01 X80.275 Y37.0 Z0 F80.00 
G00 X80.275 Y37.075 Z0 F80.00 
G01 X80.2375 Y37.075 Z0 F80.00 
G01 X76.1875 Y37.075 Z255 F20.00 
G01 X73.1125 Y37.075 Z0 F80.00 
G01 X72.5875 Y37.075 Z255 F20.00 
G01 X72.1375 Y37.075 Z0 F80.00 
G01 X71.0125 Y37.075 Z255 F20.00 
G01 X69.7375 Y37.075 Z0 F80.00 
G01 X69.3625 Y37.075 Z255 F20.00 
G01 X68.0875 Y37.075 Z0 F80.00 
G01 X61.3375 Y37.075 Z255 F20.00 
G01 X58.4875 Y37.075 Z0 F80.00 
G01 X37.9375 Y37.075 Z255 F20.00 
G01 X37.9 Y37.075 Z0 F80.00 
G00 X37.9 Y37.15 Z0 F80.00 
G01 X37.9375 Y37.15 Z0 F80.00 
G01 X58.3375 Y37.15 Z255 F20.00 
G01 X61.6375 Y37.15 Z0 F80.00 
G01 X67.9375 Y37.15 Z255 F20.00 
G01 X69.4375 Y37.15 Z0 F80.00 
G01 X69.8125 Y37.15 Z255 F20.00 
G01 X70.9375 Y37.15 Z0 F80.00 
G01 X72.0625 Y37.15 Z255 F20.00 
G01 X72.5125 Y37.15 Z0 F80.00 
G01 X73.0375 Y37.15 Z255 F20.00 
G01 X76.1875 Y37.15 Z0 F80.00 
G01 X80.2375 Y37.15 Z255 F20.00 
G01 X80.275 Y37.15 Z0 F80.00 
G00 X80.275 Y37.225 Z0 F80.00 
G01 X80.2375 Y37.225 Z0 F80.00 
G01 X76.1875 Y37.225 Z255 F20.00 
G01 X72.9625 Y37.225 Z0 F80.00 
G01 X72.4375 Y37.225 Z255 F20.00 
G01 X71.9875 Y37.225 Z0 F80.00 
G01 X70.8625 Y37.225 Z255 F20.00 
G01 X69.8875 Y37.225 Z0 F80.00 
G01 X69.5125 Y37.225 Z255 F20.00 
G01 X67.8625 Y37.225 Z0 F80.00 
G01 X61.7875 Y37.225 Z255 F20.00 
G01 X58.1875 Y37.225 Z0 F80.00 
G01 X37.8625 Y37.225 Z255 F20.00 
G01 X37.825 Y37.225 Z0 F80.00 
G00 X37.825 Y37.3 Z0 F80.00 
G01 X37.8625 Y37.3 Z0 F80.00 
G01 X58.0375 Y37.3 Z255 F20.00 
G01 X62.0125 Y37.3 Z0 F80.00 
G01 X67.7125 Y37.3 Z255 F20.00 
G01 X69.5875 Y37.3 Z0 F80.00 
G01 X69.9625 Y37.3 Z255 F20.00 
G01 X70.7875 Y37.3 Z0 F80.00 
G01 X71.9125 Y37.3 Z255 F20.00 
G01 X72.3625 Y37.3 Z0 F80.00 
G01 X72.8875 Y37.3 Z255 F20.00 
G01 X76.1875 Y37.3 Z0 F80.00 
G01 X80.2375 Y37.3 Z255 F20.00 
G01 X80.275 Y37.3 Z0 F80.00 
G00 X80.275 Y37.375 Z0 F80.00 
G01 X80.2375 Y37.375 Z0 F80.00 
G01 X76.1875 Y37.375 Z255 F20.00 
G01 X72.8125 Y37.375 Z0 F80.00 
G01 X72.2875 Y37.375 Z255 F20.00 
G01 X71.8375 Y37.375 Z0 F80.00 
G01 X70.7125 Y37.375 Z255 F20.00 
G01 X70.0375 Y37.375 Z0 F80.00 
G01 X69.6625 Y37.375 Z255 F20.00 
G01 X67.5625 Y37.375 Z0 F80.00 
G01 X62.0125 Y37.375 Z255 F20.00 
G01 X57.8875 Y37.375 Z0 F80.00 
G01 X37.8625 Y37.375 Z255 F20.00 
G01 X37.825 Y37.375 Z0 F80.00 
G00 X37.825 Y37.45 Z0 F80.00 
G01 X37.8625 Y37.45 Z0 F80.00 
G01 X57.7375 Y37.45 Z255 F20.00 
G01 X61.9375 Y37.45 Z0 F80.00 
G01 X67.4125 Y37.45 Z255 F20.00 
G01 X67.8625 Y37.45 Z0 F80.00 
G01 X67.9375 Y37.45 Z255 F20.00 
G01 X69.7375 Y37.45 Z0 F80.00 
G01 X70.1125 Y37.45 Z255 F20.00 
G01 X70.6375 Y37.45 Z0 F80.00 
G01 X71.7625 Y37.45 Z255 F20.00 
G01 X72.2875 Y37.45 Z0 F80.00 
G01 X72.7375 Y37.45 Z255 F20.00 
G01 X76.1875 Y37.45 Z0 F80.00 
G01 X80.2375 Y37.45 Z255 F20.00 
G01 X80.275 Y37.45 Z0 F80.00 
G00 X80.275 Y37.525 Z0 F80.00 
G01 X80.2375 Y37.525 Z0 F80.00 
G01 X76.1875 Y37.525 Z255 F20.00 
G01 X72.6625 Y37.525 Z0 F80.00 
G01 X72.2125 Y37.525 Z255 F20.00 
G01 X71.6875 Y37.525 Z0 F80.00 
G01 X70.5625 Y37.525 Z255 F20.00 
G01 X70.1875 Y37.525 Z0 F80.00 
G01 X69.8125 Y37.525 Z255 F20.00 
G01 X67.7875 Y37.525 Z0 F80.00 
G01 X67.7125 Y37.525 Z255 F20.00 
G01 X67.3375 Y37.525 Z0 F80.00 
G01 X61.8625 Y37.525 Z255 F20.00 
G01 X57.5875 Y37.525 Z0 F80.00 
G01 X37.7875 Y37.525 Z255 F20.00 
G01 X37.75 Y37.525 Z0 F80.00 
G00 X37.75 Y37.6 Z0 F80.00 
G01 X37.7875 Y37.6 Z0 F80.00 
G01 X57.3625 Y37.6 Z255 F20.00 
G01 X61.7875 Y37.6 Z0 F80.00 
G01 X67.1875 Y37.6 Z255 F20.00 
G01 X67.5625 Y37.6 Z0 F80.00 
G01 X67.6375 Y37.6 Z255 F20.00 
G01 X69.9625 Y37.6 Z0 F80.00 
G01 X70.2625 Y37.6 Z255 F20.00 
G01 X70.4875 Y37.6 Z0 F80.00 
G01 X71.6125 Y37.6 Z255 F20.00 
G01 X72.1375 Y37.6 Z0 F80.00 
G01 X72.5875 Y37.6 Z255 F20.00 
G01 X76.1875 Y37.6 Z0 F80.00 
G01 X80.2375 Y37.6 Z255 F20.00 
G01 X80.275 Y37.6 Z0 F80.00 
G00 X80.275 Y37.675 Z0 F80.00 
G01 X80.2375 Y37.675 Z0 F80.00 
G01 X76.1875 Y37.675 Z255 F20.00 
G01 X72.4375 Y37.675 Z0 F80.00 
G01 X72.0625 Y37.675 Z255 F20.00 
G01 X71.5375 Y37.675 Z0 F80.00 
G01 X70.0375 Y37.675 Z255 F20.00 
G01 X67.4875 Y37.675 Z0 F80.00 
G01 X67.4125 Y37.675 Z255 F20.00 
G01 X67.0375 Y37.675 Z0 F80.00 
G01 X61.7125 Y37.675 Z255 F20.00 
G01 X57.2125 Y37.675 Z0 F80.00 
G01 X37.7875 Y37.675 Z255 F20.00 
G01 X37.75 Y37.675 Z0 F80.00 
G00 X37.75 Y37.75 Z0 F80.00 
G01 X37.7875 Y37.75 Z0 F80.00 
G01 X57.0625 Y37.75 Z255 F20.00 
G01 X61.7125 Y37.75 Z0 F80.00 
G01 X66.9625 Y37.75 Z255 F20.00 
G01 X67.0375 Y37.75 Z0 F80.00 
G01 X67.1125 Y37.75 Z255 F20.00 
G01 X67.1875 Y37.75 Z0 F80.00 
G01 X67.2625 Y37.75 Z255 F20.00 
G01 X70.1125 Y37.75 Z0 F80.00 
G01 X71.4625 Y37.75 Z255 F20.00 
G01 X71.9875 Y37.75 Z0 F80.00 
G01 X72.3625 Y37.75 Z255 F20.00 
G01 X76.1875 Y37.75 Z0 F80.00 
G01 X80.2375 Y37.75 Z255 F20.00 
G01 X80.275 Y37.75 Z0 F80.00 
G00 X80.275 Y37.825 Z0 F80.00 
G01 X80.2375 Y37.825 Z0 F80.00 
G01 X76.1875 Y37.825 Z255 F20.00 
G01 X72.2875 Y37.825 Z0 F80.00 
G01 X71.9125 Y37.825 Z255 F20.00 
G01 X71.3875 Y37.825 Z0 F80.00 
G01 X70.1875 Y37.825 Z255 F20.00 
G01 X67.4125 Y37.825 Z0 F80.00 
G01 X67.2625 Y37.825 Z255 F20.00 
G01 X67.1875 Y37.825 Z0 F80.00 
G01 X61.6375 Y37.825 Z255 F20.00 
G01 X56.9125 Y37.825 Z0 F80.00 
G01 X37.7125 Y37.825 Z255 F20.00 
G01 X37.675 Y37.825 Z0 F80.00 
G00 X37.675 Y37.9 Z0 F80.00 
G01 X37.7125 Y37.9 Z0 F80.00 
G01 X56.6875 Y37.9 Z255 F20.00 
G01 X61.5625 Y37.9 Z0 F80.00 
G01 X67.1125 Y37.9 Z255 F20.00 
G01 X67.2625 Y37.9 Z0 F80.00 
G01 X67.4875 Y37.9 Z255 F20.00 
G01 X70.1875 Y37.9 Z0 F80.00 
G01 X71.3125 Y37.9 Z255 F20.00 
G01 X71.8375 Y37.9 Z0 F80.00 
G01 X72.2125 Y37.9 Z255 F20.00 
G01 X76.1875 Y37.9 Z0 F80.00 
G01 X80.2375 Y37.9 Z255 F20.00 
G01 X80.275 Y37.9 Z0 F80.00 
G00 X80.275 Y37.975 Z0 F80.00 
G01 X80.2375 Y37.975 Z0 F80.00 
G01 X76.1875 Y37.975 Z255 F20.00 
G01 X72.1375 Y37.975 Z0 F80.00 
G01 X71.7625 Y37.975 Z255 F20.00 
G01 X71.2375 Y37.975 Z0 F80.00 
G01 X70.1125 Y37.975 Z255 F20.00 
G01 X67.5625 Y37.975 Z0 F80.00 
G01 X67.3375 Y37.975 Z255 F20.00 
G01 X66.9625 Y37.975 Z0 F80.00 
G01 X61.4875 Y37.975 Z255 F20.00 
G01 X56.5375 Y37.975 Z0 F80.00 
G01 X37.7125 Y37.975 Z255 F20.00 
G01 X37.675 Y37.975 Z0 F80.00 
G00 X37.675 Y38.05 Z0 F80.00 
G01 X37.7125 Y38.05 Z0 F80.00 
G01 X56.3875 Y38.05 Z255 F20.00 
G01 X61.4125 Y38.05 Z0 F80.00 
G01 X66.8125 Y38.05 Z255 F20.00 
G01 X67.4125 Y38.05 Z0 F80.00 
G01 X67.5625 Y38.05 Z255 F20.00 
G01 X69.9625 Y38.05 Z0 F80.00 
G01 X71.0875 Y38.05 Z255 F20.00 
G01 X71.6125 Y38.05 Z0 F80.00 
G01 X72.0625 Y38.05 Z255 F20.00 
G01 X76.1125 Y38.05 Z0 F80.00 
G01 X80.1625 Y38.05 Z255 F20.00 
G01 X80.2 Y38.05 Z0 F80.00 
G00 X80.2 Y38.125 Z0 F80.00 
G01 X80.1625 Y38.125 Z0 F80.00 
G01 X76.1125 Y38.125 Z255 F20.00 
G01 X71.9125 Y38.125 Z0 F80.00 
G01 X71.5375 Y38.125 Z255 F20.00 
G01 X71.0125 Y38.125 Z0 F80.00 
G01 X69.8875 Y38.125 Z255 F20.00 
G01 X67.6375 Y38.125 Z0 F80.00 
G01 X67.4875 Y38.125 Z255 F20.00 
G01 X66.7375 Y38.125 Z0 F80.00 
G01 X61.4125 Y38.125 Z255 F20.00 
G01 X56.2375 Y38.125 Z0 F80.00 
G01 X37.7125 Y38.125 Z255 F20.00 
G01 X37.675 Y38.125 Z0 F80.00 
G00 X37.675 Y38.2 Z0 F80.00 
G01 X37.6375 Y38.2 Z0 F80.00 
G01 X56.1625 Y38.2 Z255 F20.00 
G01 X61.3375 Y38.2 Z0 F80.00 
G01 X66.5875 Y38.2 Z255 F20.00 
G01 X67.5625 Y38.2 Z0 F80.00 
G01 X67.7875 Y38.2 Z255 F20.00 
G01 X69.8125 Y38.2 Z0 F80.00 
G01 X70.9375 Y38.2 Z255 F20.00 
G01 X71.4625 Y38.2 Z0 F80.00 
G01 X71.8375 Y38.2 Z255 F20.00 
G01 X76.1125 Y38.2 Z0 F80.00 
G01 X80.1625 Y38.2 Z255 F20.00 
G01 X80.2 Y38.2 Z0 F80.00 
G00 X80.2 Y38.275 Z0 F80.00 
G01 X80.1625 Y38.275 Z0 F80.00 
G01 X76.1125 Y38.275 Z255 F20.00 
G01 X71.7625 Y38.275 Z0 F80.00 
G01 X71.3875 Y38.275 Z255 F20.00 
G01 X70.8625 Y38.275 Z0 F80.00 
G01 X69.7375 Y38.275 Z255 F20.00 
G01 X67.8625 Y38.275 Z0 F80.00 
G01 X67.6375 Y38.275 Z255 F20.00 
G01 X66.3625 Y38.275 Z0 F80.00 
G01 X61.2625 Y38.275 Z255 F20.00 
G01 X56.1625 Y38.275 Z0 F80.00 
G01 X37.6375 Y38.275 Z255 F20.00 
G01 X37.6 Y38.275 Z0 F80.00 
G00 X37.6 Y38.35 Z0 F80.00 
G01 X37.6375 Y38.35 Z0 F80.00 
G01 X56.0875 Y38.35 Z255 F20.00 
G01 X61.1875 Y38.35 Z0 F80.00 
G01 X66.2125 Y38.35 Z255 F20.00 
G01 X67.7125 Y38.35 Z0 F80.00 
G01 X67.9375 Y38.35 Z255 F20.00 
G01 X69.6625 Y38.35 Z0 F80.00 
G01 X70.7875 Y38.35 Z255 F20.00 
G01 X71.3125 Y38.35 Z0 F80.00 
G01 X71.6875 Y38.35 Z255 F20.00 
G01 X76.1125 Y38.35 Z0 F80.00 
G01 X80.1625 Y38.35 Z255 F20.00 
G01 X80.2 Y38.35 Z0 F80.00 
G00 X80.2 Y38.425 Z0 F80.00 
G01 X80.1625 Y38.425 Z0 F80.00 
G01 X76.1125 Y38.425 Z255 F20.00 
G01 X71.5375 Y38.425 Z0 F80.00 
G01 X71.2375 Y38.425 Z255 F20.00 
G01 X70.7125 Y38.425 Z0 F80.00 
G01 X69.5875 Y38.425 Z255 F20.00 
G01 X68.0125 Y38.425 Z0 F80.00 
G01 X67.7875 Y38.425 Z255 F20.00 
G01 X66.0625 Y38.425 Z0 F80.00 
G01 X61.1875 Y38.425 Z255 F20.00 
G01 X56.0875 Y38.425 Z0 F80.00 
G01 X37.6375 Y38.425 Z255 F20.00 
G01 X37.6 Y38.425 Z0 F80.00 
G00 X37.6 Y38.5 Z0 F80.00 
G01 X37.6375 Y38.5 Z0 F80.00 
G01 X56.0125 Y38.5 Z255 F20.00 
G01 X61.1125 Y38.5 Z0 F80.00 
G01 X65.9125 Y38.5 Z255 F20.00 
G01 X67.8625 Y38.5 Z0 F80.00 
G01 X68.0875 Y38.5 Z255 F20.00 
G01 X69.5125 Y38.5 Z0 F80.00 
G01 X70.6375 Y38.5 Z255 F20.00 
G01 X71.1625 Y38.5 Z0 F80.00 
G01 X71.4625 Y38.5 Z255 F20.00 
G01 X76.0375 Y38.5 Z0 F80.00 
G01 X80.1625 Y38.5 Z255 F20.00 
G01 X80.2 Y38.5 Z0 F80.00 
G00 X80.2 Y38.575 Z0 F80.00 
G01 X80.1625 Y38.575 Z0 F80.00 
G01 X76.0375 Y38.575 Z255 F20.00 
G01 X71.3875 Y38.575 Z0 F80.00 
G01 X71.0125 Y38.575 Z255 F20.00 
G01 X70.5625 Y38.575 Z0 F80.00 
G01 X69.3625 Y38.575 Z255 F20.00 
G01 X68.1625 Y38.575 Z0 F80.00 
G01 X67.8625 Y38.575 Z255 F20.00 
G01 X65.6875 Y38.575 Z0 F80.00 
G01 X60.8125 Y38.575 Z255 F20.00 
G01 X55.9375 Y38.575 Z0 F80.00 
G01 X37.6375 Y38.575 Z255 F20.00 
G01 X37.6 Y38.575 Z0 F80.00 
G00 X37.6 Y38.65 Z0 F80.00 
G01 X37.5625 Y38.65 Z0 F80.00 
G01 X55.8625 Y38.65 Z255 F20.00 
G01 X61.0375 Y38.65 Z0 F80.00 
G01 X65.5375 Y38.65 Z255 F20.00 
G01 X67.9375 Y38.65 Z0 F80.00 
G01 X68.2375 Y38.65 Z255 F20.00 
G01 X69.2875 Y38.65 Z0 F80.00 
G01 X70.4875 Y38.65 Z255 F20.00 
G01 X70.9375 Y38.65 Z0 F80.00 
G01 X71.3125 Y38.65 Z255 F20.00 
G01 X76.0375 Y38.65 Z0 F80.00 
G01 X80.1625 Y38.65 Z255 F20.00 
G01 X80.2 Y38.65 Z0 F80.00 
G00 X80.2 Y38.725 Z0 F80.00 
G01 X80.1625 Y38.725 Z0 F80.00 
G01 X76.0375 Y38.725 Z255 F20.00 
G01 X71.3875 Y38.725 Z0 F80.00 
G01 X70.8625 Y38.725 Z255 F20.00 
G01 X70.3375 Y38.725 Z0 F80.00 
G01 X69.2125 Y38.725 Z255 F20.00 
G01 X68.3125 Y38.725 Z0 F80.00 
G01 X68.0125 Y38.725 Z255 F20.00 
G01 X65.3875 Y38.725 Z0 F80.00 
G01 X60.9625 Y38.725 Z255 F20.00 
G01 X55.8625 Y38.725 Z0 F80.00 
G01 X37.4875 Y38.725 Z255 F20.00 
G01 X37.45 Y38.725 Z0 F80.00 
G00 X37.45 Y38.8 Z0 F80.00 
G01 X37.4125 Y38.8 Z0 F80.00 
G01 X55.7875 Y38.8 Z255 F20.00 
G01 X57.8125 Y38.8 Z0 F80.00 
G01 X57.8875 Y38.8 Z255 F20.00 
G01 X60.8875 Y38.8 Z0 F80.00 
G01 X65.1625 Y38.8 Z255 F20.00 
G01 X68.0875 Y38.8 Z0 F80.00 
G01 X68.3875 Y38.8 Z255 F20.00 
G01 X69.1375 Y38.8 Z0 F80.00 
G01 X70.2625 Y38.8 Z255 F20.00 
G01 X70.7875 Y38.8 Z0 F80.00 
G01 X71.0125 Y38.8 Z255 F20.00 
G01 X71.1625 Y38.8 Z0 F80.00 
G01 X71.4625 Y38.8 Z255 F20.00 
G01 X76.0375 Y38.8 Z0 F80.00 
G01 X80.1625 Y38.8 Z255 F20.00 
G01 X80.2 Y38.8 Z0 F80.00 
G00 X80.2 Y38.875 Z0 F80.00 
G01 X80.1625 Y38.875 Z0 F80.00 
G01 X75.9625 Y38.875 Z255 F20.00 
G01 X71.4625 Y38.875 Z0 F80.00 
G01 X71.2375 Y38.875 Z255 F20.00 
G01 X70.9375 Y38.875 Z0 F80.00 
G01 X70.7125 Y38.875 Z255 F20.00 
G01 X70.1875 Y38.875 Z0 F80.00 
G01 X69.0625 Y38.875 Z255 F20.00 
G01 X68.4625 Y38.875 Z0 F80.00 
G01 X68.1625 Y38.875 Z255 F20.00 
G01 X65.0125 Y38.875 Z0 F80.00 
G01 X60.8125 Y38.875 Z255 F20.00 
G01 X55.7125 Y38.875 Z0 F80.00 
G01 X37.3375 Y38.875 Z255 F20.00 
G01 X37.3 Y38.875 Z0 F80.00 
G00 X37.3 Y38.95 Z0 F80.00 
G01 X37.1875 Y38.95 Z0 F80.00 
G01 X55.7125 Y38.95 Z255 F20.00 
G01 X59.8375 Y38.95 Z0 F80.00 
G01 X59.9875 Y38.95 Z255 F20.00 
G01 X60.7375 Y38.95 Z0 F80.00 
G01 X65.0875 Y38.95 Z255 F20.00 
G01 X68.2375 Y38.95 Z0 F80.00 
G01 X68.5375 Y38.95 Z255 F20.00 
G01 X68.9125 Y38.95 Z0 F80.00 
G01 X70.1125 Y38.95 Z255 F20.00 
G01 X70.6375 Y38.95 Z0 F80.00 
G01 X70.7875 Y38.95 Z255 F20.00 
G01 X71.3125 Y38.95 Z0 F80.00 
G01 X71.5375 Y38.95 Z255 F20.00 
G01 X75.9625 Y38.95 Z0 F80.00 
G01 X80.1625 Y38.95 Z255 F20.00 
G01 X80.2 Y38.95 Z0 F80.00 
G00 X80.2 Y39.025 Z0 F80.00 
G01 X80.1625 Y39.025 Z0 F80.00 
G01 X75.9625 Y39.025 Z255 F20.00 
G01 X71.6125 Y39.025 Z0 F80.00 
G01 X71.3875 Y39.025 Z255 F20.00 
G01 X70.7125 Y39.025 Z0 F80.00 
G01 X70.4875 Y39.025 Z255 F20.00 
G01 X70.0375 Y39.025 Z0 F80.00 
G01 X68.8375 Y39.025 Z255 F20.00 
G01 X68.6125 Y39.025 Z0 F80.00 
G01 X68.3125 Y39.025 Z255 F20.00 
G01 X65.2375 Y39.025 Z0 F80.00 
G01 X59.6875 Y39.025 Z255 F20.00 
G01 X57.5125 Y39.025 Z0 F80.00 
G01 X57.4375 Y39.025 Z255 F20.00 
G01 X55.6375 Y39.025 Z0 F80.00 
G01 X37.1125 Y39.025 Z255 F20.00 
G01 X37.075 Y39.025 Z0 F80.00 
G00 X37.075 Y39.1 Z0 F80.00 
G01 X36.9625 Y39.1 Z0 F80.00 
G01 X55.6375 Y39.1 Z255 F20.00 
G01 X57.4375 Y39.1 Z0 F80.00 
G01 X57.5875 Y39.1 Z255 F20.00 
G01 X59.4625 Y39.1 Z0 F80.00 
G01 X63.8875 Y39.1 Z255 F20.00 
G01 X64.1875 Y39.1 Z0 F80.00 
G01 X65.3125 Y39.1 Z255 F20.00 
G01 X68.3875 Y39.1 Z0 F80.00 
G01 X68.6875 Y39.1 Z255 F20.00 
G01 X68.7625 Y39.1 Z0 F80.00 
G01 X69.8875 Y39.1 Z255 F20.00 
G01 X70.4125 Y39.1 Z0 F80.00 
G01 X70.6375 Y39.1 Z255 F20.00 
G01 X71.3875 Y39.1 Z0 F80.00 
G01 X71.6875 Y39.1 Z255 F20.00 
G01 X75.9625 Y39.1 Z0 F80.00 
G01 X80.1625 Y39.1 Z255 F20.00 
G01 X80.2 Y39.1 Z0 F80.00 
G00 X80.2 Y39.175 Z0 F80.00 
G01 X80.1625 Y39.175 Z0 F80.00 
G01 X75.8875 Y39.175 Z255 F20.00 
G01 X71.7625 Y39.175 Z0 F80.00 
G01 X71.4625 Y39.175 Z255 F20.00 
G01 X70.4875 Y39.175 Z0 F80.00 
G01 X70.3375 Y39.175 Z255 F20.00 
G01 X69.8125 Y39.175 Z0 F80.00 
G01 X68.4625 Y39.175 Z255 F20.00 
G01 X65.3875 Y39.175 Z0 F80.00 
G01 X64.2625 Y39.175 Z255 F20.00 
G01 X64.1875 Y39.175 Z0 F80.00 
G01 X64.0375 Y39.175 Z255 F20.00 
G01 X63.5125 Y39.175 Z0 F80.00 
G01 X59.1625 Y39.175 Z255 F20.00 
G01 X57.7375 Y39.175 Z0 F80.00 
G01 X57.5125 Y39.175 Z255 F20.00 
G01 X57.2125 Y39.175 Z0 F80.00 
G01 X57.0625 Y39.175 Z255 F20.00 
G01 X55.5625 Y39.175 Z0 F80.00 
G01 X53.0875 Y39.175 Z255 F20.00 
G01 X53.0125 Y39.175 Z0 F80.00 
G01 X36.8875 Y39.175 Z255 F20.00 
G01 X36.85 Y39.175 Z0 F80.00 
G00 X36.85 Y39.25 Z0 F80.00 
G01 X36.7375 Y39.25 Z0 F80.00 
G01 X52.8625 Y39.25 Z255 F20.00 
G01 X53.0875 Y39.25 Z0 F80.00 
G01 X55.5625 Y39.25 Z255 F20.00 
G01 X57.1375 Y39.25 Z0 F80.00 
G01 X57.3625 Y39.25 Z255 F20.00 
G01 X57.6625 Y39.25 Z0 F80.00 
G01 X57.8125 Y39.25 Z255 F20.00 
G01 X59.0875 Y39.25 Z0 F80.00 
G01 X63.5125 Y39.25 Z255 F20.00 
G01 X64.3375 Y39.25 Z0 F80.00 
G01 X65.4625 Y39.25 Z255 F20.00 
G01 X68.5375 Y39.25 Z0 F80.00 
G01 X69.7375 Y39.25 Z255 F20.00 
G01 X70.1875 Y39.25 Z0 F80.00 
G01 X70.3375 Y39.25 Z255 F20.00 
G01 X71.5375 Y39.25 Z0 F80.00 
G01 X71.7625 Y39.25 Z255 F20.00 
G01 X75.8875 Y39.25 Z0 F80.00 
G01 X80.1625 Y39.25 Z255 F20.00 
G01 X80.2 Y39.25 Z0 F80.00 
G00 X80.2 Y39.325 Z0 F80.00 
G01 X80.1625 Y39.325 Z0 F80.00 
G01 X75.8875 Y39.325 Z255 F20.00 
G01 X71.8375 Y39.325 Z0 F80.00 
G01 X71.6125 Y39.325 Z255 F20.00 
G01 X69.6625 Y39.325 Z0 F80.00 
G01 X68.4625 Y39.325 Z255 F20.00 
G01 X65.5375 Y39.325 Z0 F80.00 
G01 X64.4125 Y39.325 Z255 F20.00 
G01 X63.6625 Y39.325 Z0 F80.00 
G01 X63.4375 Y39.325 Z255 F20.00 
G01 X63.2125 Y39.325 Z0 F80.00 
G01 X59.0125 Y39.325 Z255 F20.00 
G01 X57.9625 Y39.325 Z0 F80.00 
G01 X57.7375 Y39.325 Z255 F20.00 
G01 X57.5125 Y39.325 Z0 F80.00 
G01 X57.2875 Y39.325 Z255 F20.00 
G01 X55.5625 Y39.325 Z0 F80.00 
G01 X53.3125 Y39.325 Z255 F20.00 
G01 X53.1625 Y39.325 Z0 F80.00 
G01 X53.0125 Y39.325 Z255 F20.00 
G01 X52.8625 Y39.325 Z0 F80.00 
G01 X36.5875 Y39.325 Z255 F20.00 
G01 X36.55 Y39.325 Z0 F80.00 
G00 X36.55 Y39.4 Z0 F80.00 
G01 X36.4375 Y39.4 Z0 F80.00 
G01 X52.8625 Y39.4 Z255 F20.00 
G01 X52.9375 Y39.4 Z0 F80.00 
G01 X53.1625 Y39.4 Z255 F20.00 
G01 X53.2375 Y39.4 Z0 F80.00 
G01 X55.5625 Y39.4 Z255 F20.00 
G01 X57.3625 Y39.4 Z0 F80.00 
G01 X57.7375 Y39.4 Z255 F20.00 
G01 X58.9375 Y39.4 Z0 F80.00 
G01 X63.3625 Y39.4 Z255 F20.00 
G01 X63.5875 Y39.4 Z0 F80.00 
G01 X63.7375 Y39.4 Z255 F20.00 
G01 X64.4875 Y39.4 Z0 F80.00 
G01 X65.6875 Y39.4 Z255 F20.00 
G01 X68.3875 Y39.4 Z0 F80.00 
G01 X69.5125 Y39.4 Z255 F20.00 
G01 X71.6875 Y39.4 Z0 F80.00 
G01 X71.9125 Y39.4 Z255 F20.00 
G01 X75.8875 Y39.4 Z0 F80.00 
G01 X80.1625 Y39.4 Z255 F20.00 
G01 X80.2 Y39.4 Z0 F80.00 
G00 X80.2 Y39.475 Z0 F80.00 
G01 X80.1625 Y39.475 Z0 F80.00 
G01 X75.8875 Y39.475 Z255 F20.00 
G01 X71.9875 Y39.475 Z0 F80.00 
G01 X71.7625 Y39.475 Z255 F20.00 
G01 X69.4375 Y39.475 Z0 F80.00 
G01 X68.2375 Y39.475 Z255 F20.00 
G01 X65.7625 Y39.475 Z0 F80.00 
G01 X64.5625 Y39.475 Z255 F20.00 
G01 X63.8125 Y39.475 Z0 F80.00 
G01 X63.7375 Y39.475 Z255 F20.00 
G01 X63.4375 Y39.475 Z0 F80.00 
G01 X58.9375 Y39.475 Z255 F20.00 
G01 X57.8125 Y39.475 Z0 F80.00 
G01 X57.5125 Y39.475 Z255 F20.00 
G01 X55.4875 Y39.475 Z0 F80.00 
G01 X52.9375 Y39.475 Z255 F20.00 
G01 X52.8625 Y39.475 Z0 F80.00 
G01 X36.2875 Y39.475 Z255 F20.00 
G01 X36.25 Y39.475 Z0 F80.00 
G00 X36.25 Y39.55 Z0 F80.00 
G01 X36.1375 Y39.55 Z0 F80.00 
G01 X41.0875 Y39.55 Z255 F20.00 
G01 X41.2375 Y39.55 Z0 F80.00 
G01 X52.8625 Y39.55 Z255 F20.00 
G01 X52.9375 Y39.55 Z0 F80.00 
G01 X55.4875 Y39.55 Z255 F20.00 
G01 X56.8375 Y39.55 Z0 F80.00 
G01 X56.9125 Y39.55 Z255 F20.00 
G01 X57.5875 Y39.55 Z0 F80.00 
G01 X57.8875 Y39.55 Z255 F20.00 
G01 X58.8625 Y39.55 Z0 F80.00 
G01 X63.5125 Y39.55 Z255 F20.00 
G01 X64.6375 Y39.55 Z0 F80.00 
G01 X65.8375 Y39.55 Z255 F20.00 
G01 X68.1625 Y39.55 Z0 F80.00 
G01 X69.3625 Y39.55 Z255 F20.00 
G01 X71.7625 Y39.55 Z0 F80.00 
G01 X71.9875 Y39.55 Z255 F20.00 
G01 X75.8125 Y39.55 Z0 F80.00 
G01 X80.0875 Y39.55 Z255 F20.00 
G01 X80.125 Y39.55 Z0 F80.00 
G00 X80.125 Y39.625 Z0 F80.00 
G01 X80.0875 Y39.625 Z0 F80.00 
G01 X75.8125 Y39.625 Z255 F20.00 
G01 X72.0625 Y39.625 Z0 F80.00 
G01 X71.8375 Y39.625 Z255 F20.00 
G01 X69.2125 Y39.625 Z0 F80.00 
G01 X68.0875 Y39.625 Z255 F20.00 
G01 X65.9125 Y39.625 Z0 F80.00 
G01 X64.6375 Y39.625 Z255 F20.00 
G01 X63.7375 Y39.625 Z0 F80.00 
G01 X58.7125 Y39.625 Z255 F20.00 
G01 X57.9625 Y39.625 Z0 F80.00 
G01 X57.7375 Y39.625 Z255 F20.00 
G01 X57.0625 Y39.625 Z0 F80.00 
G01 X56.9125 Y39.625 Z255 F20.00 
G01 X55.4875 Y39.625 Z0 F80.00 
G01 X53.3125 Y39.625 Z255 F20.00 
G01 X53.2375 Y39.625 Z0 F80.00 
G01 X52.9375 Y39.625 Z255 F20.00 
G01 X52.8625 Y39.625 Z0 F80.00 
G01 X41.2375 Y39.625 Z255 F20.00 
G01 X40.9375 Y39.625 Z0 F80.00 
G01 X35.9875 Y39.625 Z255 F20.00 
G01 X35.95 Y39.625 Z0 F80.00 
G00 X35.95 Y39.7 Z0 F80.00 
G01 X35.8375 Y39.7 Z0 F80.00 
G01 X40.7125 Y39.7 Z255 F20.00 
G01 X41.1625 Y39.7 Z0 F80.00 
G01 X52.8625 Y39.7 Z255 F20.00 
G01 X53.0125 Y39.7 Z0 F80.00 
G01 X55.4875 Y39.7 Z255 F20.00 
G01 X56.9875 Y39.7 Z0 F80.00 
G01 X57.2875 Y39.7 Z255 F20.00 
G01 X58.6375 Y39.7 Z0 F80.00 
G01 X63.8125 Y39.7 Z255 F20.00 
G01 X64.6375 Y39.7 Z0 F80.00 
G01 X65.9875 Y39.7 Z255 F20.00 
G01 X67.9375 Y39.7 Z0 F80.00 
G01 X69.1375 Y39.7 Z255 F20.00 
G01 X71.9125 Y39.7 Z0 F80.00 
G01 X72.1375 Y39.7 Z255 F20.00 
G01 X75.8125 Y39.7 Z0 F80.00 
G01 X80.0875 Y39.7 Z255 F20.00 
G01 X80.125 Y39.7 Z0 F80.00 
G00 X80.125 Y39.775 Z0 F80.00 
G01 X80.0875 Y39.775 Z0 F80.00 
G01 X75.8125 Y39.775 Z255 F20.00 
G01 X72.1375 Y39.775 Z0 F80.00 
G01 X71.9875 Y39.775 Z255 F20.00 
G01 X69.0625 Y39.775 Z0 F80.00 
G01 X67.8625 Y39.775 Z255 F20.00 
G01 X66.0625 Y39.775 Z0 F80.00 
G01 X64.8625 Y39.775 Z255 F20.00 
G01 X64.7875 Y39.775 Z0 F80.00 
G01 X64.6375 Y39.775 Z255 F20.00 
G01 X63.9625 Y39.775 Z0 F80.00 
G01 X58.6375 Y39.775 Z255 F20.00 
G01 X57.5125 Y39.775 Z0 F80.00 
G01 X57.0625 Y39.775 Z255 F20.00 
G01 X55.4875 Y39.775 Z0 F80.00 
G01 X55.3375 Y39.775 Z255 F20.00 
G01 X55.2625 Y39.775 Z0 F80.00 
G01 X53.0125 Y39.775 Z255 F20.00 
G01 X52.8625 Y39.775 Z0 F80.00 
G01 X41.1625 Y39.775 Z255 F20.00 
G01 X40.4875 Y39.775 Z0 F80.00 
G01 X35.6875 Y39.775 Z255 F20.00 
G01 X35.65 Y39.775 Z0 F80.00 
G00 X35.65 Y39.85 Z0 F80.00 
G01 X35.4625 Y39.85 Z0 F80.00 
G01 X40.1875 Y39.85 Z255 F20.00 
G01 X41.1625 Y39.85 Z0 F80.00 
G01 X52.8625 Y39.85 Z255 F20.00 
G01 X53.0125 Y39.85 Z0 F80.00 
G01 X55.1125 Y39.85 Z255 F20.00 
G01 X55.3375 Y39.85 Z0 F80.00 
G01 X55.5625 Y39.85 Z255 F20.00 
G01 X57.1375 Y39.85 Z0 F80.00 
G01 X57.6625 Y39.85 Z255 F20.00 
G01 X58.5625 Y39.85 Z0 F80.00 
G01 X62.6875 Y39.85 Z255 F20.00 
G01 X62.8375 Y39.85 Z0 F80.00 
G01 X64.0375 Y39.85 Z255 F20.00 
G01 X64.7125 Y39.85 Z0 F80.00 
G01 X64.7875 Y39.85 Z255 F20.00 
G01 X64.9375 Y39.85 Z0 F80.00 
G01 X66.1375 Y39.85 Z255 F20.00 
G01 X67.7875 Y39.85 Z0 F80.00 
G01 X68.9125 Y39.85 Z255 F20.00 
G01 X71.3875 Y39.85 Z0 F80.00 
G01 X71.5375 Y39.85 Z255 F20.00 
G01 X71.9875 Y39.85 Z0 F80.00 
G01 X72.2125 Y39.85 Z255 F20.00 
G01 X75.8125 Y39.85 Z0 F80.00 
G01 X80.0875 Y39.85 Z255 F20.00 
G01 X80.125 Y39.85 Z0 F80.00 
G00 X80.125 Y39.925 Z0 F80.00 
G01 X80.0875 Y39.925 Z0 F80.00 
G01 X75.8125 Y39.925 Z255 F20.00 
G01 X72.2125 Y39.925 Z0 F80.00 
G01 X72.0625 Y39.925 Z255 F20.00 
G01 X71.5375 Y39.925 Z0 F80.00 
G01 X71.4625 Y39.925 Z255 F20.00 
G01 X68.8375 Y39.925 Z0 F80.00 
G01 X67.6375 Y39.925 Z255 F20.00 
G01 X66.2125 Y39.925 Z0 F80.00 
G01 X65.0125 Y39.925 Z255 F20.00 
G01 X64.8625 Y39.925 Z0 F80.00 
G01 X64.7125 Y39.925 Z255 F20.00 
G01 X64.1125 Y39.925 Z0 F80.00 
