#############################################################
###########Gcode generated with PenImg.py V0.1#############
######written by Nick Sidney Lemberger aka Holysocks#########
#############################################################

wz 
X30.0 Y30.0 



F80.0 


G00 X30.0 Y30.0 Z0 F80.00 
G01 X40.905 Y30.0 Z1 
G01 X41.415 Y30.0 Z-1 
G01 X41.43 Y30.0 Z1 
G00 X41.43 Y30.03 Z1 
G01 X41.415 Y30.03 Z1 
G01 X40.395 Y30.03 Z-1 
G01 X40.38 Y30.03 Z1 
G00 X40.38 Y30.06 Z1 
G01 X40.095 Y30.06 Z1 
G01 X41.415 Y30.06 Z-1 
G01 X41.43 Y30.06 Z1 
G00 X41.43 Y30.09 Z1 
G01 X41.415 Y30.09 Z1 
G01 X39.825 Y30.09 Z-1 
G01 X39.81 Y30.09 Z1 
G00 X39.81 Y30.12 Z1 
G01 X39.615 Y30.12 Z1 
G01 X41.415 Y30.12 Z-1 
G01 X41.43 Y30.12 Z1 
G00 X41.43 Y30.15 Z1 
G01 X41.415 Y30.15 Z1 
G01 X39.435 Y30.15 Z-1 
G01 X39.42 Y30.15 Z1 
G00 X39.42 Y30.18 Z1 
G01 X39.255 Y30.18 Z1 
G01 X41.415 Y30.18 Z-1 
G01 X41.43 Y30.18 Z1 
G00 X41.43 Y30.21 Z1 
G01 X41.415 Y30.21 Z1 
G01 X39.105 Y30.21 Z-1 
G01 X39.09 Y30.21 Z1 
G00 X39.09 Y30.24 Z1 
G01 X38.955 Y30.24 Z1 
G01 X41.415 Y30.24 Z-1 
G01 X41.43 Y30.24 Z1 
G00 X41.43 Y30.27 Z1 
G01 X41.415 Y30.27 Z1 
G01 X38.835 Y30.27 Z-1 
G01 X38.82 Y30.27 Z1 
G00 X38.82 Y30.3 Z1 
G01 X38.685 Y30.3 Z1 
G01 X41.415 Y30.3 Z-1 
G01 X41.43 Y30.3 Z1 
G00 X41.43 Y30.33 Z1 
G01 X41.415 Y30.33 Z1 
G01 X38.565 Y30.33 Z-1 
G01 X38.55 Y30.33 Z1 
G00 X38.55 Y30.36 Z1 
G01 X38.475 Y30.36 Z1 
G01 X41.415 Y30.36 Z-1 
G01 X41.43 Y30.36 Z1 
G00 X41.43 Y30.39 Z1 
G01 X41.415 Y30.39 Z1 
G01 X38.355 Y30.39 Z-1 
G01 X38.34 Y30.39 Z1 
G00 X38.34 Y30.42 Z1 
G01 X38.235 Y30.42 Z1 
G01 X41.415 Y30.42 Z-1 
G01 X41.43 Y30.42 Z1 
G00 X41.43 Y30.45 Z1 
G01 X41.415 Y30.45 Z1 
G01 X38.145 Y30.45 Z-1 
G01 X38.13 Y30.45 Z1 
G00 X38.13 Y30.48 Z1 
G01 X38.025 Y30.48 Z1 
G01 X41.415 Y30.48 Z-1 
G01 X41.43 Y30.48 Z1 
G00 X41.43 Y30.51 Z1 
G01 X41.415 Y30.51 Z1 
G01 X37.935 Y30.51 Z-1 
G01 X37.92 Y30.51 Z1 
G00 X37.92 Y30.54 Z1 
G01 X37.845 Y30.54 Z1 
G01 X41.415 Y30.54 Z-1 
G01 X41.43 Y30.54 Z1 
G00 X41.43 Y30.57 Z1 
G01 X41.415 Y30.57 Z1 
G01 X37.755 Y30.57 Z-1 
G01 X37.74 Y30.57 Z1 
G00 X37.74 Y30.6 Z1 
G01 X37.665 Y30.6 Z1 
G01 X41.415 Y30.6 Z-1 
G01 X41.43 Y30.6 Z1 
G00 X41.43 Y30.63 Z1 
G01 X41.415 Y30.63 Z1 
G01 X37.575 Y30.63 Z-1 
G01 X37.56 Y30.63 Z1 
G00 X37.56 Y30.66 Z1 
G01 X37.485 Y30.66 Z1 
G01 X41.415 Y30.66 Z-1 
G01 X41.43 Y30.66 Z1 
G00 X41.43 Y30.69 Z1 
G01 X41.415 Y30.69 Z1 
G01 X37.395 Y30.69 Z-1 
G01 X37.38 Y30.69 Z1 
G00 X37.38 Y30.72 Z1 
G01 X37.335 Y30.72 Z1 
G01 X41.415 Y30.72 Z-1 
G01 X41.43 Y30.72 Z1 
G00 X41.43 Y30.75 Z1 
G01 X41.415 Y30.75 Z1 
G01 X37.245 Y30.75 Z-1 
G01 X37.23 Y30.75 Z1 
G00 X37.23 Y30.78 Z1 
G01 X37.185 Y30.78 Z1 
G01 X41.415 Y30.78 Z-1 
G01 X41.43 Y30.78 Z1 
G00 X41.43 Y30.81 Z1 
G01 X41.415 Y30.81 Z1 
G01 X37.095 Y30.81 Z-1 
G01 X37.08 Y30.81 Z1 
G00 X37.08 Y30.84 Z1 
G01 X37.035 Y30.84 Z1 
G01 X41.415 Y30.84 Z-1 
G01 X41.43 Y30.84 Z1 
G00 X41.43 Y30.87 Z1 
G01 X41.415 Y30.87 Z1 
G01 X36.945 Y30.87 Z-1 
G01 X36.93 Y30.87 Z1 
G00 X36.93 Y30.9 Z1 
G01 X36.885 Y30.9 Z1 
G01 X41.415 Y30.9 Z-1 
G01 X41.43 Y30.9 Z1 
G00 X41.43 Y30.93 Z1 
G01 X41.415 Y30.93 Z1 
G01 X36.825 Y30.93 Z-1 
G01 X36.81 Y30.93 Z1 
G00 X36.81 Y30.96 Z1 
G01 X36.735 Y30.96 Z1 
G01 X41.415 Y30.96 Z-1 
G01 X41.43 Y30.96 Z1 
G00 X41.43 Y30.99 Z1 
G01 X41.415 Y30.99 Z1 
G01 X36.675 Y30.99 Z-1 
G01 X36.66 Y30.99 Z1 
G00 X36.66 Y31.02 Z1 
G01 X36.615 Y31.02 Z1 
G01 X41.415 Y31.02 Z-1 
G01 X41.43 Y31.02 Z1 
G00 X41.43 Y31.05 Z1 
G01 X41.415 Y31.05 Z1 
G01 X36.555 Y31.05 Z-1 
G01 X36.54 Y31.05 Z1 
G00 X36.54 Y31.08 Z1 
G01 X36.495 Y31.08 Z1 
G01 X41.415 Y31.08 Z-1 
G01 X41.43 Y31.08 Z1 
G00 X41.43 Y31.11 Z1 
G01 X41.415 Y31.11 Z1 
G01 X36.405 Y31.11 Z-1 
G01 X36.39 Y31.11 Z1 
G00 X36.39 Y31.14 Z1 
G01 X36.345 Y31.14 Z1 
G01 X41.415 Y31.14 Z-1 
G01 X41.43 Y31.14 Z1 
G00 X41.43 Y31.17 Z1 
G01 X41.415 Y31.17 Z1 
G01 X36.285 Y31.17 Z-1 
G01 X36.27 Y31.17 Z1 
G00 X36.27 Y31.2 Z1 
G01 X36.225 Y31.2 Z1 
G01 X41.415 Y31.2 Z-1 
G01 X41.43 Y31.2 Z1 
G00 X41.43 Y31.23 Z1 
G01 X41.415 Y31.23 Z1 
G01 X36.195 Y31.23 Z-1 
G01 X36.18 Y31.23 Z1 
G00 X36.18 Y31.26 Z1 
G01 X36.195 Y31.26 Z1 
G01 X41.415 Y31.26 Z-1 
G01 X41.43 Y31.26 Z1 
G00 X41.43 Y31.29 Z1 
G01 X41.415 Y31.29 Z1 
G01 X36.225 Y31.29 Z-1 
G01 X36.21 Y31.29 Z1 
G00 X36.21 Y31.32 Z1 
G01 X36.225 Y31.32 Z1 
G01 X41.415 Y31.32 Z-1 
G01 X41.43 Y31.32 Z1 
G00 X41.43 Y31.35 Z1 
G01 X41.415 Y31.35 Z1 
G01 X36.255 Y31.35 Z-1 
G01 X36.24 Y31.35 Z1 
G00 X36.24 Y31.38 Z1 
G01 X36.255 Y31.38 Z1 
G01 X41.415 Y31.38 Z-1 
G01 X41.43 Y31.38 Z1 
G00 X41.43 Y31.41 Z1 
G01 X41.415 Y31.41 Z1 
G01 X36.285 Y31.41 Z-1 
G01 X36.27 Y31.41 Z1 
G00 X36.27 Y31.44 Z1 
G01 X36.315 Y31.44 Z1 
G01 X41.415 Y31.44 Z-1 
G01 X41.43 Y31.44 Z1 
G00 X41.43 Y31.47 Z1 
G01 X41.415 Y31.47 Z1 
G01 X36.315 Y31.47 Z-1 
G01 X36.3 Y31.47 Z1 
G00 X36.3 Y31.5 Z1 
G01 X36.345 Y31.5 Z1 
G01 X41.415 Y31.5 Z-1 
G01 X41.43 Y31.5 Z1 
G00 X41.43 Y31.53 Z1 
G01 X41.415 Y31.53 Z1 
G01 X36.345 Y31.53 Z-1 
G01 X36.33 Y31.53 Z1 
G00 X36.33 Y31.56 Z1 
G01 X36.375 Y31.56 Z1 
G01 X41.415 Y31.56 Z-1 
G01 X41.43 Y31.56 Z1 
G00 X41.43 Y31.59 Z1 
G01 X41.415 Y31.59 Z1 
G01 X36.375 Y31.59 Z-1 
G01 X36.36 Y31.59 Z1 
G00 X36.36 Y31.62 Z1 
G01 X36.405 Y31.62 Z1 
G01 X41.415 Y31.62 Z-1 
G01 X41.43 Y31.62 Z1 
G00 X41.43 Y31.65 Z1 
G01 X41.415 Y31.65 Z1 
G01 X36.405 Y31.65 Z-1 
G01 X36.39 Y31.65 Z1 
G00 X36.39 Y31.68 Z1 
G01 X36.435 Y31.68 Z1 
G01 X41.415 Y31.68 Z-1 
G01 X41.43 Y31.68 Z1 
G00 X41.43 Y31.71 Z1 
G01 X41.415 Y31.71 Z1 
G01 X36.435 Y31.71 Z-1 
G01 X36.42 Y31.71 Z1 
G00 X36.42 Y31.74 Z1 
G01 X36.465 Y31.74 Z1 
G01 X41.415 Y31.74 Z-1 
G01 X41.43 Y31.74 Z1 
G00 X41.43 Y31.77 Z1 
G01 X41.415 Y31.77 Z1 
G01 X36.465 Y31.77 Z-1 
G01 X36.45 Y31.77 Z1 
G00 X36.45 Y31.8 Z1 
G01 X36.495 Y31.8 Z1 
G01 X41.415 Y31.8 Z-1 
G01 X41.43 Y31.8 Z1 
G00 X41.43 Y31.83 Z1 
G01 X41.415 Y31.83 Z1 
G01 X36.495 Y31.83 Z-1 
G01 X36.48 Y31.83 Z1 
G00 X36.48 Y31.86 Z1 
G01 X36.525 Y31.86 Z1 
G01 X41.415 Y31.86 Z-1 
G01 X41.43 Y31.86 Z1 
G00 X41.43 Y31.89 Z1 
G01 X41.415 Y31.89 Z1 
G01 X36.555 Y31.89 Z-1 
G01 X36.54 Y31.89 Z1 
G00 X36.54 Y31.92 Z1 
G01 X36.555 Y31.92 Z1 
G01 X41.415 Y31.92 Z-1 
G01 X41.43 Y31.92 Z1 
G00 X41.43 Y31.95 Z1 
G01 X41.415 Y31.95 Z1 
G01 X36.585 Y31.95 Z-1 
G01 X36.57 Y31.95 Z1 
G00 X36.57 Y31.98 Z1 
G01 X36.585 Y31.98 Z1 
G01 X41.415 Y31.98 Z-1 
G01 X41.43 Y31.98 Z1 
G00 X41.43 Y32.01 Z1 
G01 X41.415 Y32.01 Z1 
G01 X36.615 Y32.01 Z-1 
G01 X36.6 Y32.01 Z1 
G00 X36.6 Y32.04 Z1 
G01 X36.615 Y32.04 Z1 
G01 X41.415 Y32.04 Z-1 
G01 X41.43 Y32.04 Z1 
G00 X41.43 Y32.07 Z1 
G01 X41.415 Y32.07 Z1 
G01 X36.645 Y32.07 Z-1 
G01 X36.63 Y32.07 Z1 
G00 X36.63 Y32.1 Z1 
G01 X36.645 Y32.1 Z1 
G01 X41.415 Y32.1 Z-1 
G01 X41.43 Y32.1 Z1 
G00 X41.43 Y32.13 Z1 
G01 X41.415 Y32.13 Z1 
G01 X36.675 Y32.13 Z-1 
G01 X36.66 Y32.13 Z1 
G00 X36.66 Y32.16 Z1 
G01 X36.675 Y32.16 Z1 
G01 X41.415 Y32.16 Z-1 
G01 X41.43 Y32.16 Z1 
G00 X41.43 Y32.19 Z1 
G01 X41.415 Y32.19 Z1 
G01 X36.705 Y32.19 Z-1 
G01 X36.69 Y32.19 Z1 
G00 X36.69 Y32.22 Z1 
G01 X36.705 Y32.22 Z1 
G01 X41.415 Y32.22 Z-1 
G01 X41.43 Y32.22 Z1 
G00 X41.43 Y32.25 Z1 
G01 X41.415 Y32.25 Z1 
G01 X36.735 Y32.25 Z-1 
G01 X36.72 Y32.25 Z1 
G00 X36.72 Y32.28 Z1 
G01 X36.735 Y32.28 Z1 
G01 X41.415 Y32.28 Z-1 
G01 X41.43 Y32.28 Z1 
G00 X41.43 Y32.31 Z1 
G01 X41.415 Y32.31 Z1 
G01 X36.765 Y32.31 Z-1 
G01 X36.75 Y32.31 Z1 
G00 X36.75 Y32.34 Z1 
G01 X36.765 Y32.34 Z1 
G01 X41.415 Y32.34 Z-1 
G01 X41.43 Y32.34 Z1 
G00 X41.43 Y32.37 Z1 
G01 X41.415 Y32.37 Z1 
G01 X36.795 Y32.37 Z-1 
G01 X36.78 Y32.37 Z1 
G00 X36.78 Y32.4 Z1 
G01 X36.825 Y32.4 Z1 
G01 X41.415 Y32.4 Z-1 
G01 X41.43 Y32.4 Z1 
G00 X41.43 Y32.43 Z1 
G01 X41.415 Y32.43 Z1 
G01 X36.825 Y32.43 Z-1 
G01 X36.81 Y32.43 Z1 
G00 X36.81 Y32.46 Z1 
G01 X36.855 Y32.46 Z1 
G01 X41.415 Y32.46 Z-1 
G01 X41.43 Y32.46 Z1 
G00 X41.43 Y32.49 Z1 
G01 X41.415 Y32.49 Z1 
G01 X36.855 Y32.49 Z-1 
G01 X36.84 Y32.49 Z1 
G00 X36.84 Y32.52 Z1 
G01 X36.885 Y32.52 Z1 
G01 X41.415 Y32.52 Z-1 
G01 X41.43 Y32.52 Z1 
G00 X41.43 Y32.55 Z1 
G01 X41.415 Y32.55 Z1 
G01 X36.885 Y32.55 Z-1 
G01 X36.87 Y32.55 Z1 
G00 X36.87 Y32.58 Z1 
G01 X36.915 Y32.58 Z1 
G01 X41.415 Y32.58 Z-1 
G01 X41.43 Y32.58 Z1 
G00 X41.43 Y32.61 Z1 
G01 X41.415 Y32.61 Z1 
G01 X36.915 Y32.61 Z-1 
G01 X36.9 Y32.61 Z1 
G00 X36.9 Y32.64 Z1 
G01 X36.945 Y32.64 Z1 
G01 X41.415 Y32.64 Z-1 
G01 X41.43 Y32.64 Z1 
G00 X41.43 Y32.67 Z1 
G01 X41.415 Y32.67 Z1 
G01 X36.945 Y32.67 Z-1 
G01 X36.93 Y32.67 Z1 
G00 X36.93 Y32.7 Z1 
G01 X36.975 Y32.7 Z1 
G01 X41.415 Y32.7 Z-1 
G01 X41.43 Y32.7 Z1 
G00 X41.43 Y32.73 Z1 
G01 X41.415 Y32.73 Z1 
G01 X36.975 Y32.73 Z-1 
G01 X36.96 Y32.73 Z1 
G00 X36.96 Y32.76 Z1 
G01 X37.005 Y32.76 Z1 
G01 X41.415 Y32.76 Z-1 
G01 X41.43 Y32.76 Z1 
G00 X41.43 Y32.79 Z1 
G01 X41.415 Y32.79 Z1 
G01 X37.005 Y32.79 Z-1 
G01 X36.99 Y32.79 Z1 
G00 X36.99 Y32.82 Z1 
G01 X37.035 Y32.82 Z1 
G01 X41.415 Y32.82 Z-1 
G01 X41.43 Y32.82 Z1 
G00 X41.43 Y32.85 Z1 
G01 X41.415 Y32.85 Z1 
G01 X37.065 Y32.85 Z-1 
G01 X37.05 Y32.85 Z1 
G00 X37.05 Y32.88 Z1 
G01 X37.065 Y32.88 Z1 
G01 X41.415 Y32.88 Z-1 
G01 X41.43 Y32.88 Z1 
G00 X41.43 Y32.91 Z1 
G01 X41.415 Y32.91 Z1 
G01 X37.095 Y32.91 Z-1 
G01 X37.08 Y32.91 Z1 
G00 X37.08 Y32.94 Z1 
G01 X37.095 Y32.94 Z1 
G01 X41.415 Y32.94 Z-1 
G01 X41.43 Y32.94 Z1 
G00 X41.43 Y32.97 Z1 
G01 X41.415 Y32.97 Z1 
G01 X37.125 Y32.97 Z-1 
G01 X37.11 Y32.97 Z1 
G00 X37.11 Y33.0 Z1 
G01 X37.125 Y33.0 Z1 
G01 X41.415 Y33.0 Z-1 
G01 X41.43 Y33.0 Z1 
G00 X41.43 Y33.03 Z1 
G01 X41.415 Y33.03 Z1 
G01 X37.155 Y33.03 Z-1 
G01 X37.14 Y33.03 Z1 
G00 X37.14 Y33.06 Z1 
G01 X37.155 Y33.06 Z1 
G01 X41.415 Y33.06 Z-1 
G01 X41.43 Y33.06 Z1 
G00 X41.43 Y33.09 Z1 
G01 X41.415 Y33.09 Z1 
G01 X37.185 Y33.09 Z-1 
G01 X37.17 Y33.09 Z1 
G00 X37.17 Y33.12 Z1 
G01 X37.185 Y33.12 Z1 
G01 X41.415 Y33.12 Z-1 
G01 X41.43 Y33.12 Z1 
G00 X41.43 Y33.15 Z1 
G01 X41.415 Y33.15 Z1 
G01 X37.215 Y33.15 Z-1 
G01 X37.2 Y33.15 Z1 
G00 X37.2 Y33.18 Z1 
G01 X37.215 Y33.18 Z1 
G01 X41.415 Y33.18 Z-1 
G01 X41.43 Y33.18 Z1 
G00 X41.43 Y33.21 Z1 
G01 X41.415 Y33.21 Z1 
G01 X37.245 Y33.21 Z-1 
G01 X37.23 Y33.21 Z1 
G00 X37.23 Y33.24 Z1 
G01 X37.245 Y33.24 Z1 
G01 X41.415 Y33.24 Z-1 
G01 X41.43 Y33.24 Z1 
G00 X41.43 Y33.27 Z1 
G01 X41.415 Y33.27 Z1 
G01 X37.275 Y33.27 Z-1 
G01 X37.26 Y33.27 Z1 
G00 X37.26 Y33.3 Z1 
G01 X37.305 Y33.3 Z1 
G01 X41.415 Y33.3 Z-1 
G01 X41.43 Y33.3 Z1 
G00 X41.43 Y33.33 Z1 
G01 X41.415 Y33.33 Z1 
G01 X37.305 Y33.33 Z-1 
G01 X37.29 Y33.33 Z1 
G00 X37.29 Y33.36 Z1 
G01 X37.335 Y33.36 Z1 
G01 X41.415 Y33.36 Z-1 
G01 X41.43 Y33.36 Z1 
G00 X41.43 Y33.39 Z1 
G01 X41.415 Y33.39 Z1 
G01 X37.335 Y33.39 Z-1 
G01 X37.32 Y33.39 Z1 
G00 X37.32 Y33.42 Z1 
G01 X37.365 Y33.42 Z1 
G01 X41.415 Y33.42 Z-1 
G01 X41.43 Y33.42 Z1 
G00 X41.43 Y33.45 Z1 
G01 X41.415 Y33.45 Z1 
G01 X37.365 Y33.45 Z-1 
G01 X37.35 Y33.45 Z1 
G00 X37.35 Y33.48 Z1 
G01 X37.395 Y33.48 Z1 
G01 X41.415 Y33.48 Z-1 
G01 X41.43 Y33.48 Z1 
G00 X41.43 Y33.51 Z1 
G01 X41.415 Y33.51 Z1 
G01 X37.395 Y33.51 Z-1 
G01 X37.38 Y33.51 Z1 
G00 X37.38 Y33.54 Z1 
G01 X37.425 Y33.54 Z1 
G01 X41.415 Y33.54 Z-1 
G01 X41.43 Y33.54 Z1 
G00 X41.43 Y33.57 Z1 
G01 X41.415 Y33.57 Z1 
G01 X37.425 Y33.57 Z-1 
G01 X37.41 Y33.57 Z1 
G00 X37.41 Y33.6 Z1 
G01 X33.045 Y33.6 Z1 
G01 X33.105 Y33.6 Z-1 
G01 X37.455 Y33.6 Z1 
G01 X41.415 Y33.6 Z-1 
G01 X41.43 Y33.6 Z1 
G00 X41.43 Y33.63 Z1 
G01 X41.415 Y33.63 Z1 
G01 X37.455 Y33.63 Z-1 
G01 X33.135 Y33.63 Z1 
G01 X33.015 Y33.63 Z-1 
G01 X33.0 Y33.63 Z1 
G00 X33.0 Y33.66 Z1 
G01 X32.985 Y33.66 Z1 
G01 X33.165 Y33.66 Z-1 
G01 X37.485 Y33.66 Z1 
G01 X41.415 Y33.66 Z-1 
G01 X41.43 Y33.66 Z1 
G00 X41.43 Y33.69 Z1 
G01 X41.415 Y33.69 Z1 
G01 X37.485 Y33.69 Z-1 
G01 X33.195 Y33.69 Z1 
G01 X32.955 Y33.69 Z-1 
G01 X32.94 Y33.69 Z1 
G00 X32.94 Y33.72 Z1 
G01 X32.925 Y33.72 Z1 
G01 X33.225 Y33.72 Z-1 
G01 X37.515 Y33.72 Z1 
G01 X41.445 Y33.72 Z-1 
G01 X43.575 Y33.72 Z1 
G01 X44.685 Y33.72 Z-1 
G01 X48.975 Y33.72 Z1 
G01 X50.115 Y33.72 Z-1 
G01 X52.275 Y33.72 Z1 
G01 X55.845 Y33.72 Z-1 
G01 X56.475 Y33.72 Z1 
G01 X56.625 Y33.72 Z-1 
G01 X58.875 Y33.72 Z1 
G01 X63.675 Y33.72 Z-1 
G01 X64.275 Y33.72 Z1 
G01 X64.845 Y33.72 Z-1 
G01 X66.795 Y33.72 Z1 
G01 X72.495 Y33.72 Z-1 
G01 X74.115 Y33.72 Z1 
G01 X76.965 Y33.72 Z-1 
G01 X77.565 Y33.72 Z1 
G01 X80.085 Y33.72 Z-1 
G01 X82.155 Y33.72 Z1 
G01 X84.555 Y33.72 Z-1 
G01 X85.155 Y33.72 Z1 
G01 X87.555 Y33.72 Z-1 
G01 X89.955 Y33.72 Z1 
G01 X90.345 Y33.72 Z-1 
G01 X97.785 Y33.72 Z1 
G01 X98.355 Y33.72 Z-1 
G01 X98.925 Y33.72 Z1 
G01 X103.485 Y33.72 Z-1 
G01 X103.5 Y33.72 Z1 
G00 X103.5 Y33.75 Z1 
G01 X103.485 Y33.75 Z1 
G01 X98.925 Y33.75 Z-1 
G01 X98.355 Y33.75 Z1 
G01 X97.605 Y33.75 Z-1 
G01 X95.925 Y33.75 Z1 
G01 X94.755 Y33.75 Z-1 
G01 X90.495 Y33.75 Z1 
G01 X89.835 Y33.75 Z-1 
G01 X87.705 Y33.75 Z1 
G01 X85.155 Y33.75 Z-1 
G01 X84.555 Y33.75 Z1 
G01 X81.975 Y33.75 Z-1 
G01 X80.115 Y33.75 Z1 
G01 X77.565 Y33.75 Z-1 
G01 X76.965 Y33.75 Z1 
G01 X74.115 Y33.75 Z-1 
G01 X72.675 Y33.75 Z1 
G01 X66.795 Y33.75 Z-1 
G01 X65.025 Y33.75 Z1 
G01 X64.275 Y33.75 Z-1 
G01 X63.675 Y33.75 Z1 
G01 X58.875 Y33.75 Z-1 
G01 X56.805 Y33.75 Z1 
G01 X56.475 Y33.75 Z-1 
G01 X55.875 Y33.75 Z1 
G01 X52.035 Y33.75 Z-1 
G01 X50.115 Y33.75 Z1 
G01 X48.975 Y33.75 Z-1 
G01 X44.685 Y33.75 Z1 
G01 X43.575 Y33.75 Z-1 
G01 X41.445 Y33.75 Z1 
G01 X37.515 Y33.75 Z-1 
G01 X33.255 Y33.75 Z1 
G01 X32.895 Y33.75 Z-1 
G01 X32.88 Y33.75 Z1 
G00 X32.88 Y33.78 Z1 
G01 X32.865 Y33.78 Z1 
G01 X33.285 Y33.78 Z-1 
G01 X37.545 Y33.78 Z1 
G01 X41.445 Y33.78 Z-1 
G01 X43.575 Y33.78 Z1 
G01 X44.685 Y33.78 Z-1 
G01 X48.975 Y33.78 Z1 
G01 X50.115 Y33.78 Z-1 
G01 X51.915 Y33.78 Z1 
G01 X55.875 Y33.78 Z-1 
G01 X56.475 Y33.78 Z1 
G01 X56.895 Y33.78 Z-1 
G01 X58.875 Y33.78 Z1 
G01 X63.675 Y33.78 Z-1 
G01 X64.275 Y33.78 Z1 
G01 X65.115 Y33.78 Z-1 
G01 X66.795 Y33.78 Z1 
G01 X72.795 Y33.78 Z-1 
G01 X74.115 Y33.78 Z1 
G01 X76.965 Y33.78 Z-1 
G01 X77.565 Y33.78 Z1 
G01 X80.175 Y33.78 Z-1 
G01 X81.885 Y33.78 Z1 
G01 X84.555 Y33.78 Z-1 
G01 X85.155 Y33.78 Z1 
G01 X87.825 Y33.78 Z-1 
G01 X89.775 Y33.78 Z1 
G01 X90.585 Y33.78 Z-1 
G01 X94.755 Y33.78 Z1 
G01 X95.925 Y33.78 Z-1 
G01 X97.485 Y33.78 Z1 
G01 X98.355 Y33.78 Z-1 
G01 X98.925 Y33.78 Z1 
G01 X103.485 Y33.78 Z-1 
G01 X103.5 Y33.78 Z1 
G00 X103.5 Y33.81 Z1 
G01 X103.485 Y33.81 Z1 
G01 X98.925 Y33.81 Z-1 
G01 X98.355 Y33.81 Z1 
G01 X97.425 Y33.81 Z-1 
G01 X95.925 Y33.81 Z1 
G01 X94.755 Y33.81 Z-1 
G01 X90.585 Y33.81 Z1 
G01 X89.715 Y33.81 Z-1 
G01 X87.885 Y33.81 Z1 
G01 X85.155 Y33.81 Z-1 
G01 X84.555 Y33.81 Z1 
G01 X81.825 Y33.81 Z-1 
G01 X80.205 Y33.81 Z1 
G01 X77.565 Y33.81 Z-1 
G01 X76.965 Y33.81 Z1 
G01 X74.115 Y33.81 Z-1 
G01 X72.855 Y33.81 Z1 
G01 X66.795 Y33.81 Z-1 
G01 X65.175 Y33.81 Z1 
G01 X64.275 Y33.81 Z-1 
G01 X63.675 Y33.81 Z1 
G01 X58.875 Y33.81 Z-1 
G01 X56.985 Y33.81 Z1 
G01 X56.475 Y33.81 Z-1 
G01 X55.875 Y33.81 Z1 
G01 X51.825 Y33.81 Z-1 
G01 X50.115 Y33.81 Z1 
G01 X48.975 Y33.81 Z-1 
G01 X44.685 Y33.81 Z1 
G01 X43.575 Y33.81 Z-1 
G01 X41.445 Y33.81 Z1 
G01 X37.575 Y33.81 Z-1 
G01 X33.315 Y33.81 Z1 
G01 X32.835 Y33.81 Z-1 
G01 X32.82 Y33.81 Z1 
G00 X32.82 Y33.84 Z1 
G01 X32.805 Y33.84 Z1 
G01 X33.345 Y33.84 Z-1 
G01 X37.575 Y33.84 Z1 
G01 X41.445 Y33.84 Z-1 
G01 X43.575 Y33.84 Z1 
G01 X44.685 Y33.84 Z-1 
G01 X48.975 Y33.84 Z1 
G01 X50.115 Y33.84 Z-1 
G01 X51.735 Y33.84 Z1 
G01 X55.875 Y33.84 Z-1 
G01 X56.475 Y33.84 Z1 
G01 X57.075 Y33.84 Z-1 
G01 X58.875 Y33.84 Z1 
G01 X63.675 Y33.84 Z-1 
G01 X64.275 Y33.84 Z1 
G01 X65.235 Y33.84 Z-1 
G01 X66.795 Y33.84 Z1 
G01 X72.915 Y33.84 Z-1 
G01 X74.115 Y33.84 Z1 
G01 X76.965 Y33.84 Z-1 
G01 X77.565 Y33.84 Z1 
G01 X80.265 Y33.84 Z-1 
G01 X81.765 Y33.84 Z1 
G01 X84.555 Y33.84 Z-1 
G01 X85.155 Y33.84 Z1 
G01 X87.945 Y33.84 Z-1 
G01 X89.655 Y33.84 Z1 
G01 X90.585 Y33.84 Z-1 
G01 X94.755 Y33.84 Z1 
G01 X95.925 Y33.84 Z-1 
G01 X97.365 Y33.84 Z1 
G01 X98.355 Y33.84 Z-1 
G01 X98.925 Y33.84 Z1 
G01 X103.485 Y33.84 Z-1 
G01 X103.5 Y33.84 Z1 
G00 X103.5 Y33.87 Z1 
G01 X103.485 Y33.87 Z1 
G01 X98.925 Y33.87 Z-1 
G01 X98.355 Y33.87 Z1 
G01 X97.335 Y33.87 Z-1 
G01 X95.925 Y33.87 Z1 
G01 X94.755 Y33.87 Z-1 
G01 X90.585 Y33.87 Z1 
G01 X89.625 Y33.87 Z-1 
G01 X87.975 Y33.87 Z1 
G01 X85.155 Y33.87 Z-1 
G01 X84.555 Y33.87 Z1 
G01 X81.705 Y33.87 Z-1 
G01 X80.295 Y33.87 Z1 
G01 X77.565 Y33.87 Z-1 
G01 X76.965 Y33.87 Z1 
G01 X74.115 Y33.87 Z-1 
G01 X72.945 Y33.87 Z1 
G01 X66.795 Y33.87 Z-1 
G01 X65.295 Y33.87 Z1 
G01 X64.275 Y33.87 Z-1 
G01 X63.675 Y33.87 Z1 
G01 X58.875 Y33.87 Z-1 
G01 X57.135 Y33.87 Z1 
G01 X56.475 Y33.87 Z-1 
G01 X55.875 Y33.87 Z1 
G01 X51.675 Y33.87 Z-1 
G01 X50.115 Y33.87 Z1 
G01 X48.975 Y33.87 Z-1 
G01 X44.685 Y33.87 Z1 
G01 X43.575 Y33.87 Z-1 
G01 X41.445 Y33.87 Z1 
G01 X37.605 Y33.87 Z-1 
G01 X33.375 Y33.87 Z1 
G01 X32.775 Y33.87 Z-1 
G01 X32.76 Y33.87 Z1 
G00 X32.76 Y33.9 Z1 
G01 X32.775 Y33.9 Z1 
G01 X33.405 Y33.9 Z-1 
G01 X37.605 Y33.9 Z1 
G01 X41.445 Y33.9 Z-1 
G01 X43.575 Y33.9 Z1 
G01 X44.685 Y33.9 Z-1 
G01 X48.975 Y33.9 Z1 
G01 X50.115 Y33.9 Z-1 
G01 X51.645 Y33.9 Z1 
G01 X55.875 Y33.9 Z-1 
G01 X56.475 Y33.9 Z1 
G01 X57.165 Y33.9 Z-1 
G01 X58.875 Y33.9 Z1 
G01 X63.675 Y33.9 Z-1 
G01 X64.275 Y33.9 Z1 
G01 X65.325 Y33.9 Z-1 
G01 X66.795 Y33.9 Z1 
G01 X72.975 Y33.9 Z-1 
G01 X74.115 Y33.9 Z1 
G01 X76.965 Y33.9 Z-1 
G01 X77.565 Y33.9 Z1 
G01 X80.325 Y33.9 Z-1 
G01 X81.675 Y33.9 Z1 
G01 X84.555 Y33.9 Z-1 
G01 X85.155 Y33.9 Z1 
G01 X88.035 Y33.9 Z-1 
G01 X89.595 Y33.9 Z1 
G01 X90.585 Y33.9 Z-1 
G01 X94.755 Y33.9 Z1 
G01 X95.925 Y33.9 Z-1 
G01 X97.305 Y33.9 Z1 
G01 X98.355 Y33.9 Z-1 
G01 X98.925 Y33.9 Z1 
G01 X103.485 Y33.9 Z-1 
G01 X103.5 Y33.9 Z1 
G00 X103.5 Y33.93 Z1 
G01 X103.485 Y33.93 Z1 
G01 X98.925 Y33.93 Z-1 
G01 X98.355 Y33.93 Z1 
G01 X97.275 Y33.93 Z-1 
G01 X95.925 Y33.93 Z1 
G01 X94.755 Y33.93 Z-1 
G01 X90.585 Y33.93 Z1 
G01 X89.565 Y33.93 Z-1 
G01 X88.065 Y33.93 Z1 
G01 X85.155 Y33.93 Z-1 
G01 X84.555 Y33.93 Z1 
G01 X81.645 Y33.93 Z-1 
G01 X80.355 Y33.93 Z1 
G01 X77.565 Y33.93 Z-1 
G01 X76.965 Y33.93 Z1 
G01 X74.115 Y33.93 Z-1 
G01 X73.005 Y33.93 Z1 
G01 X66.795 Y33.93 Z-1 
G01 X65.355 Y33.93 Z1 
G01 X64.275 Y33.93 Z-1 
G01 X63.675 Y33.93 Z1 
G01 X58.875 Y33.93 Z-1 
G01 X57.225 Y33.93 Z1 
G01 X56.475 Y33.93 Z-1 
G01 X55.875 Y33.93 Z1 
G01 X51.585 Y33.93 Z-1 
G01 X50.115 Y33.93 Z1 
G01 X48.975 Y33.93 Z-1 
G01 X44.685 Y33.93 Z1 
G01 X43.575 Y33.93 Z-1 
G01 X41.445 Y33.93 Z1 
G01 X37.635 Y33.93 Z-1 
G01 X33.435 Y33.93 Z1 
G01 X32.745 Y33.93 Z-1 
G01 X32.73 Y33.93 Z1 
G00 X32.73 Y33.96 Z1 
G01 X32.715 Y33.96 Z1 
G01 X33.465 Y33.96 Z-1 
G01 X37.635 Y33.96 Z1 
G01 X41.445 Y33.96 Z-1 
G01 X43.575 Y33.96 Z1 
G01 X44.685 Y33.96 Z-1 
G01 X48.975 Y33.96 Z1 
G01 X50.115 Y33.96 Z-1 
G01 X51.555 Y33.96 Z1 
G01 X55.875 Y33.96 Z-1 
G01 X56.475 Y33.96 Z1 
G01 X57.255 Y33.96 Z-1 
G01 X58.875 Y33.96 Z1 
G01 X63.675 Y33.96 Z-1 
G01 X64.275 Y33.96 Z1 
G01 X65.385 Y33.96 Z-1 
G01 X66.795 Y33.96 Z1 
G01 X73.035 Y33.96 Z-1 
G01 X74.115 Y33.96 Z1 
G01 X76.965 Y33.96 Z-1 
G01 X77.565 Y33.96 Z1 
G01 X80.385 Y33.96 Z-1 
G01 X81.615 Y33.96 Z1 
G01 X84.555 Y33.96 Z-1 
G01 X85.155 Y33.96 Z1 
G01 X88.095 Y33.96 Z-1 
G01 X89.535 Y33.96 Z1 
G01 X90.585 Y33.96 Z-1 
G01 X94.755 Y33.96 Z1 
G01 X95.925 Y33.96 Z-1 
G01 X97.245 Y33.96 Z1 
G01 X98.355 Y33.96 Z-1 
G01 X98.925 Y33.96 Z1 
G01 X103.485 Y33.96 Z-1 
G01 X103.5 Y33.96 Z1 
G00 X103.5 Y33.99 Z1 
G01 X103.485 Y33.99 Z1 
G01 X98.925 Y33.99 Z-1 
G01 X98.355 Y33.99 Z1 
G01 X97.215 Y33.99 Z-1 
G01 X95.925 Y33.99 Z1 
G01 X94.755 Y33.99 Z-1 
G01 X90.585 Y33.99 Z1 
G01 X89.535 Y33.99 Z-1 
G01 X88.095 Y33.99 Z1 
G01 X85.155 Y33.99 Z-1 
G01 X84.555 Y33.99 Z1 
G01 X81.585 Y33.99 Z-1 
G01 X80.415 Y33.99 Z1 
G01 X77.565 Y33.99 Z-1 
G01 X76.965 Y33.99 Z1 
G01 X74.115 Y33.99 Z-1 
G01 X73.065 Y33.99 Z1 
G01 X66.795 Y33.99 Z-1 
G01 X65.415 Y33.99 Z1 
G01 X64.275 Y33.99 Z-1 
G01 X63.675 Y33.99 Z1 
G01 X58.875 Y33.99 Z-1 
G01 X57.315 Y33.99 Z1 
G01 X56.475 Y33.99 Z-1 
G01 X55.875 Y33.99 Z1 
G01 X51.525 Y33.99 Z-1 
G01 X50.115 Y33.99 Z1 
G01 X48.975 Y33.99 Z-1 
G01 X44.685 Y33.99 Z1 
G01 X43.575 Y33.99 Z-1 
G01 X41.445 Y33.99 Z1 
G01 X37.665 Y33.99 Z-1 
G01 X33.495 Y33.99 Z1 
G01 X32.685 Y33.99 Z-1 
G01 X32.67 Y33.99 Z1 
G00 X32.67 Y34.02 Z1 
G01 X32.655 Y34.02 Z1 
G01 X33.555 Y34.02 Z-1 
G01 X37.665 Y34.02 Z1 
G01 X41.445 Y34.02 Z-1 
G01 X43.575 Y34.02 Z1 
G01 X44.685 Y34.02 Z-1 
G01 X48.975 Y34.02 Z1 
G01 X50.115 Y34.02 Z-1 
G01 X51.495 Y34.02 Z1 
G01 X55.875 Y34.02 Z-1 
G01 X56.475 Y34.02 Z1 
G01 X57.345 Y34.02 Z-1 
G01 X58.875 Y34.02 Z1 
G01 X63.675 Y34.02 Z-1 
G01 X64.275 Y34.02 Z1 
G01 X65.445 Y34.02 Z-1 
G01 X66.795 Y34.02 Z1 
G01 X73.095 Y34.02 Z-1 
G01 X74.115 Y34.02 Z1 
G01 X76.965 Y34.02 Z-1 
G01 X77.565 Y34.02 Z1 
G01 X80.415 Y34.02 Z-1 
G01 X81.585 Y34.02 Z1 
G01 X84.555 Y34.02 Z-1 
G01 X85.155 Y34.02 Z1 
G01 X88.125 Y34.02 Z-1 
G01 X89.505 Y34.02 Z1 
G01 X90.585 Y34.02 Z-1 
G01 X94.755 Y34.02 Z1 
G01 X95.925 Y34.02 Z-1 
G01 X97.185 Y34.02 Z1 
G01 X98.355 Y34.02 Z-1 
G01 X98.925 Y34.02 Z1 
G01 X103.485 Y34.02 Z-1 
G01 X103.5 Y34.02 Z1 
G00 X103.5 Y34.05 Z1 
G01 X103.485 Y34.05 Z1 
G01 X98.925 Y34.05 Z-1 
G01 X98.355 Y34.05 Z1 
G01 X97.185 Y34.05 Z-1 
G01 X95.925 Y34.05 Z1 
G01 X94.755 Y34.05 Z-1 
G01 X90.585 Y34.05 Z1 
G01 X89.475 Y34.05 Z-1 
G01 X88.155 Y34.05 Z1 
G01 X85.155 Y34.05 Z-1 
G01 X84.555 Y34.05 Z1 
G01 X81.555 Y34.05 Z-1 
G01 X80.445 Y34.05 Z1 
G01 X77.565 Y34.05 Z-1 
G01 X76.965 Y34.05 Z1 
G01 X74.115 Y34.05 Z-1 
G01 X73.125 Y34.05 Z1 
G01 X66.795 Y34.05 Z-1 
G01 X65.445 Y34.05 Z1 
G01 X64.275 Y34.05 Z-1 
G01 X63.675 Y34.05 Z1 
G01 X58.875 Y34.05 Z-1 
G01 X57.375 Y34.05 Z1 
G01 X56.475 Y34.05 Z-1 
G01 X55.875 Y34.05 Z1 
G01 X51.465 Y34.05 Z-1 
G01 X50.115 Y34.05 Z1 
G01 X48.975 Y34.05 Z-1 
G01 X44.685 Y34.05 Z1 
G01 X43.575 Y34.05 Z-1 
G01 X41.445 Y34.05 Z1 
G01 X37.695 Y34.05 Z-1 
G01 X33.585 Y34.05 Z1 
G01 X32.625 Y34.05 Z-1 
G01 X32.61 Y34.05 Z1 
G00 X32.61 Y34.08 Z1 
G01 X32.625 Y34.08 Z1 
G01 X33.615 Y34.08 Z-1 
G01 X37.695 Y34.08 Z1 
G01 X41.445 Y34.08 Z-1 
G01 X43.575 Y34.08 Z1 
G01 X44.685 Y34.08 Z-1 
G01 X48.975 Y34.08 Z1 
G01 X50.115 Y34.08 Z-1 
G01 X51.435 Y34.08 Z1 
G01 X55.875 Y34.08 Z-1 
G01 X56.475 Y34.08 Z1 
G01 X57.405 Y34.08 Z-1 
G01 X58.875 Y34.08 Z1 
G01 X63.675 Y34.08 Z-1 
G01 X64.275 Y34.08 Z1 
G01 X65.475 Y34.08 Z-1 
G01 X66.795 Y34.08 Z1 
G01 X73.125 Y34.08 Z-1 
G01 X74.115 Y34.08 Z1 
G01 X76.965 Y34.08 Z-1 
G01 X77.565 Y34.08 Z1 
G01 X80.445 Y34.08 Z-1 
G01 X81.525 Y34.08 Z1 
G01 X84.555 Y34.08 Z-1 
G01 X85.155 Y34.08 Z1 
G01 X88.155 Y34.08 Z-1 
G01 X89.475 Y34.08 Z1 
G01 X90.585 Y34.08 Z-1 
G01 X94.755 Y34.08 Z1 
G01 X95.925 Y34.08 Z-1 
G01 X97.155 Y34.08 Z1 
G01 X98.355 Y34.08 Z-1 
G01 X98.925 Y34.08 Z1 
G01 X103.485 Y34.08 Z-1 
G01 X103.5 Y34.08 Z1 
G00 X103.5 Y34.11 Z1 
G01 X103.485 Y34.11 Z1 
G01 X98.925 Y34.11 Z-1 
G01 X98.355 Y34.11 Z1 
G01 X97.155 Y34.11 Z-1 
G01 X95.925 Y34.11 Z1 
G01 X94.755 Y34.11 Z-1 
G01 X90.585 Y34.11 Z1 
G01 X89.445 Y34.11 Z-1 
G01 X88.185 Y34.11 Z1 
G01 X85.155 Y34.11 Z-1 
G01 X84.555 Y34.11 Z1 
G01 X81.525 Y34.11 Z-1 
G01 X80.475 Y34.11 Z1 
G01 X77.565 Y34.11 Z-1 
G01 X76.965 Y34.11 Z1 
G01 X74.115 Y34.11 Z-1 
G01 X73.155 Y34.11 Z1 
G01 X66.795 Y34.11 Z-1 
G01 X65.505 Y34.11 Z1 
G01 X64.275 Y34.11 Z-1 
G01 X63.675 Y34.11 Z1 
G01 X58.875 Y34.11 Z-1 
G01 X57.435 Y34.11 Z1 
G01 X56.475 Y34.11 Z-1 
G01 X55.875 Y34.11 Z1 
G01 X51.405 Y34.11 Z-1 
G01 X50.115 Y34.11 Z1 
G01 X48.975 Y34.11 Z-1 
G01 X44.685 Y34.11 Z1 
G01 X43.575 Y34.11 Z-1 
G01 X41.445 Y34.11 Z1 
G01 X37.725 Y34.11 Z-1 
G01 X33.645 Y34.11 Z1 
G01 X32.595 Y34.11 Z-1 
G01 X32.58 Y34.11 Z1 
G00 X32.58 Y34.14 Z1 
G01 X32.565 Y34.14 Z1 
G01 X33.675 Y34.14 Z-1 
G01 X37.725 Y34.14 Z1 
G01 X41.445 Y34.14 Z-1 
G01 X43.575 Y34.14 Z1 
G01 X44.685 Y34.14 Z-1 
G01 X48.975 Y34.14 Z1 
G01 X50.115 Y34.14 Z-1 
G01 X51.405 Y34.14 Z1 
G01 X55.875 Y34.14 Z-1 
G01 X56.475 Y34.14 Z1 
G01 X57.465 Y34.14 Z-1 
G01 X58.875 Y34.14 Z1 
G01 X63.675 Y34.14 Z-1 
G01 X64.275 Y34.14 Z1 
G01 X65.505 Y34.14 Z-1 
G01 X66.795 Y34.14 Z1 
G01 X73.155 Y34.14 Z-1 
G01 X74.115 Y34.14 Z1 
G01 X76.965 Y34.14 Z-1 
G01 X77.565 Y34.14 Z1 
G01 X80.475 Y34.14 Z-1 
G01 X81.495 Y34.14 Z1 
G01 X84.555 Y34.14 Z-1 
G01 X85.155 Y34.14 Z1 
G01 X88.185 Y34.14 Z-1 
G01 X89.445 Y34.14 Z1 
G01 X90.585 Y34.14 Z-1 
G01 X91.185 Y34.14 Z1 
G01 X91.215 Y34.14 Z-1 
G01 X94.755 Y34.14 Z1 
G01 X95.925 Y34.14 Z-1 
G01 X97.125 Y34.14 Z1 
G01 X98.355 Y34.14 Z-1 
G01 X98.925 Y34.14 Z1 
G01 X103.485 Y34.14 Z-1 
G01 X103.5 Y34.14 Z1 
G00 X103.5 Y34.17 Z1 
G01 X103.485 Y34.17 Z1 
G01 X98.925 Y34.17 Z-1 
G01 X98.355 Y34.17 Z1 
G01 X97.125 Y34.17 Z-1 
G01 X95.925 Y34.17 Z1 
G01 X94.755 Y34.17 Z-1 
G01 X91.245 Y34.17 Z1 
G01 X91.185 Y34.17 Z-1 
G01 X90.585 Y34.17 Z1 
G01 X89.445 Y34.17 Z-1 
G01 X88.215 Y34.17 Z1 
G01 X85.155 Y34.17 Z-1 
G01 X84.555 Y34.17 Z1 
G01 X81.495 Y34.17 Z-1 
G01 X80.475 Y34.17 Z1 
G01 X77.565 Y34.17 Z-1 
G01 X76.965 Y34.17 Z1 
G01 X74.115 Y34.17 Z-1 
G01 X73.155 Y34.17 Z1 
G01 X66.795 Y34.17 Z-1 
G01 X65.535 Y34.17 Z1 
G01 X64.275 Y34.17 Z-1 
G01 X63.675 Y34.17 Z1 
G01 X58.875 Y34.17 Z-1 
G01 X57.465 Y34.17 Z1 
G01 X56.475 Y34.17 Z-1 
G01 X55.875 Y34.17 Z1 
G01 X51.375 Y34.17 Z-1 
G01 X50.115 Y34.17 Z1 
G01 X48.975 Y34.17 Z-1 
G01 X44.685 Y34.17 Z1 
G01 X43.575 Y34.17 Z-1 
G01 X41.445 Y34.17 Z1 
G01 X37.755 Y34.17 Z-1 
G01 X33.705 Y34.17 Z1 
G01 X32.535 Y34.17 Z-1 
G01 X32.52 Y34.17 Z1 
G00 X32.52 Y34.2 Z1 
G01 X32.505 Y34.2 Z1 
G01 X33.735 Y34.2 Z-1 
G01 X37.755 Y34.2 Z1 
G01 X41.445 Y34.2 Z-1 
G01 X43.575 Y34.2 Z1 
G01 X44.685 Y34.2 Z-1 
G01 X48.975 Y34.2 Z1 
G01 X50.115 Y34.2 Z-1 
G01 X51.345 Y34.2 Z1 
G01 X55.875 Y34.2 Z-1 
G01 X56.475 Y34.2 Z1 
G01 X57.495 Y34.2 Z-1 
G01 X58.875 Y34.2 Z1 
G01 X63.675 Y34.2 Z-1 
G01 X64.275 Y34.2 Z1 
G01 X65.535 Y34.2 Z-1 
G01 X66.795 Y34.2 Z1 
G01 X73.185 Y34.2 Z-1 
G01 X74.115 Y34.2 Z1 
G01 X76.965 Y34.2 Z-1 
G01 X77.565 Y34.2 Z1 
G01 X80.475 Y34.2 Z-1 
G01 X81.495 Y34.2 Z1 
G01 X84.555 Y34.2 Z-1 
G01 X85.155 Y34.2 Z1 
G01 X88.215 Y34.2 Z-1 
G01 X89.445 Y34.2 Z1 
G01 X90.585 Y34.2 Z-1 
G01 X91.185 Y34.2 Z1 
G01 X91.275 Y34.2 Z-1 
G01 X94.755 Y34.2 Z1 
G01 X95.925 Y34.2 Z-1 
G01 X97.095 Y34.2 Z1 
G01 X98.355 Y34.2 Z-1 
G01 X98.925 Y34.2 Z1 
G01 X103.485 Y34.2 Z-1 
G01 X103.5 Y34.2 Z1 
G00 X103.5 Y34.23 Z1 
G01 X103.485 Y34.23 Z1 
G01 X98.925 Y34.23 Z-1 
G01 X98.355 Y34.23 Z1 
G01 X97.095 Y34.23 Z-1 
G01 X95.925 Y34.23 Z1 
G01 X94.755 Y34.23 Z-1 
G01 X91.335 Y34.23 Z1 
G01 X91.185 Y34.23 Z-1 
G01 X90.585 Y34.23 Z1 
G01 X89.445 Y34.23 Z-1 
G01 X88.215 Y34.23 Z1 
G01 X85.155 Y34.23 Z-1 
G01 X84.555 Y34.23 Z1 
G01 X81.465 Y34.23 Z-1 
G01 X80.475 Y34.23 Z1 
G01 X77.565 Y34.23 Z-1 
G01 X76.965 Y34.23 Z1 
G01 X74.115 Y34.23 Z-1 
G01 X73.185 Y34.23 Z1 
G01 X66.795 Y34.23 Z-1 
G01 X65.535 Y34.23 Z1 
G01 X64.275 Y34.23 Z-1 
G01 X63.675 Y34.23 Z1 
G01 X58.875 Y34.23 Z-1 
G01 X57.525 Y34.23 Z1 
G01 X56.475 Y34.23 Z-1 
G01 X55.875 Y34.23 Z1 
G01 X51.345 Y34.23 Z-1 
G01 X50.115 Y34.23 Z1 
G01 X48.975 Y34.23 Z-1 
G01 X44.685 Y34.23 Z1 
G01 X43.575 Y34.23 Z-1 
G01 X41.445 Y34.23 Z1 
G01 X37.785 Y34.23 Z-1 
G01 X33.765 Y34.23 Z1 
G01 X32.475 Y34.23 Z-1 
G01 X32.46 Y34.23 Z1 
G00 X32.46 Y34.26 Z1 
G01 X32.475 Y34.26 Z1 
G01 X33.795 Y34.26 Z-1 
G01 X37.815 Y34.26 Z1 
G01 X41.445 Y34.26 Z-1 
G01 X43.575 Y34.26 Z1 
G01 X44.685 Y34.26 Z-1 
G01 X48.975 Y34.26 Z1 
G01 X50.115 Y34.26 Z-1 
G01 X51.345 Y34.26 Z1 
G01 X55.875 Y34.26 Z-1 
G01 X56.475 Y34.26 Z1 
G01 X57.555 Y34.26 Z-1 
G01 X58.875 Y34.26 Z1 
G01 X63.675 Y34.26 Z-1 
G01 X64.275 Y34.26 Z1 
G01 X65.565 Y34.26 Z-1 
G01 X66.795 Y34.26 Z1 
G01 X73.185 Y34.26 Z-1 
G01 X74.115 Y34.26 Z1 
G01 X76.965 Y34.26 Z-1 
G01 X77.565 Y34.26 Z1 
G01 X80.475 Y34.26 Z-1 
G01 X81.465 Y34.26 Z1 
G01 X84.555 Y34.26 Z-1 
G01 X85.155 Y34.26 Z1 
G01 X88.245 Y34.26 Z-1 
G01 X89.445 Y34.26 Z1 
G01 X90.585 Y34.26 Z-1 
G01 X91.185 Y34.26 Z1 
G01 X91.365 Y34.26 Z-1 
G01 X94.755 Y34.26 Z1 
G01 X95.925 Y34.26 Z-1 
G01 X97.095 Y34.26 Z1 
G01 X98.355 Y34.26 Z-1 
G01 X98.925 Y34.26 Z1 
G01 X103.485 Y34.26 Z-1 
G01 X103.5 Y34.26 Z1 
G00 X103.5 Y34.29 Z1 
G01 X103.485 Y34.29 Z1 
G01 X98.925 Y34.29 Z-1 
G01 X98.355 Y34.29 Z1 
G01 X97.095 Y34.29 Z-1 
G01 X95.925 Y34.29 Z1 
G01 X94.755 Y34.29 Z-1 
G01 X91.425 Y34.29 Z1 
G01 X91.185 Y34.29 Z-1 
G01 X90.585 Y34.29 Z1 
G01 X89.445 Y34.29 Z-1 
G01 X88.245 Y34.29 Z1 
G01 X85.155 Y34.29 Z-1 
G01 X84.555 Y34.29 Z1 
G01 X81.465 Y34.29 Z-1 
G01 X80.475 Y34.29 Z1 
G01 X77.565 Y34.29 Z-1 
G01 X76.965 Y34.29 Z1 
G01 X74.115 Y34.29 Z-1 
G01 X73.215 Y34.29 Z1 
G01 X66.795 Y34.29 Z-1 
G01 X65.565 Y34.29 Z1 
G01 X64.275 Y34.29 Z-1 
G01 X63.675 Y34.29 Z1 
G01 X58.875 Y34.29 Z-1 
G01 X57.555 Y34.29 Z1 
G01 X56.475 Y34.29 Z-1 
G01 X55.875 Y34.29 Z1 
G01 X51.315 Y34.29 Z-1 
G01 X50.115 Y34.29 Z1 
G01 X48.975 Y34.29 Z-1 
G01 X44.685 Y34.29 Z1 
G01 X43.575 Y34.29 Z-1 
G01 X41.445 Y34.29 Z1 
G01 X37.815 Y34.29 Z-1 
G01 X33.825 Y34.29 Z1 
G01 X32.445 Y34.29 Z-1 
G01 X32.43 Y34.29 Z1 
G00 X32.43 Y34.32 Z1 
G01 X32.445 Y34.32 Z1 
G01 X33.855 Y34.32 Z-1 
G01 X37.845 Y34.32 Z1 
G01 X41.445 Y34.32 Z-1 
G01 X43.575 Y34.32 Z1 
G01 X44.685 Y34.32 Z-1 
G01 X48.975 Y34.32 Z1 
G01 X50.115 Y34.32 Z-1 
G01 X51.315 Y34.32 Z1 
G01 X55.875 Y34.32 Z-1 
G01 X56.475 Y34.32 Z1 
G01 X57.585 Y34.32 Z-1 
G01 X58.875 Y34.32 Z1 
G01 X63.675 Y34.32 Z-1 
G01 X64.275 Y34.32 Z1 
G01 X65.565 Y34.32 Z-1 
G01 X66.795 Y34.32 Z1 
G01 X73.215 Y34.32 Z-1 
G01 X74.115 Y34.32 Z1 
G01 X76.965 Y34.32 Z-1 
G01 X77.565 Y34.32 Z1 
G01 X80.475 Y34.32 Z-1 
G01 X81.465 Y34.32 Z1 
G01 X84.555 Y34.32 Z-1 
G01 X85.155 Y34.32 Z1 
G01 X88.245 Y34.32 Z-1 
G01 X89.445 Y34.32 Z1 
G01 X90.585 Y34.32 Z-1 
G01 X91.185 Y34.32 Z1 
G01 X91.455 Y34.32 Z-1 
G01 X94.755 Y34.32 Z1 
G01 X95.925 Y34.32 Z-1 
G01 X97.065 Y34.32 Z1 
G01 X98.355 Y34.32 Z-1 
G01 X98.925 Y34.32 Z1 
G01 X103.485 Y34.32 Z-1 
G01 X103.5 Y34.32 Z1 
G00 X103.5 Y34.35 Z1 
G01 X103.485 Y34.35 Z1 
G01 X98.925 Y34.35 Z-1 
G01 X98.355 Y34.35 Z1 
G01 X97.065 Y34.35 Z-1 
G01 X95.925 Y34.35 Z1 
G01 X94.755 Y34.35 Z-1 
G01 X91.485 Y34.35 Z1 
G01 X91.185 Y34.35 Z-1 
G01 X90.585 Y34.35 Z1 
G01 X89.445 Y34.35 Z-1 
G01 X88.245 Y34.35 Z1 
G01 X85.155 Y34.35 Z-1 
G01 X84.555 Y34.35 Z1 
G01 X81.465 Y34.35 Z-1 
G01 X80.475 Y34.35 Z1 
G01 X77.565 Y34.35 Z-1 
G01 X76.965 Y34.35 Z1 
G01 X74.115 Y34.35 Z-1 
G01 X73.215 Y34.35 Z1 
G01 X66.795 Y34.35 Z-1 
G01 X65.595 Y34.35 Z1 
G01 X64.275 Y34.35 Z-1 
G01 X63.675 Y34.35 Z1 
G01 X58.875 Y34.35 Z-1 
G01 X57.585 Y34.35 Z1 
G01 X56.475 Y34.35 Z-1 
G01 X55.875 Y34.35 Z1 
G01 X51.285 Y34.35 Z-1 
G01 X50.115 Y34.35 Z1 
G01 X48.975 Y34.35 Z-1 
G01 X44.685 Y34.35 Z1 
G01 X43.575 Y34.35 Z-1 
G01 X41.445 Y34.35 Z1 
G01 X37.845 Y34.35 Z-1 
G01 X33.885 Y34.35 Z1 
G01 X32.475 Y34.35 Z-1 
G01 X32.46 Y34.35 Z1 
G00 X32.46 Y34.38 Z1 
G01 X32.505 Y34.38 Z1 
G01 X33.915 Y34.38 Z-1 
G01 X37.875 Y34.38 Z1 
G01 X41.445 Y34.38 Z-1 
G01 X43.575 Y34.38 Z1 
G01 X44.685 Y34.38 Z-1 
G01 X48.975 Y34.38 Z1 
G01 X50.115 Y34.38 Z-1 
G01 X51.285 Y34.38 Z1 
G01 X55.875 Y34.38 Z-1 
G01 X56.475 Y34.38 Z1 
G01 X57.615 Y34.38 Z-1 
G01 X58.875 Y34.38 Z1 
G01 X63.675 Y34.38 Z-1 
G01 X64.275 Y34.38 Z1 
G01 X65.595 Y34.38 Z-1 
G01 X66.795 Y34.38 Z1 
G01 X73.215 Y34.38 Z-1 
G01 X74.115 Y34.38 Z1 
G01 X76.965 Y34.38 Z-1 
G01 X77.565 Y34.38 Z1 
G01 X80.445 Y34.38 Z-1 
G01 X81.465 Y34.38 Z1 
G01 X84.555 Y34.38 Z-1 
G01 X85.155 Y34.38 Z1 
G01 X88.245 Y34.38 Z-1 
G01 X89.445 Y34.38 Z1 
G01 X90.585 Y34.38 Z-1 
G01 X91.185 Y34.38 Z1 
G01 X91.545 Y34.38 Z-1 
G01 X94.755 Y34.38 Z1 
G01 X95.925 Y34.38 Z-1 
G01 X97.065 Y34.38 Z1 
G01 X98.355 Y34.38 Z-1 
G01 X98.925 Y34.38 Z1 
G01 X103.485 Y34.38 Z-1 
G01 X103.5 Y34.38 Z1 
G00 X103.5 Y34.41 Z1 
G01 X103.485 Y34.41 Z1 
G01 X98.925 Y34.41 Z-1 
G01 X98.355 Y34.41 Z1 
G01 X97.065 Y34.41 Z-1 
G01 X95.925 Y34.41 Z1 
G01 X94.755 Y34.41 Z-1 
G01 X91.575 Y34.41 Z1 
G01 X91.185 Y34.41 Z-1 
G01 X90.585 Y34.41 Z1 
G01 X89.445 Y34.41 Z-1 
G01 X88.245 Y34.41 Z1 
G01 X85.155 Y34.41 Z-1 
G01 X84.555 Y34.41 Z1 
G01 X81.465 Y34.41 Z-1 
G01 X80.445 Y34.41 Z1 
G01 X77.565 Y34.41 Z-1 
G01 X76.965 Y34.41 Z1 
G01 X74.115 Y34.41 Z-1 
G01 X73.215 Y34.41 Z1 
G01 X66.795 Y34.41 Z-1 
G01 X65.595 Y34.41 Z1 
G01 X64.275 Y34.41 Z-1 
G01 X63.675 Y34.41 Z1 
G01 X58.875 Y34.41 Z-1 
G01 X57.615 Y34.41 Z1 
G01 X56.475 Y34.41 Z-1 
G01 X55.875 Y34.41 Z1 
G01 X51.285 Y34.41 Z-1 
G01 X50.115 Y34.41 Z1 
G01 X48.975 Y34.41 Z-1 
G01 X44.685 Y34.41 Z1 
G01 X43.575 Y34.41 Z-1 
G01 X41.445 Y34.41 Z1 
G01 X37.875 Y34.41 Z-1 
G01 X33.945 Y34.41 Z1 
G01 X32.565 Y34.41 Z-1 
G01 X32.55 Y34.41 Z1 
G00 X32.55 Y34.44 Z1 
G01 X32.595 Y34.44 Z1 
G01 X33.975 Y34.44 Z-1 
G01 X37.905 Y34.44 Z1 
G01 X41.445 Y34.44 Z-1 
G01 X43.575 Y34.44 Z1 
G01 X44.685 Y34.44 Z-1 
G01 X48.975 Y34.44 Z1 
G01 X50.115 Y34.44 Z-1 
G01 X51.285 Y34.44 Z1 
G01 X55.875 Y34.44 Z-1 
G01 X56.475 Y34.44 Z1 
G01 X57.645 Y34.44 Z-1 
G01 X58.875 Y34.44 Z1 
G01 X63.675 Y34.44 Z-1 
G01 X64.275 Y34.44 Z1 
G01 X65.595 Y34.44 Z-1 
G01 X66.795 Y34.44 Z1 
G01 X73.215 Y34.44 Z-1 
G01 X74.115 Y34.44 Z1 
G01 X76.965 Y34.44 Z-1 
G01 X77.565 Y34.44 Z1 
G01 X80.415 Y34.44 Z-1 
G01 X81.465 Y34.44 Z1 
G01 X84.555 Y34.44 Z-1 
G01 X85.155 Y34.44 Z1 
G01 X88.245 Y34.44 Z-1 
G01 X89.445 Y34.44 Z1 
G01 X90.585 Y34.44 Z-1 
G01 X91.185 Y34.44 Z1 
G01 X91.635 Y34.44 Z-1 
G01 X94.755 Y34.44 Z1 
G01 X95.925 Y34.44 Z-1 
G01 X97.065 Y34.44 Z1 
G01 X98.355 Y34.44 Z-1 
G01 X98.925 Y34.44 Z1 
G01 X103.485 Y34.44 Z-1 
G01 X103.5 Y34.44 Z1 
G00 X103.5 Y34.47 Z1 
G01 X103.485 Y34.47 Z1 
G01 X98.925 Y34.47 Z-1 
G01 X98.355 Y34.47 Z1 
G01 X97.065 Y34.47 Z-1 
G01 X95.925 Y34.47 Z1 
G01 X94.755 Y34.47 Z-1 
G01 X91.665 Y34.47 Z1 
G01 X91.185 Y34.47 Z-1 
G01 X90.585 Y34.47 Z1 
G01 X89.445 Y34.47 Z-1 
G01 X88.245 Y34.47 Z1 
G01 X85.155 Y34.47 Z-1 
G01 X84.555 Y34.47 Z1 
G01 X81.465 Y34.47 Z-1 
G01 X80.415 Y34.47 Z1 
G01 X77.565 Y34.47 Z-1 
G01 X76.965 Y34.47 Z1 
G01 X74.115 Y34.47 Z-1 
G01 X73.215 Y34.47 Z1 
G01 X66.795 Y34.47 Z-1 
G01 X65.595 Y34.47 Z1 
G01 X64.275 Y34.47 Z-1 
G01 X63.675 Y34.47 Z1 
G01 X58.875 Y34.47 Z-1 
G01 X57.645 Y34.47 Z1 
G01 X56.475 Y34.47 Z-1 
G01 X55.875 Y34.47 Z1 
G01 X51.255 Y34.47 Z-1 
G01 X50.115 Y34.47 Z1 
G01 X48.975 Y34.47 Z-1 
G01 X44.685 Y34.47 Z1 
G01 X43.575 Y34.47 Z-1 
G01 X41.445 Y34.47 Z1 
G01 X37.905 Y34.47 Z-1 
G01 X34.035 Y34.47 Z1 
G01 X32.625 Y34.47 Z-1 
G01 X32.61 Y34.47 Z1 
G00 X32.61 Y34.5 Z1 
G01 X32.655 Y34.5 Z1 
G01 X34.065 Y34.5 Z-1 
G01 X37.935 Y34.5 Z1 
G01 X41.445 Y34.5 Z-1 
G01 X43.575 Y34.5 Z1 
G01 X44.685 Y34.5 Z-1 
G01 X48.975 Y34.5 Z1 
G01 X50.115 Y34.5 Z-1 
G01 X51.255 Y34.5 Z1 
G01 X55.875 Y34.5 Z-1 
G01 X56.475 Y34.5 Z1 
G01 X57.645 Y34.5 Z-1 
G01 X58.875 Y34.5 Z1 
G01 X63.675 Y34.5 Z-1 
G01 X64.275 Y34.5 Z1 
G01 X65.595 Y34.5 Z-1 
G01 X66.795 Y34.5 Z1 
G01 X73.215 Y34.5 Z-1 
G01 X74.115 Y34.5 Z1 
G01 X76.965 Y34.5 Z-1 
G01 X77.565 Y34.5 Z1 
G01 X80.385 Y34.5 Z-1 
G01 X81.465 Y34.5 Z1 
G01 X84.555 Y34.5 Z-1 
G01 X85.155 Y34.5 Z1 
G01 X88.245 Y34.5 Z-1 
G01 X89.445 Y34.5 Z1 
G01 X90.585 Y34.5 Z-1 
G01 X91.185 Y34.5 Z1 
G01 X91.725 Y34.5 Z-1 
G01 X94.755 Y34.5 Z1 
G01 X95.925 Y34.5 Z-1 
G01 X97.065 Y34.5 Z1 
G01 X98.355 Y34.5 Z-1 
G01 X98.925 Y34.5 Z1 
G01 X103.485 Y34.5 Z-1 
G01 X103.5 Y34.5 Z1 
G00 X103.5 Y34.53 Z1 
G01 X103.485 Y34.53 Z1 
G01 X98.925 Y34.53 Z-1 
G01 X98.355 Y34.53 Z1 
G01 X97.065 Y34.53 Z-1 
G01 X95.925 Y34.53 Z1 
G01 X94.755 Y34.53 Z-1 
G01 X91.755 Y34.53 Z1 
G01 X91.185 Y34.53 Z-1 
G01 X90.585 Y34.53 Z1 
G01 X89.445 Y34.53 Z-1 
G01 X88.245 Y34.53 Z1 
G01 X85.155 Y34.53 Z-1 
G01 X84.555 Y34.53 Z1 
G01 X81.465 Y34.53 Z-1 
G01 X80.355 Y34.53 Z1 
G01 X77.565 Y34.53 Z-1 
G01 X76.965 Y34.53 Z1 
G01 X74.115 Y34.53 Z-1 
G01 X73.215 Y34.53 Z1 
G01 X66.795 Y34.53 Z-1 
G01 X65.595 Y34.53 Z1 
G01 X64.275 Y34.53 Z-1 
G01 X63.675 Y34.53 Z1 
G01 X58.875 Y34.53 Z-1 
G01 X57.675 Y34.53 Z1 
G01 X56.475 Y34.53 Z-1 
G01 X55.875 Y34.53 Z1 
G01 X51.255 Y34.53 Z-1 
G01 X50.115 Y34.53 Z1 
G01 X48.975 Y34.53 Z-1 
G01 X44.685 Y34.53 Z1 
G01 X43.575 Y34.53 Z-1 
G01 X41.445 Y34.53 Z1 
G01 X37.935 Y34.53 Z-1 
G01 X34.095 Y34.53 Z1 
G01 X32.715 Y34.53 Z-1 
G01 X32.7 Y34.53 Z1 
G00 X32.7 Y34.56 Z1 
G01 X32.745 Y34.56 Z1 
G01 X34.125 Y34.56 Z-1 
G01 X37.965 Y34.56 Z1 
G01 X41.445 Y34.56 Z-1 
G01 X43.575 Y34.56 Z1 
G01 X44.685 Y34.56 Z-1 
G01 X48.975 Y34.56 Z1 
G01 X50.115 Y34.56 Z-1 
G01 X51.255 Y34.56 Z1 
G01 X55.875 Y34.56 Z-1 
G01 X56.475 Y34.56 Z1 
G01 X57.675 Y34.56 Z-1 
G01 X58.875 Y34.56 Z1 
G01 X63.675 Y34.56 Z-1 
G01 X64.275 Y34.56 Z1 
G01 X65.595 Y34.56 Z-1 
G01 X66.795 Y34.56 Z1 
G01 X73.215 Y34.56 Z-1 
G01 X74.115 Y34.56 Z1 
G01 X76.965 Y34.56 Z-1 
G01 X77.565 Y34.56 Z1 
G01 X80.325 Y34.56 Z-1 
G01 X81.465 Y34.56 Z1 
G01 X84.555 Y34.56 Z-1 
G01 X85.155 Y34.56 Z1 
G01 X88.245 Y34.56 Z-1 
G01 X89.445 Y34.56 Z1 
G01 X90.585 Y34.56 Z-1 
G01 X91.185 Y34.56 Z1 
G01 X91.785 Y34.56 Z-1 
G01 X94.755 Y34.56 Z1 
G01 X95.925 Y34.56 Z-1 
G01 X97.065 Y34.56 Z1 
G01 X98.355 Y34.56 Z-1 
G01 X98.925 Y34.56 Z1 
G01 X103.485 Y34.56 Z-1 
G01 X103.5 Y34.56 Z1 
G00 X103.5 Y34.59 Z1 
G01 X103.485 Y34.59 Z1 
G01 X98.925 Y34.59 Z-1 
G01 X98.355 Y34.59 Z1 
G01 X97.065 Y34.59 Z-1 
G01 X95.925 Y34.59 Z1 
G01 X94.755 Y34.59 Z-1 
G01 X91.845 Y34.59 Z1 
G01 X91.185 Y34.59 Z-1 
G01 X90.585 Y34.59 Z1 
G01 X89.445 Y34.59 Z-1 
G01 X88.245 Y34.59 Z1 
G01 X85.155 Y34.59 Z-1 
G01 X84.555 Y34.59 Z1 
G01 X81.465 Y34.59 Z-1 
G01 X80.295 Y34.59 Z1 
G01 X77.565 Y34.59 Z-1 
G01 X76.965 Y34.59 Z1 
G01 X74.115 Y34.59 Z-1 
G01 X73.215 Y34.59 Z1 
G01 X66.795 Y34.59 Z-1 
G01 X65.595 Y34.59 Z1 
G01 X64.275 Y34.59 Z-1 
G01 X63.675 Y34.59 Z1 
G01 X58.875 Y34.59 Z-1 
G01 X57.675 Y34.59 Z1 
G01 X56.475 Y34.59 Z-1 
G01 X55.875 Y34.59 Z1 
G01 X51.255 Y34.59 Z-1 
G01 X50.115 Y34.59 Z1 
G01 X49.005 Y34.59 Z-1 
G01 X44.685 Y34.59 Z1 
G01 X43.575 Y34.59 Z-1 
G01 X41.445 Y34.59 Z1 
G01 X37.965 Y34.59 Z-1 
G01 X34.155 Y34.59 Z1 
G01 X32.775 Y34.59 Z-1 
G01 X32.76 Y34.59 Z1 
G00 X32.76 Y34.62 Z1 
G01 X32.835 Y34.62 Z1 
G01 X34.185 Y34.62 Z-1 
G01 X37.995 Y34.62 Z1 
G01 X41.445 Y34.62 Z-1 
G01 X43.575 Y34.62 Z1 
G01 X44.685 Y34.62 Z-1 
G01 X49.005 Y34.62 Z1 
G01 X50.115 Y34.62 Z-1 
G01 X51.255 Y34.62 Z1 
G01 X55.875 Y34.62 Z-1 
G01 X56.475 Y34.62 Z1 
G01 X57.705 Y34.62 Z-1 
G01 X58.875 Y34.62 Z1 
G01 X63.675 Y34.62 Z-1 
G01 X64.275 Y34.62 Z1 
G01 X65.595 Y34.62 Z-1 
G01 X66.795 Y34.62 Z1 
G01 X73.215 Y34.62 Z-1 
G01 X74.115 Y34.62 Z1 
G01 X76.965 Y34.62 Z-1 
G01 X77.565 Y34.62 Z1 
G01 X80.265 Y34.62 Z-1 
G01 X81.465 Y34.62 Z1 
G01 X84.555 Y34.62 Z-1 
G01 X85.155 Y34.62 Z1 
G01 X88.245 Y34.62 Z-1 
G01 X89.445 Y34.62 Z1 
G01 X90.585 Y34.62 Z-1 
G01 X91.185 Y34.62 Z1 
G01 X91.875 Y34.62 Z-1 
G01 X94.755 Y34.62 Z1 
G01 X95.925 Y34.62 Z-1 
G01 X97.065 Y34.62 Z1 
G01 X98.355 Y34.62 Z-1 
G01 X98.925 Y34.62 Z1 
G01 X103.485 Y34.62 Z-1 
G01 X103.5 Y34.62 Z1 
G00 X103.5 Y34.65 Z1 
G01 X103.485 Y34.65 Z1 
G01 X98.925 Y34.65 Z-1 
G01 X98.355 Y34.65 Z1 
G01 X97.065 Y34.65 Z-1 
G01 X95.925 Y34.65 Z1 
G01 X94.755 Y34.65 Z-1 
G01 X91.935 Y34.65 Z1 
G01 X91.185 Y34.65 Z-1 
G01 X90.585 Y34.65 Z1 
G01 X89.445 Y34.65 Z-1 
G01 X88.245 Y34.65 Z1 
G01 X85.155 Y34.65 Z-1 
G01 X84.555 Y34.65 Z1 
G01 X81.465 Y34.65 Z-1 
G01 X80.235 Y34.65 Z1 
G01 X77.565 Y34.65 Z-1 
G01 X76.965 Y34.65 Z1 
G01 X74.115 Y34.65 Z-1 
G01 X73.215 Y34.65 Z1 
G01 X66.795 Y34.65 Z-1 
G01 X65.595 Y34.65 Z1 
G01 X64.275 Y34.65 Z-1 
G01 X63.675 Y34.65 Z1 
G01 X58.875 Y34.65 Z-1 
G01 X57.705 Y34.65 Z1 
G01 X56.475 Y34.65 Z-1 
G01 X55.875 Y34.65 Z1 
G01 X51.255 Y34.65 Z-1 
G01 X50.115 Y34.65 Z1 
G01 X49.005 Y34.65 Z-1 
G01 X44.685 Y34.65 Z1 
G01 X43.575 Y34.65 Z-1 
G01 X41.445 Y34.65 Z1 
G01 X37.995 Y34.65 Z-1 
G01 X34.215 Y34.65 Z1 
G01 X32.865 Y34.65 Z-1 
G01 X32.85 Y34.65 Z1 
G00 X32.85 Y34.68 Z1 
G01 X32.895 Y34.68 Z1 
G01 X34.245 Y34.68 Z-1 
G01 X38.025 Y34.68 Z1 
G01 X41.445 Y34.68 Z-1 
G01 X43.575 Y34.68 Z1 
G01 X44.685 Y34.68 Z-1 
G01 X49.005 Y34.68 Z1 
G01 X50.115 Y34.68 Z-1 
G01 X51.255 Y34.68 Z1 
G01 X55.875 Y34.68 Z-1 
G01 X56.475 Y34.68 Z1 
G01 X57.705 Y34.68 Z-1 
G01 X58.875 Y34.68 Z1 
G01 X63.675 Y34.68 Z-1 
G01 X64.275 Y34.68 Z1 
G01 X65.595 Y34.68 Z-1 
G01 X66.795 Y34.68 Z1 
G01 X73.215 Y34.68 Z-1 
G01 X74.115 Y34.68 Z1 
G01 X76.965 Y34.68 Z-1 
G01 X77.565 Y34.68 Z1 
G01 X80.205 Y34.68 Z-1 
G01 X81.465 Y34.68 Z1 
G01 X84.555 Y34.68 Z-1 
G01 X85.155 Y34.68 Z1 
G01 X88.245 Y34.68 Z-1 
G01 X89.445 Y34.68 Z1 
G01 X90.585 Y34.68 Z-1 
G01 X91.185 Y34.68 Z1 
G01 X91.965 Y34.68 Z-1 
G01 X94.755 Y34.68 Z1 
G01 X95.925 Y34.68 Z-1 
G01 X97.065 Y34.68 Z1 
G01 X98.355 Y34.68 Z-1 
G01 X98.925 Y34.68 Z1 
G01 X103.485 Y34.68 Z-1 
G01 X103.5 Y34.68 Z1 
G00 X103.5 Y34.71 Z1 
G01 X103.485 Y34.71 Z1 
G01 X98.925 Y34.71 Z-1 
G01 X98.355 Y34.71 Z1 
G01 X97.065 Y34.71 Z-1 
G01 X95.925 Y34.71 Z1 
G01 X94.755 Y34.71 Z-1 
G01 X91.995 Y34.71 Z1 
G01 X91.185 Y34.71 Z-1 
G01 X90.585 Y34.71 Z1 
G01 X89.445 Y34.71 Z-1 
G01 X88.245 Y34.71 Z1 
G01 X85.155 Y34.71 Z-1 
G01 X84.555 Y34.71 Z1 
G01 X81.465 Y34.71 Z-1 
G01 X80.145 Y34.71 Z1 
G01 X77.565 Y34.71 Z-1 
G01 X76.965 Y34.71 Z1 
G01 X74.115 Y34.71 Z-1 
G01 X73.215 Y34.71 Z1 
G01 X66.795 Y34.71 Z-1 
G01 X65.595 Y34.71 Z1 
G01 X64.275 Y34.71 Z-1 
G01 X63.675 Y34.71 Z1 
G01 X58.875 Y34.71 Z-1 
G01 X57.705 Y34.71 Z1 
G01 X56.475 Y34.71 Z-1 
G01 X55.875 Y34.71 Z1 
G01 X51.255 Y34.71 Z-1 
G01 X50.115 Y34.71 Z1 
G01 X49.005 Y34.71 Z-1 
G01 X44.685 Y34.71 Z1 
G01 X43.575 Y34.71 Z-1 
G01 X41.445 Y34.71 Z1 
G01 X38.055 Y34.71 Z-1 
G01 X34.275 Y34.71 Z1 
G01 X32.925 Y34.71 Z-1 
G01 X32.91 Y34.71 Z1 
G00 X32.91 Y34.74 Z1 
G01 X32.985 Y34.74 Z1 
G01 X34.305 Y34.74 Z-1 
G01 X38.055 Y34.74 Z1 
G01 X41.445 Y34.74 Z-1 
G01 X43.575 Y34.74 Z1 
G01 X44.685 Y34.74 Z-1 
G01 X49.005 Y34.74 Z1 
G01 X50.115 Y34.74 Z-1 
G01 X51.255 Y34.74 Z1 
G01 X55.875 Y34.74 Z-1 
G01 X56.475 Y34.74 Z1 
G01 X57.705 Y34.74 Z-1 
G01 X58.875 Y34.74 Z1 
G01 X63.675 Y34.74 Z-1 
G01 X64.275 Y34.74 Z1 
G01 X65.595 Y34.74 Z-1 
G01 X66.795 Y34.74 Z1 
G01 X73.215 Y34.74 Z-1 
G01 X74.115 Y34.74 Z1 
G01 X76.965 Y34.74 Z-1 
G01 X77.565 Y34.74 Z1 
G01 X80.115 Y34.74 Z-1 
G01 X81.465 Y34.74 Z1 
G01 X84.555 Y34.74 Z-1 
G01 X85.155 Y34.74 Z1 
G01 X88.245 Y34.74 Z-1 
G01 X89.445 Y34.74 Z1 
G01 X90.585 Y34.74 Z-1 
G01 X91.185 Y34.74 Z1 
G01 X92.055 Y34.74 Z-1 
G01 X94.755 Y34.74 Z1 
G01 X95.925 Y34.74 Z-1 
G01 X97.065 Y34.74 Z1 
G01 X98.355 Y34.74 Z-1 
G01 X98.925 Y34.74 Z1 
G01 X103.485 Y34.74 Z-1 
G01 X103.5 Y34.74 Z1 
G00 X103.5 Y34.77 Z1 
G01 X103.485 Y34.77 Z1 
G01 X98.925 Y34.77 Z-1 
G01 X98.355 Y34.77 Z1 
G01 X97.065 Y34.77 Z-1 
G01 X95.925 Y34.77 Z1 
G01 X94.755 Y34.77 Z-1 
G01 X92.085 Y34.77 Z1 
G01 X91.185 Y34.77 Z-1 
G01 X90.585 Y34.77 Z1 
G01 X89.445 Y34.77 Z-1 
G01 X88.245 Y34.77 Z1 
G01 X85.155 Y34.77 Z-1 
G01 X84.555 Y34.77 Z1 
G01 X81.465 Y34.77 Z-1 
G01 X80.085 Y34.77 Z1 
G01 X77.565 Y34.77 Z-1 
G01 X76.965 Y34.77 Z1 
G01 X74.115 Y34.77 Z-1 
G01 X73.215 Y34.77 Z1 
G01 X66.795 Y34.77 Z-1 
G01 X65.595 Y34.77 Z1 
G01 X64.275 Y34.77 Z-1 
G01 X63.675 Y34.77 Z1 
G01 X58.875 Y34.77 Z-1 
G01 X57.705 Y34.77 Z1 
G01 X56.475 Y34.77 Z-1 
G01 X55.875 Y34.77 Z1 
G01 X51.255 Y34.77 Z-1 
G01 X50.115 Y34.77 Z1 
G01 X49.005 Y34.77 Z-1 
G01 X44.685 Y34.77 Z1 
G01 X43.575 Y34.77 Z-1 
G01 X41.445 Y34.77 Z1 
G01 X38.085 Y34.77 Z-1 
G01 X34.335 Y34.77 Z1 
G01 X33.015 Y34.77 Z-1 
G01 X33.0 Y34.77 Z1 
G00 X33.0 Y34.8 Z1 
G01 X33.045 Y34.8 Z1 
G01 X34.365 Y34.8 Z-1 
G01 X38.085 Y34.8 Z1 
G01 X41.445 Y34.8 Z-1 
G01 X43.575 Y34.8 Z1 
G01 X44.685 Y34.8 Z-1 
G01 X49.005 Y34.8 Z1 
G01 X50.115 Y34.8 Z-1 
G01 X51.255 Y34.8 Z1 
G01 X55.875 Y34.8 Z-1 
G01 X56.445 Y34.8 Z1 
G01 X57.705 Y34.8 Z-1 
G01 X58.875 Y34.8 Z1 
G01 X63.675 Y34.8 Z-1 
G01 X64.275 Y34.8 Z1 
G01 X65.595 Y34.8 Z-1 
G01 X66.795 Y34.8 Z1 
G01 X73.215 Y34.8 Z-1 
G01 X77.955 Y34.8 Z1 
G01 X80.055 Y34.8 Z-1 
G01 X81.465 Y34.8 Z1 
G01 X84.555 Y34.8 Z-1 
G01 X85.155 Y34.8 Z1 
G01 X88.245 Y34.8 Z-1 
G01 X89.445 Y34.8 Z1 
G01 X90.585 Y34.8 Z-1 
G01 X91.185 Y34.8 Z1 
G01 X92.145 Y34.8 Z-1 
G01 X94.755 Y34.8 Z1 
G01 X95.925 Y34.8 Z-1 
G01 X97.065 Y34.8 Z1 
G01 X98.355 Y34.8 Z-1 
G01 X98.955 Y34.8 Z1 
G01 X103.485 Y34.8 Z-1 
G01 X103.5 Y34.8 Z1 
G00 X103.5 Y34.83 Z1 
G01 X98.325 Y34.83 Z1 
G01 X97.065 Y34.83 Z-1 
G01 X95.925 Y34.83 Z1 
G01 X94.755 Y34.83 Z-1 
G01 X92.175 Y34.83 Z1 
G01 X91.185 Y34.83 Z-1 
G01 X90.585 Y34.83 Z1 
G01 X89.445 Y34.83 Z-1 
G01 X88.245 Y34.83 Z1 
G01 X86.985 Y34.83 Z-1 
G01 X82.725 Y34.83 Z1 
G01 X81.465 Y34.83 Z-1 
G01 X79.995 Y34.83 Z1 
G01 X77.925 Y34.83 Z-1 
G01 X73.215 Y34.83 Z1 
G01 X71.925 Y34.83 Z-1 
G01 X68.055 Y34.83 Z1 
G01 X66.795 Y34.83 Z-1 
G01 X65.595 Y34.83 Z1 
G01 X64.275 Y34.83 Z-1 
G01 X63.675 Y34.83 Z1 
G01 X58.875 Y34.83 Z-1 
G01 X57.705 Y34.83 Z1 
G01 X56.445 Y34.83 Z-1 
G01 X55.875 Y34.83 Z1 
G01 X51.255 Y34.83 Z-1 
G01 X50.115 Y34.83 Z1 
G01 X49.005 Y34.83 Z-1 
G01 X44.685 Y34.83 Z1 
G01 X43.575 Y34.83 Z-1 
G01 X41.445 Y34.83 Z1 
G01 X38.115 Y34.83 Z-1 
G01 X34.395 Y34.83 Z1 
G01 X33.075 Y34.83 Z-1 
G01 X33.06 Y34.83 Z1 
G00 X33.06 Y34.86 Z1 
G01 X33.135 Y34.86 Z1 
G01 X34.425 Y34.86 Z-1 
G01 X38.115 Y34.86 Z1 
G01 X41.445 Y34.86 Z-1 
G01 X43.575 Y34.86 Z1 
G01 X44.685 Y34.86 Z-1 
G01 X49.005 Y34.86 Z1 
G01 X50.115 Y34.86 Z-1 
G01 X51.255 Y34.86 Z1 
G01 X55.875 Y34.86 Z-1 
G01 X56.445 Y34.86 Z1 
G01 X57.705 Y34.86 Z-1 
G01 X58.875 Y34.86 Z1 
G01 X63.675 Y34.86 Z-1 
G01 X64.275 Y34.86 Z1 
G01 X65.595 Y34.86 Z-1 
G01 X66.795 Y34.86 Z1 
G01 X68.055 Y34.86 Z-1 
G01 X71.925 Y34.86 Z1 
G01 X73.215 Y34.86 Z-1 
G01 X77.865 Y34.86 Z1 
G01 X79.965 Y34.86 Z-1 
G01 X81.465 Y34.86 Z1 
G01 X82.725 Y34.86 Z-1 
G01 X86.985 Y34.86 Z1 
G01 X88.245 Y34.86 Z-1 
G01 X89.445 Y34.86 Z1 
G01 X90.585 Y34.86 Z-1 
G01 X91.185 Y34.86 Z1 
G01 X92.205 Y34.86 Z-1 
G01 X94.755 Y34.86 Z1 
G01 X95.925 Y34.86 Z-1 
G01 X97.065 Y34.86 Z1 
G01 X98.325 Y34.86 Z-1 
G01 X98.34 Y34.86 Z1 
G00 X98.34 Y34.89 Z1 
G01 X98.325 Y34.89 Z1 
G01 X97.065 Y34.89 Z-1 
G01 X95.925 Y34.89 Z1 
G01 X94.755 Y34.89 Z-1 
G01 X92.265 Y34.89 Z1 
G01 X91.185 Y34.89 Z-1 
G01 X90.585 Y34.89 Z1 
G01 X89.445 Y34.89 Z-1 
G01 X88.245 Y34.89 Z1 
G01 X86.985 Y34.89 Z-1 
G01 X82.725 Y34.89 Z1 
G01 X81.465 Y34.89 Z-1 
G01 X79.905 Y34.89 Z1 
G01 X77.835 Y34.89 Z-1 
G01 X73.215 Y34.89 Z1 
G01 X71.925 Y34.89 Z-1 
G01 X68.055 Y34.89 Z1 
G01 X66.795 Y34.89 Z-1 
G01 X65.595 Y34.89 Z1 
G01 X64.275 Y34.89 Z-1 
G01 X63.675 Y34.89 Z1 
G01 X58.875 Y34.89 Z-1 
G01 X57.705 Y34.89 Z1 
G01 X56.445 Y34.89 Z-1 
G01 X55.875 Y34.89 Z1 
G01 X51.255 Y34.89 Z-1 
G01 X50.115 Y34.89 Z1 
G01 X49.005 Y34.89 Z-1 
G01 X44.685 Y34.89 Z1 
G01 X43.575 Y34.89 Z-1 
G01 X41.445 Y34.89 Z1 
G01 X38.145 Y34.89 Z-1 
G01 X34.455 Y34.89 Z1 
G01 X33.165 Y34.89 Z-1 
G01 X33.15 Y34.89 Z1 
G00 X33.15 Y34.92 Z1 
G01 X33.195 Y34.92 Z1 
G01 X34.485 Y34.92 Z-1 
G01 X38.145 Y34.92 Z1 
G01 X41.445 Y34.92 Z-1 
G01 X43.575 Y34.92 Z1 
G01 X44.685 Y34.92 Z-1 
G01 X49.005 Y34.92 Z1 
G01 X50.115 Y34.92 Z-1 
G01 X51.255 Y34.92 Z1 
G01 X55.875 Y34.92 Z-1 
G01 X56.445 Y34.92 Z1 
G01 X57.705 Y34.92 Z-1 
G01 X58.875 Y34.92 Z1 
G01 X63.675 Y34.92 Z-1 
G01 X64.275 Y34.92 Z1 
G01 X65.595 Y34.92 Z-1 
G01 X66.795 Y34.92 Z1 
G01 X68.055 Y34.92 Z-1 
G01 X71.925 Y34.92 Z1 
G01 X73.215 Y34.92 Z-1 
G01 X77.775 Y34.92 Z1 
G01 X79.845 Y34.92 Z-1 
G01 X81.465 Y34.92 Z1 
G01 X82.725 Y34.92 Z-1 
G01 X86.985 Y34.92 Z1 
G01 X88.245 Y34.92 Z-1 
G01 X89.445 Y34.92 Z1 
G01 X90.585 Y34.92 Z-1 
G01 X91.185 Y34.92 Z1 
G01 X92.295 Y34.92 Z-1 
G01 X94.755 Y34.92 Z1 
G01 X95.925 Y34.92 Z-1 
G01 X97.065 Y34.92 Z1 
G01 X98.325 Y34.92 Z-1 
G01 X98.34 Y34.92 Z1 
G00 X98.34 Y34.95 Z1 
G01 X98.325 Y34.95 Z1 
G01 X97.065 Y34.95 Z-1 
G01 X95.925 Y34.95 Z1 
G01 X94.755 Y34.95 Z-1 
G01 X92.355 Y34.95 Z1 
G01 X91.185 Y34.95 Z-1 
G01 X90.585 Y34.95 Z1 
G01 X89.445 Y34.95 Z-1 
G01 X88.245 Y34.95 Z1 
G01 X86.985 Y34.95 Z-1 
G01 X82.725 Y34.95 Z1 
G01 X81.465 Y34.95 Z-1 
G01 X79.785 Y34.95 Z1 
G01 X77.715 Y34.95 Z-1 
G01 X73.215 Y34.95 Z1 
G01 X71.925 Y34.95 Z-1 
G01 X68.055 Y34.95 Z1 
G01 X66.795 Y34.95 Z-1 
G01 X65.595 Y34.95 Z1 
G01 X64.275 Y34.95 Z-1 
G01 X63.675 Y34.95 Z1 
G01 X58.875 Y34.95 Z-1 
G01 X57.705 Y34.95 Z1 
G01 X56.445 Y34.95 Z-1 
G01 X55.875 Y34.95 Z1 
G01 X51.255 Y34.95 Z-1 
G01 X50.115 Y34.95 Z1 
G01 X49.005 Y34.95 Z-1 
G01 X44.685 Y34.95 Z1 
G01 X43.575 Y34.95 Z-1 
G01 X41.445 Y34.95 Z1 
G01 X38.175 Y34.95 Z-1 
G01 X34.545 Y34.95 Z1 
G01 X33.225 Y34.95 Z-1 
G01 X33.21 Y34.95 Z1 
G00 X33.21 Y34.98 Z1 
G01 X33.285 Y34.98 Z1 
G01 X34.575 Y34.98 Z-1 
G01 X38.175 Y34.98 Z1 
G01 X41.445 Y34.98 Z-1 
G01 X43.575 Y34.98 Z1 
G01 X44.685 Y34.98 Z-1 
G01 X49.005 Y34.98 Z1 
G01 X50.115 Y34.98 Z-1 
G01 X51.255 Y34.98 Z1 
G01 X55.875 Y34.98 Z-1 
G01 X56.445 Y34.98 Z1 
G01 X57.705 Y34.98 Z-1 
G01 X58.875 Y34.98 Z1 
G01 X63.675 Y34.98 Z-1 
G01 X64.275 Y34.98 Z1 
G01 X65.595 Y34.98 Z-1 
G01 X66.795 Y34.98 Z1 
G01 X68.055 Y34.98 Z-1 
G01 X71.925 Y34.98 Z1 
G01 X73.215 Y34.98 Z-1 
G01 X77.685 Y34.98 Z1 
G01 X79.755 Y34.98 Z-1 
G01 X81.465 Y34.98 Z1 
G01 X82.725 Y34.98 Z-1 
G01 X86.985 Y34.98 Z1 
G01 X88.245 Y34.98 Z-1 
G01 X89.445 Y34.98 Z1 
G01 X90.585 Y34.98 Z-1 
G01 X91.185 Y34.98 Z1 
G01 X92.385 Y34.98 Z-1 
G01 X94.755 Y34.98 Z1 
G01 X95.925 Y34.98 Z-1 
G01 X97.065 Y34.98 Z1 
G01 X98.325 Y34.98 Z-1 
G01 X98.34 Y34.98 Z1 
G00 X98.34 Y35.01 Z1 
G01 X98.325 Y35.01 Z1 
G01 X97.065 Y35.01 Z-1 
G01 X95.925 Y35.01 Z1 
G01 X94.755 Y35.01 Z-1 
G01 X92.415 Y35.01 Z1 
G01 X91.185 Y35.01 Z-1 
G01 X90.585 Y35.01 Z1 
G01 X89.445 Y35.01 Z-1 
G01 X88.245 Y35.01 Z1 
G01 X86.985 Y35.01 Z-1 
G01 X82.725 Y35.01 Z1 
G01 X81.465 Y35.01 Z-1 
G01 X79.695 Y35.01 Z1 
G01 X77.625 Y35.01 Z-1 
G01 X73.215 Y35.01 Z1 
G01 X71.925 Y35.01 Z-1 
G01 X68.055 Y35.01 Z1 
G01 X66.795 Y35.01 Z-1 
G01 X65.595 Y35.01 Z1 
G01 X64.275 Y35.01 Z-1 
G01 X63.675 Y35.01 Z1 
G01 X58.875 Y35.01 Z-1 
G01 X57.705 Y35.01 Z1 
G01 X56.445 Y35.01 Z-1 
G01 X55.875 Y35.01 Z1 
G01 X51.255 Y35.01 Z-1 
G01 X50.115 Y35.01 Z1 
G01 X49.005 Y35.01 Z-1 
G01 X44.685 Y35.01 Z1 
G01 X43.575 Y35.01 Z-1 
G01 X41.445 Y35.01 Z1 
G01 X38.205 Y35.01 Z-1 
G01 X34.605 Y35.01 Z1 
G01 X33.315 Y35.01 Z-1 
G01 X33.3 Y35.01 Z1 
G00 X33.3 Y35.04 Z1 
G01 X33.345 Y35.04 Z1 
G01 X34.635 Y35.04 Z-1 
G01 X38.205 Y35.04 Z1 
G01 X41.445 Y35.04 Z-1 
G01 X43.575 Y35.04 Z1 
G01 X44.685 Y35.04 Z-1 
G01 X49.005 Y35.04 Z1 
G01 X50.115 Y35.04 Z-1 
G01 X51.255 Y35.04 Z1 
G01 X55.875 Y35.04 Z-1 
G01 X56.445 Y35.04 Z1 
G01 X57.705 Y35.04 Z-1 
G01 X58.875 Y35.04 Z1 
G01 X60.195 Y35.04 Z-1 
G01 X64.275 Y35.04 Z1 
G01 X65.595 Y35.04 Z-1 
G01 X66.795 Y35.04 Z1 
G01 X68.055 Y35.04 Z-1 
G01 X71.925 Y35.04 Z1 
G01 X73.215 Y35.04 Z-1 
G01 X77.565 Y35.04 Z1 
G01 X79.635 Y35.04 Z-1 
G01 X81.465 Y35.04 Z1 
G01 X82.725 Y35.04 Z-1 
G01 X86.985 Y35.04 Z1 
G01 X88.245 Y35.04 Z-1 
G01 X89.445 Y35.04 Z1 
G01 X90.585 Y35.04 Z-1 
G01 X91.185 Y35.04 Z1 
G01 X92.475 Y35.04 Z-1 
G01 X94.755 Y35.04 Z1 
G01 X95.925 Y35.04 Z-1 
G01 X97.065 Y35.04 Z1 
G01 X98.325 Y35.04 Z-1 
G01 X98.34 Y35.04 Z1 
G00 X98.34 Y35.07 Z1 
G01 X98.325 Y35.07 Z1 
G01 X97.065 Y35.07 Z-1 
G01 X95.925 Y35.07 Z1 
G01 X94.755 Y35.07 Z-1 
G01 X92.505 Y35.07 Z1 
G01 X91.185 Y35.07 Z-1 
G01 X90.585 Y35.07 Z1 
G01 X89.445 Y35.07 Z-1 
G01 X88.245 Y35.07 Z1 
G01 X86.985 Y35.07 Z-1 
G01 X82.725 Y35.07 Z1 
G01 X81.465 Y35.07 Z-1 
G01 X79.605 Y35.07 Z1 
G01 X77.535 Y35.07 Z-1 
G01 X73.215 Y35.07 Z1 
G01 X71.925 Y35.07 Z-1 
G01 X68.055 Y35.07 Z1 
G01 X66.795 Y35.07 Z-1 
G01 X65.595 Y35.07 Z1 
G01 X64.275 Y35.07 Z-1 
G01 X60.195 Y35.07 Z1 
G01 X58.875 Y35.07 Z-1 
G01 X57.705 Y35.07 Z1 
G01 X56.445 Y35.07 Z-1 
G01 X55.875 Y35.07 Z1 
G01 X51.255 Y35.07 Z-1 
G01 X50.115 Y35.07 Z1 
G01 X49.005 Y35.07 Z-1 
G01 X44.685 Y35.07 Z1 
G01 X43.575 Y35.07 Z-1 
G01 X41.445 Y35.07 Z1 
G01 X38.235 Y35.07 Z-1 
G01 X34.665 Y35.07 Z1 
G01 X33.405 Y35.07 Z-1 
G01 X33.39 Y35.07 Z1 
G00 X33.39 Y35.1 Z1 
G01 X33.435 Y35.1 Z1 
G01 X34.695 Y35.1 Z-1 
G01 X38.235 Y35.1 Z1 
G01 X41.445 Y35.1 Z-1 
G01 X43.575 Y35.1 Z1 
G01 X44.685 Y35.1 Z-1 
G01 X49.005 Y35.1 Z1 
G01 X50.115 Y35.1 Z-1 
G01 X51.255 Y35.1 Z1 
G01 X52.485 Y35.1 Z-1 
G01 X56.445 Y35.1 Z1 
G01 X57.705 Y35.1 Z-1 
G01 X58.875 Y35.1 Z1 
G01 X60.195 Y35.1 Z-1 
G01 X64.275 Y35.1 Z1 
G01 X65.595 Y35.1 Z-1 
G01 X66.795 Y35.1 Z1 
G01 X68.055 Y35.1 Z-1 
G01 X71.925 Y35.1 Z1 
G01 X73.215 Y35.1 Z-1 
G01 X77.475 Y35.1 Z1 
G01 X79.545 Y35.1 Z-1 
G01 X81.465 Y35.1 Z1 
G01 X82.725 Y35.1 Z-1 
G01 X86.985 Y35.1 Z1 
G01 X88.245 Y35.1 Z-1 
G01 X89.445 Y35.1 Z1 
G01 X90.585 Y35.1 Z-1 
G01 X91.185 Y35.1 Z1 
G01 X92.565 Y35.1 Z-1 
G01 X94.755 Y35.1 Z1 
G01 X95.925 Y35.1 Z-1 
G01 X97.065 Y35.1 Z1 
G01 X98.325 Y35.1 Z-1 
G01 X98.34 Y35.1 Z1 
G00 X98.34 Y35.13 Z1 
G01 X98.325 Y35.13 Z1 
G01 X97.065 Y35.13 Z-1 
G01 X95.925 Y35.13 Z1 
G01 X94.755 Y35.13 Z-1 
G01 X92.595 Y35.13 Z1 
G01 X91.185 Y35.13 Z-1 
G01 X90.585 Y35.13 Z1 
G01 X89.445 Y35.13 Z-1 
G01 X88.245 Y35.13 Z1 
G01 X86.985 Y35.13 Z-1 
G01 X82.725 Y35.13 Z1 
G01 X81.465 Y35.13 Z-1 
G01 X79.485 Y35.13 Z1 
G01 X77.415 Y35.13 Z-1 
G01 X73.215 Y35.13 Z1 
G01 X71.925 Y35.13 Z-1 
G01 X68.055 Y35.13 Z1 
G01 X66.795 Y35.13 Z-1 
G01 X65.595 Y35.13 Z1 
G01 X64.275 Y35.13 Z-1 
G01 X60.195 Y35.13 Z1 
G01 X58.875 Y35.13 Z-1 
G01 X57.705 Y35.13 Z1 
G01 X56.445 Y35.13 Z-1 
G01 X52.485 Y35.13 Z1 
G01 X51.255 Y35.13 Z-1 
G01 X50.115 Y35.13 Z1 
G01 X49.005 Y35.13 Z-1 
G01 X44.685 Y35.13 Z1 
G01 X43.575 Y35.13 Z-1 
G01 X41.445 Y35.13 Z1 
G01 X38.265 Y35.13 Z-1 
G01 X34.725 Y35.13 Z1 
G01 X33.465 Y35.13 Z-1 
G01 X33.45 Y35.13 Z1 
G00 X33.45 Y35.16 Z1 
G01 X33.495 Y35.16 Z1 
G01 X34.755 Y35.16 Z-1 
G01 X38.265 Y35.16 Z1 
G01 X41.445 Y35.16 Z-1 
G01 X43.575 Y35.16 Z1 
G01 X44.685 Y35.16 Z-1 
G01 X49.005 Y35.16 Z1 
G01 X50.115 Y35.16 Z-1 
G01 X51.255 Y35.16 Z1 
G01 X52.485 Y35.16 Z-1 
G01 X56.445 Y35.16 Z1 
G01 X57.705 Y35.16 Z-1 
G01 X58.875 Y35.16 Z1 
G01 X60.195 Y35.16 Z-1 
G01 X64.275 Y35.16 Z1 
G01 X65.595 Y35.16 Z-1 
G01 X66.795 Y35.16 Z1 
G01 X68.055 Y35.16 Z-1 
G01 X71.925 Y35.16 Z1 
G01 X73.215 Y35.16 Z-1 
G01 X77.385 Y35.16 Z1 
G01 X79.455 Y35.16 Z-1 
G01 X81.465 Y35.16 Z1 
G01 X82.725 Y35.16 Z-1 
G01 X86.985 Y35.16 Z1 
G01 X88.245 Y35.16 Z-1 
G01 X89.445 Y35.16 Z1 
G01 X90.585 Y35.16 Z-1 
G01 X91.185 Y35.16 Z1 
G01 X92.625 Y35.16 Z-1 
G01 X94.755 Y35.16 Z1 
G01 X95.925 Y35.16 Z-1 
G01 X97.065 Y35.16 Z1 
G01 X98.325 Y35.16 Z-1 
G01 X98.34 Y35.16 Z1 
G00 X98.34 Y35.19 Z1 
G01 X98.325 Y35.19 Z1 
G01 X97.065 Y35.19 Z-1 
G01 X95.925 Y35.19 Z1 
G01 X94.755 Y35.19 Z-1 
G01 X92.685 Y35.19 Z1 
G01 X91.185 Y35.19 Z-1 
G01 X90.585 Y35.19 Z1 
G01 X89.445 Y35.19 Z-1 
G01 X88.245 Y35.19 Z1 
G01 X86.985 Y35.19 Z-1 
G01 X82.725 Y35.19 Z1 
G01 X81.465 Y35.19 Z-1 
G01 X79.395 Y35.19 Z1 
G01 X77.325 Y35.19 Z-1 
G01 X73.215 Y35.19 Z1 
G01 X71.925 Y35.19 Z-1 
G01 X68.055 Y35.19 Z1 
G01 X66.795 Y35.19 Z-1 
G01 X65.595 Y35.19 Z1 
G01 X64.275 Y35.19 Z-1 
G01 X60.195 Y35.19 Z1 
G01 X58.875 Y35.19 Z-1 
G01 X57.705 Y35.19 Z1 
G01 X56.445 Y35.19 Z-1 
G01 X52.485 Y35.19 Z1 
G01 X51.255 Y35.19 Z-1 
G01 X50.115 Y35.19 Z1 
G01 X49.005 Y35.19 Z-1 
G01 X46.995 Y35.19 Z1 
G01 X46.695 Y35.19 Z-1 
G01 X44.685 Y35.19 Z1 
G01 X43.575 Y35.19 Z-1 
G01 X41.445 Y35.19 Z1 
G01 X38.295 Y35.19 Z-1 
G01 X34.785 Y35.19 Z1 
G01 X33.555 Y35.19 Z-1 
G01 X33.54 Y35.19 Z1 
G00 X33.54 Y35.22 Z1 
G01 X33.585 Y35.22 Z1 
G01 X34.815 Y35.22 Z-1 
G01 X38.325 Y35.22 Z1 
G01 X41.445 Y35.22 Z-1 
G01 X43.575 Y35.22 Z1 
G01 X44.685 Y35.22 Z-1 
G01 X46.575 Y35.22 Z1 
G01 X47.115 Y35.22 Z-1 
G01 X49.005 Y35.22 Z1 
G01 X50.115 Y35.22 Z-1 
G01 X51.255 Y35.22 Z1 
G01 X52.485 Y35.22 Z-1 
G01 X56.445 Y35.22 Z1 
G01 X57.705 Y35.22 Z-1 
G01 X58.875 Y35.22 Z1 
G01 X60.195 Y35.22 Z-1 
G01 X64.275 Y35.22 Z1 
G01 X65.595 Y35.22 Z-1 
G01 X66.795 Y35.22 Z1 
G01 X68.055 Y35.22 Z-1 
G01 X71.925 Y35.22 Z1 
G01 X73.215 Y35.22 Z-1 
G01 X77.295 Y35.22 Z1 
G01 X79.335 Y35.22 Z-1 
G01 X81.465 Y35.22 Z1 
G01 X82.725 Y35.22 Z-1 
G01 X86.985 Y35.22 Z1 
G01 X88.245 Y35.22 Z-1 
G01 X89.445 Y35.22 Z1 
G01 X90.585 Y35.22 Z-1 
G01 X91.185 Y35.22 Z1 
G01 X92.715 Y35.22 Z-1 
G01 X94.755 Y35.22 Z1 
G01 X95.925 Y35.22 Z-1 
G01 X97.065 Y35.22 Z1 
G01 X98.325 Y35.22 Z-1 
G01 X98.34 Y35.22 Z1 
G00 X98.34 Y35.25 Z1 
G01 X98.325 Y35.25 Z1 
G01 X97.065 Y35.25 Z-1 
G01 X95.925 Y35.25 Z1 
G01 X94.755 Y35.25 Z-1 
G01 X92.775 Y35.25 Z1 
G01 X91.185 Y35.25 Z-1 
G01 X90.585 Y35.25 Z1 
G01 X89.445 Y35.25 Z-1 
G01 X88.245 Y35.25 Z1 
G01 X86.985 Y35.25 Z-1 
G01 X82.725 Y35.25 Z1 
G01 X81.465 Y35.25 Z-1 
G01 X79.305 Y35.25 Z1 
G01 X77.235 Y35.25 Z-1 
G01 X73.215 Y35.25 Z1 
G01 X68.655 Y35.25 Z-1 
G01 X68.055 Y35.25 Z1 
G01 X66.795 Y35.25 Z-1 
G01 X65.595 Y35.25 Z1 
G01 X64.275 Y35.25 Z-1 
G01 X60.195 Y35.25 Z1 
G01 X58.875 Y35.25 Z-1 
G01 X57.705 Y35.25 Z1 
G01 X56.445 Y35.25 Z-1 
G01 X52.485 Y35.25 Z1 
G01 X51.255 Y35.25 Z-1 
G01 X50.115 Y35.25 Z1 
G01 X49.005 Y35.25 Z-1 
G01 X47.205 Y35.25 Z1 
G01 X46.515 Y35.25 Z-1 
G01 X44.685 Y35.25 Z1 
G01 X43.575 Y35.25 Z-1 
G01 X41.445 Y35.25 Z1 
G01 X38.325 Y35.25 Z-1 
G01 X34.845 Y35.25 Z1 
G01 X33.615 Y35.25 Z-1 
G01 X33.6 Y35.25 Z1 
G00 X33.6 Y35.28 Z1 
G01 X33.645 Y35.28 Z1 
G01 X34.875 Y35.28 Z-1 
G01 X38.355 Y35.28 Z1 
G01 X41.445 Y35.28 Z-1 
G01 X43.575 Y35.28 Z1 
G01 X44.685 Y35.28 Z-1 
G01 X46.455 Y35.28 Z1 
G01 X47.265 Y35.28 Z-1 
G01 X49.005 Y35.28 Z1 
G01 X50.115 Y35.28 Z-1 
G01 X51.255 Y35.28 Z1 
G01 X52.485 Y35.28 Z-1 
G01 X56.445 Y35.28 Z1 
G01 X57.705 Y35.28 Z-1 
G01 X58.875 Y35.28 Z1 
G01 X60.195 Y35.28 Z-1 
G01 X64.275 Y35.28 Z1 
G01 X65.595 Y35.28 Z-1 
G01 X66.795 Y35.28 Z1 
G01 X68.055 Y35.28 Z-1 
G01 X68.655 Y35.28 Z1 
G01 X73.215 Y35.28 Z-1 
G01 X77.175 Y35.28 Z1 
G01 X79.245 Y35.28 Z-1 
G01 X81.465 Y35.28 Z1 
G01 X82.725 Y35.28 Z-1 
G01 X86.985 Y35.28 Z1 
G01 X88.245 Y35.28 Z-1 
G01 X89.445 Y35.28 Z1 
G01 X90.585 Y35.28 Z-1 
G01 X91.185 Y35.28 Z1 
G01 X92.805 Y35.28 Z-1 
G01 X94.755 Y35.28 Z1 
G01 X95.925 Y35.28 Z-1 
G01 X97.065 Y35.28 Z1 
G01 X98.325 Y35.28 Z-1 
G01 X98.34 Y35.28 Z1 
G00 X98.34 Y35.31 Z1 
G01 X98.325 Y35.31 Z1 
G01 X97.065 Y35.31 Z-1 
G01 X95.925 Y35.31 Z1 
G01 X94.755 Y35.31 Z-1 
G01 X92.835 Y35.31 Z1 
G01 X91.185 Y35.31 Z-1 
G01 X90.585 Y35.31 Z1 
G01 X89.445 Y35.31 Z-1 
G01 X88.245 Y35.31 Z1 
G01 X86.985 Y35.31 Z-1 
G01 X82.725 Y35.31 Z1 
G01 X81.465 Y35.31 Z-1 
G01 X79.185 Y35.31 Z1 
G01 X77.145 Y35.31 Z-1 
G01 X73.215 Y35.31 Z1 
G01 X68.655 Y35.31 Z-1 
G01 X68.055 Y35.31 Z1 
G01 X66.795 Y35.31 Z-1 
G01 X65.595 Y35.31 Z1 
G01 X64.275 Y35.31 Z-1 
G01 X60.195 Y35.31 Z1 
G01 X58.875 Y35.31 Z-1 
G01 X57.705 Y35.31 Z1 
G01 X56.445 Y35.31 Z-1 
G01 X52.485 Y35.31 Z1 
G01 X51.255 Y35.31 Z-1 
G01 X50.115 Y35.31 Z1 
G01 X49.005 Y35.31 Z-1 
G01 X47.295 Y35.31 Z1 
G01 X46.395 Y35.31 Z-1 
G01 X44.685 Y35.31 Z1 
G01 X43.575 Y35.31 Z-1 
G01 X41.445 Y35.31 Z1 
G01 X38.355 Y35.31 Z-1 
G01 X34.905 Y35.31 Z1 
G01 X33.705 Y35.31 Z-1 
G01 X33.69 Y35.31 Z1 
G00 X33.69 Y35.34 Z1 
G01 X33.735 Y35.34 Z1 
G01 X34.935 Y35.34 Z-1 
G01 X38.385 Y35.34 Z1 
G01 X41.445 Y35.34 Z-1 
G01 X43.575 Y35.34 Z1 
G01 X44.685 Y35.34 Z-1 
G01 X46.335 Y35.34 Z1 
G01 X47.355 Y35.34 Z-1 
G01 X49.005 Y35.34 Z1 
G01 X50.115 Y35.34 Z-1 
G01 X51.255 Y35.34 Z1 
G01 X52.485 Y35.34 Z-1 
G01 X56.445 Y35.34 Z1 
G01 X57.705 Y35.34 Z-1 
G01 X58.875 Y35.34 Z1 
G01 X60.195 Y35.34 Z-1 
G01 X64.275 Y35.34 Z1 
G01 X65.595 Y35.34 Z-1 
G01 X66.795 Y35.34 Z1 
G01 X68.055 Y35.34 Z-1 
G01 X68.655 Y35.34 Z1 
G01 X73.215 Y35.34 Z-1 
G01 X77.085 Y35.34 Z1 
G01 X79.155 Y35.34 Z-1 
G01 X81.465 Y35.34 Z1 
G01 X82.725 Y35.34 Z-1 
G01 X86.985 Y35.34 Z1 
G01 X88.245 Y35.34 Z-1 
G01 X89.445 Y35.34 Z1 
G01 X90.585 Y35.34 Z-1 
G01 X91.185 Y35.34 Z1 
G01 X92.895 Y35.34 Z-1 
G01 X94.755 Y35.34 Z1 
G01 X95.925 Y35.34 Z-1 
G01 X97.065 Y35.34 Z1 
G01 X103.485 Y35.34 Z-1 
G01 X103.5 Y35.34 Z1 
G00 X103.5 Y35.37 Z1 
G01 X103.485 Y35.37 Z1 
G01 X97.065 Y35.37 Z-1 
G01 X95.925 Y35.37 Z1 
G01 X94.755 Y35.37 Z-1 
G01 X92.925 Y35.37 Z1 
G01 X91.185 Y35.37 Z-1 
G01 X90.585 Y35.37 Z1 
G01 X89.445 Y35.37 Z-1 
G01 X88.245 Y35.37 Z1 
G01 X86.985 Y35.37 Z-1 
G01 X82.725 Y35.37 Z1 
G01 X81.465 Y35.37 Z-1 
G01 X79.095 Y35.37 Z1 
G01 X77.025 Y35.37 Z-1 
G01 X73.215 Y35.37 Z1 
G01 X68.655 Y35.37 Z-1 
G01 X68.055 Y35.37 Z1 
G01 X66.795 Y35.37 Z-1 
G01 X65.595 Y35.37 Z1 
G01 X64.275 Y35.37 Z-1 
G01 X60.195 Y35.37 Z1 
G01 X58.875 Y35.37 Z-1 
G01 X57.705 Y35.37 Z1 
G01 X56.445 Y35.37 Z-1 
G01 X52.485 Y35.37 Z1 
G01 X51.255 Y35.37 Z-1 
G01 X50.115 Y35.37 Z1 
G01 X49.005 Y35.37 Z-1 
G01 X47.385 Y35.37 Z1 
G01 X46.305 Y35.37 Z-1 
G01 X44.685 Y35.37 Z1 
G01 X43.575 Y35.37 Z-1 
G01 X41.445 Y35.37 Z1 
G01 X38.385 Y35.37 Z-1 
G01 X34.965 Y35.37 Z1 
G01 X33.765 Y35.37 Z-1 
G01 X33.75 Y35.37 Z1 
G00 X33.75 Y35.4 Z1 
G01 X33.825 Y35.4 Z1 
G01 X35.025 Y35.4 Z-1 
G01 X38.415 Y35.4 Z1 
G01 X41.445 Y35.4 Z-1 
G01 X43.575 Y35.4 Z1 
G01 X44.685 Y35.4 Z-1 
G01 X46.245 Y35.4 Z1 
G01 X47.415 Y35.4 Z-1 
G01 X49.005 Y35.4 Z1 
G01 X50.115 Y35.4 Z-1 
G01 X51.255 Y35.4 Z1 
G01 X52.485 Y35.4 Z-1 
G01 X56.445 Y35.4 Z1 
G01 X57.705 Y35.4 Z-1 
G01 X58.875 Y35.4 Z1 
G01 X60.195 Y35.4 Z-1 
G01 X64.275 Y35.4 Z1 
G01 X65.595 Y35.4 Z-1 
G01 X66.795 Y35.4 Z1 
G01 X68.055 Y35.4 Z-1 
G01 X68.655 Y35.4 Z1 
G01 X73.215 Y35.4 Z-1 
G01 X76.995 Y35.4 Z1 
G01 X79.035 Y35.4 Z-1 
G01 X81.465 Y35.4 Z1 
G01 X82.725 Y35.4 Z-1 
G01 X86.985 Y35.4 Z1 
G01 X88.245 Y35.4 Z-1 
G01 X89.445 Y35.4 Z1 
G01 X90.585 Y35.4 Z-1 
G01 X91.185 Y35.4 Z1 
G01 X92.985 Y35.4 Z-1 
G01 X94.755 Y35.4 Z1 
G01 X95.925 Y35.4 Z-1 
G01 X97.065 Y35.4 Z1 
G01 X103.485 Y35.4 Z-1 
G01 X103.5 Y35.4 Z1 
G00 X103.5 Y35.43 Z1 
G01 X103.485 Y35.43 Z1 
G01 X97.065 Y35.43 Z-1 
G01 X95.925 Y35.43 Z1 
G01 X94.755 Y35.43 Z-1 
G01 X93.015 Y35.43 Z1 
G01 X91.185 Y35.43 Z-1 
G01 X90.585 Y35.43 Z1 
G01 X89.445 Y35.43 Z-1 
G01 X88.245 Y35.43 Z1 
G01 X86.985 Y35.43 Z-1 
G01 X82.725 Y35.43 Z1 
G01 X81.465 Y35.43 Z-1 
G01 X79.005 Y35.43 Z1 
G01 X76.935 Y35.43 Z-1 
G01 X73.215 Y35.43 Z1 
G01 X68.655 Y35.43 Z-1 
G01 X68.055 Y35.43 Z1 
G01 X66.795 Y35.43 Z-1 
G01 X65.595 Y35.43 Z1 
G01 X64.275 Y35.43 Z-1 
G01 X60.195 Y35.43 Z1 
G01 X58.875 Y35.43 Z-1 
G01 X57.705 Y35.43 Z1 
G01 X56.445 Y35.43 Z-1 
G01 X52.485 Y35.43 Z1 
G01 X51.255 Y35.43 Z-1 
G01 X50.115 Y35.43 Z1 
G01 X49.005 Y35.43 Z-1 
G01 X47.475 Y35.43 Z1 
G01 X46.215 Y35.43 Z-1 
G01 X44.685 Y35.43 Z1 
G01 X43.575 Y35.43 Z-1 
G01 X41.445 Y35.43 Z1 
G01 X38.415 Y35.43 Z-1 
G01 X35.055 Y35.43 Z1 
G01 X33.855 Y35.43 Z-1 
G01 X33.84 Y35.43 Z1 
G00 X33.84 Y35.46 Z1 
G01 X33.885 Y35.46 Z1 
G01 X35.085 Y35.46 Z-1 
G01 X38.445 Y35.46 Z1 
G01 X41.445 Y35.46 Z-1 
G01 X43.575 Y35.46 Z1 
G01 X44.685 Y35.46 Z-1 
G01 X46.185 Y35.46 Z1 
G01 X47.505 Y35.46 Z-1 
G01 X49.005 Y35.46 Z1 
G01 X50.115 Y35.46 Z-1 
G01 X51.255 Y35.46 Z1 
G01 X52.485 Y35.46 Z-1 
G01 X56.445 Y35.46 Z1 
G01 X57.705 Y35.46 Z-1 
G01 X58.875 Y35.46 Z1 
G01 X60.195 Y35.46 Z-1 
G01 X64.275 Y35.46 Z1 
G01 X65.595 Y35.46 Z-1 
G01 X66.795 Y35.46 Z1 
G01 X68.055 Y35.46 Z-1 
G01 X68.655 Y35.46 Z1 
G01 X73.215 Y35.46 Z-1 
G01 X76.875 Y35.46 Z1 
G01 X78.945 Y35.46 Z-1 
G01 X81.465 Y35.46 Z1 
G01 X82.725 Y35.46 Z-1 
G01 X86.985 Y35.46 Z1 
G01 X88.245 Y35.46 Z-1 
G01 X89.445 Y35.46 Z1 
G01 X90.585 Y35.46 Z-1 
G01 X91.185 Y35.46 Z1 
G01 X93.045 Y35.46 Z-1 
G01 X94.755 Y35.46 Z1 
G01 X95.925 Y35.46 Z-1 
G01 X97.065 Y35.46 Z1 
G01 X103.485 Y35.46 Z-1 
G01 X103.5 Y35.46 Z1 
G00 X103.5 Y35.49 Z1 
G01 X103.485 Y35.49 Z1 
G01 X97.065 Y35.49 Z-1 
G01 X95.925 Y35.49 Z1 
G01 X94.755 Y35.49 Z-1 
G01 X93.105 Y35.49 Z1 
G01 X91.185 Y35.49 Z-1 
G01 X90.585 Y35.49 Z1 
G01 X89.445 Y35.49 Z-1 
G01 X88.245 Y35.49 Z1 
G01 X86.985 Y35.49 Z-1 
G01 X82.725 Y35.49 Z1 
G01 X81.465 Y35.49 Z-1 
G01 X78.885 Y35.49 Z1 
G01 X76.845 Y35.49 Z-1 
G01 X73.215 Y35.49 Z1 
G01 X68.655 Y35.49 Z-1 
G01 X68.055 Y35.49 Z1 
G01 X66.795 Y35.49 Z-1 
G01 X65.595 Y35.49 Z1 
G01 X64.275 Y35.49 Z-1 
G01 X60.195 Y35.49 Z1 
G01 X58.875 Y35.49 Z-1 
G01 X57.705 Y35.49 Z1 
G01 X56.445 Y35.49 Z-1 
G01 X52.485 Y35.49 Z1 
G01 X51.255 Y35.49 Z-1 
G01 X50.115 Y35.49 Z1 
G01 X49.005 Y35.49 Z-1 
G01 X47.535 Y35.49 Z1 
G01 X46.125 Y35.49 Z-1 
G01 X44.685 Y35.49 Z1 
G01 X43.575 Y35.49 Z-1 
G01 X41.445 Y35.49 Z1 
G01 X38.445 Y35.49 Z-1 
G01 X35.115 Y35.49 Z1 
G01 X33.915 Y35.49 Z-1 
G01 X33.9 Y35.49 Z1 
G00 X33.9 Y35.52 Z1 
G01 X33.975 Y35.52 Z1 
G01 X35.145 Y35.52 Z-1 
G01 X38.475 Y35.52 Z1 
G01 X41.445 Y35.52 Z-1 
G01 X43.575 Y35.52 Z1 
G01 X44.685 Y35.52 Z-1 
G01 X46.095 Y35.52 Z1 
G01 X47.565 Y35.52 Z-1 
G01 X49.005 Y35.52 Z1 
G01 X50.115 Y35.52 Z-1 
G01 X51.255 Y35.52 Z1 
G01 X52.485 Y35.52 Z-1 
G01 X56.445 Y35.52 Z1 
G01 X57.705 Y35.52 Z-1 
G01 X58.875 Y35.52 Z1 
G01 X60.195 Y35.52 Z-1 
G01 X64.275 Y35.52 Z1 
G01 X65.595 Y35.52 Z-1 
G01 X66.795 Y35.52 Z1 
G01 X68.055 Y35.52 Z-1 
G01 X68.655 Y35.52 Z1 
G01 X73.215 Y35.52 Z-1 
G01 X76.785 Y35.52 Z1 
G01 X78.855 Y35.52 Z-1 
G01 X81.465 Y35.52 Z1 
G01 X82.725 Y35.52 Z-1 
G01 X86.985 Y35.52 Z1 
G01 X88.245 Y35.52 Z-1 
G01 X89.445 Y35.52 Z1 
G01 X90.585 Y35.52 Z-1 
G01 X91.185 Y35.52 Z1 
G01 X93.135 Y35.52 Z-1 
G01 X94.755 Y35.52 Z1 
G01 X95.925 Y35.52 Z-1 
G01 X97.065 Y35.52 Z1 
G01 X103.485 Y35.52 Z-1 
G01 X103.5 Y35.52 Z1 
G00 X103.5 Y35.55 Z1 
G01 X103.485 Y35.55 Z1 
G01 X97.065 Y35.55 Z-1 
G01 X95.925 Y35.55 Z1 
G01 X94.755 Y35.55 Z-1 
G01 X93.195 Y35.55 Z1 
G01 X91.185 Y35.55 Z-1 
G01 X90.585 Y35.55 Z1 
G01 X89.445 Y35.55 Z-1 
G01 X88.245 Y35.55 Z1 
G01 X86.985 Y35.55 Z-1 
G01 X82.725 Y35.55 Z1 
G01 X81.465 Y35.55 Z-1 
G01 X78.795 Y35.55 Z1 
G01 X76.725 Y35.55 Z-1 
G01 X73.215 Y35.55 Z1 
G01 X68.655 Y35.55 Z-1 
G01 X68.055 Y35.55 Z1 
G01 X66.795 Y35.55 Z-1 
G01 X65.595 Y35.55 Z1 
G01 X64.275 Y35.55 Z-1 
G01 X60.195 Y35.55 Z1 
G01 X58.875 Y35.55 Z-1 
G01 X57.705 Y35.55 Z1 
G01 X56.445 Y35.55 Z-1 
G01 X52.485 Y35.55 Z1 
G01 X51.255 Y35.55 Z-1 
G01 X50.115 Y35.55 Z1 
G01 X49.005 Y35.55 Z-1 
G01 X47.625 Y35.55 Z1 
G01 X46.065 Y35.55 Z-1 
G01 X44.685 Y35.55 Z1 
G01 X43.575 Y35.55 Z-1 
G01 X41.445 Y35.55 Z1 
G01 X38.475 Y35.55 Z-1 
G01 X35.175 Y35.55 Z1 
G01 X34.005 Y35.55 Z-1 
G01 X33.99 Y35.55 Z1 
G00 X33.99 Y35.58 Z1 
G01 X34.035 Y35.58 Z1 
G01 X35.205 Y35.58 Z-1 
G01 X38.505 Y35.58 Z1 
G01 X41.445 Y35.58 Z-1 
G01 X43.575 Y35.58 Z1 
G01 X44.685 Y35.58 Z-1 
G01 X46.005 Y35.58 Z1 
G01 X47.655 Y35.58 Z-1 
G01 X49.005 Y35.58 Z1 
G01 X50.115 Y35.58 Z-1 
G01 X51.255 Y35.58 Z1 
G01 X52.485 Y35.58 Z-1 
G01 X56.445 Y35.58 Z1 
G01 X57.705 Y35.58 Z-1 
G01 X58.875 Y35.58 Z1 
G01 X60.195 Y35.58 Z-1 
G01 X64.275 Y35.58 Z1 
G01 X65.595 Y35.58 Z-1 
G01 X66.795 Y35.58 Z1 
G01 X68.055 Y35.58 Z-1 
G01 X68.655 Y35.58 Z1 
G01 X73.215 Y35.58 Z-1 
G01 X76.695 Y35.58 Z1 
G01 X78.735 Y35.58 Z-1 
G01 X81.465 Y35.58 Z1 
G01 X82.725 Y35.58 Z-1 
G01 X86.985 Y35.58 Z1 
G01 X88.245 Y35.58 Z-1 
G01 X89.445 Y35.58 Z1 
G01 X90.585 Y35.58 Z-1 
G01 X91.185 Y35.58 Z1 
G01 X93.225 Y35.58 Z-1 
G01 X94.755 Y35.58 Z1 
G01 X95.925 Y35.58 Z-1 
G01 X97.065 Y35.58 Z1 
G01 X103.485 Y35.58 Z-1 
G01 X103.5 Y35.58 Z1 
G00 X103.5 Y35.61 Z1 
G01 X103.485 Y35.61 Z1 
G01 X97.065 Y35.61 Z-1 
G01 X95.925 Y35.61 Z1 
G01 X94.755 Y35.61 Z-1 
G01 X93.255 Y35.61 Z1 
G01 X91.185 Y35.61 Z-1 
G01 X90.585 Y35.61 Z1 
G01 X89.445 Y35.61 Z-1 
G01 X88.245 Y35.61 Z1 
G01 X86.985 Y35.61 Z-1 
G01 X82.725 Y35.61 Z1 
G01 X81.465 Y35.61 Z-1 
G01 X78.705 Y35.61 Z1 
G01 X76.635 Y35.61 Z-1 
G01 X73.215 Y35.61 Z1 
G01 X68.655 Y35.61 Z-1 
G01 X68.055 Y35.61 Z1 
G01 X66.795 Y35.61 Z-1 
G01 X65.595 Y35.61 Z1 
G01 X64.275 Y35.61 Z-1 
G01 X60.195 Y35.61 Z1 
G01 X58.875 Y35.61 Z-1 
G01 X57.705 Y35.61 Z1 
G01 X56.445 Y35.61 Z-1 
G01 X52.485 Y35.61 Z1 
G01 X51.255 Y35.61 Z-1 
G01 X50.115 Y35.61 Z1 
G01 X49.005 Y35.61 Z-1 
G01 X47.715 Y35.61 Z1 
G01 X45.975 Y35.61 Z-1 
G01 X44.685 Y35.61 Z1 
G01 X43.575 Y35.61 Z-1 
G01 X41.445 Y35.61 Z1 
G01 X38.505 Y35.61 Z-1 
G01 X35.235 Y35.61 Z1 
G01 X34.065 Y35.61 Z-1 
G01 X34.05 Y35.61 Z1 
G00 X34.05 Y35.64 Z1 
G01 X34.125 Y35.64 Z1 
G01 X35.265 Y35.64 Z-1 
G01 X38.535 Y35.64 Z1 
G01 X41.445 Y35.64 Z-1 
G01 X43.575 Y35.64 Z1 
G01 X44.685 Y35.64 Z-1 
G01 X45.945 Y35.64 Z1 
G01 X47.745 Y35.64 Z-1 
G01 X49.005 Y35.64 Z1 
G01 X50.115 Y35.64 Z-1 
G01 X51.255 Y35.64 Z1 
G01 X52.485 Y35.64 Z-1 
G01 X56.445 Y35.64 Z1 
G01 X57.705 Y35.64 Z-1 
G01 X58.875 Y35.64 Z1 
G01 X60.195 Y35.64 Z-1 
G01 X64.275 Y35.64 Z1 
G01 X65.595 Y35.64 Z-1 
G01 X66.795 Y35.64 Z1 
G01 X68.055 Y35.64 Z-1 
G01 X68.655 Y35.64 Z1 
G01 X73.215 Y35.64 Z-1 
G01 X76.575 Y35.64 Z1 
G01 X78.645 Y35.64 Z-1 
G01 X81.465 Y35.64 Z1 
G01 X82.725 Y35.64 Z-1 
G01 X86.985 Y35.64 Z1 
G01 X88.245 Y35.64 Z-1 
G01 X89.445 Y35.64 Z1 
G01 X90.585 Y35.64 Z-1 
G01 X91.215 Y35.64 Z1 
G01 X93.315 Y35.64 Z-1 
G01 X94.755 Y35.64 Z1 
G01 X95.925 Y35.64 Z-1 
G01 X97.065 Y35.64 Z1 
G01 X103.485 Y35.64 Z-1 
G01 X103.5 Y35.64 Z1 
G00 X103.5 Y35.67 Z1 
G01 X103.485 Y35.67 Z1 
G01 X97.065 Y35.67 Z-1 
G01 X95.925 Y35.67 Z1 
G01 X94.755 Y35.67 Z-1 
G01 X93.345 Y35.67 Z1 
G01 X91.245 Y35.67 Z-1 
G01 X90.585 Y35.67 Z1 
G01 X89.445 Y35.67 Z-1 
G01 X88.245 Y35.67 Z1 
G01 X86.985 Y35.67 Z-1 
G01 X82.725 Y35.67 Z1 
G01 X81.465 Y35.67 Z-1 
G01 X78.585 Y35.67 Z1 
G01 X76.545 Y35.67 Z-1 
G01 X73.215 Y35.67 Z1 
G01 X68.655 Y35.67 Z-1 
G01 X68.055 Y35.67 Z1 
G01 X66.795 Y35.67 Z-1 
G01 X65.595 Y35.67 Z1 
G01 X64.275 Y35.67 Z-1 
G01 X60.195 Y35.67 Z1 
G01 X58.875 Y35.67 Z-1 
G01 X57.705 Y35.67 Z1 
G01 X56.445 Y35.67 Z-1 
G01 X52.485 Y35.67 Z1 
G01 X51.255 Y35.67 Z-1 
G01 X50.115 Y35.67 Z1 
G01 X49.005 Y35.67 Z-1 
G01 X47.775 Y35.67 Z1 
G01 X45.885 Y35.67 Z-1 
G01 X44.685 Y35.67 Z1 
G01 X43.575 Y35.67 Z-1 
G01 X41.445 Y35.67 Z1 
G01 X38.565 Y35.67 Z-1 
G01 X35.295 Y35.67 Z1 
G01 X34.155 Y35.67 Z-1 
G01 X34.14 Y35.67 Z1 
G00 X34.14 Y35.7 Z1 
G01 X34.185 Y35.7 Z1 
G01 X35.325 Y35.7 Z-1 
G01 X38.565 Y35.7 Z1 
G01 X41.445 Y35.7 Z-1 
G01 X43.575 Y35.7 Z1 
G01 X44.685 Y35.7 Z-1 
G01 X45.855 Y35.7 Z1 
G01 X47.835 Y35.7 Z-1 
G01 X49.005 Y35.7 Z1 
G01 X50.115 Y35.7 Z-1 
G01 X51.255 Y35.7 Z1 
G01 X52.485 Y35.7 Z-1 
G01 X56.445 Y35.7 Z1 
G01 X57.705 Y35.7 Z-1 
G01 X58.875 Y35.7 Z1 
G01 X60.225 Y35.7 Z-1 
G01 X60.825 Y35.7 Z1 
G01 X65.595 Y35.7 Z-1 
G01 X66.795 Y35.7 Z1 
G01 X68.055 Y35.7 Z-1 
G01 X68.655 Y35.7 Z1 
G01 X73.215 Y35.7 Z-1 
G01 X76.485 Y35.7 Z1 
G01 X78.555 Y35.7 Z-1 
G01 X81.465 Y35.7 Z1 
G01 X82.725 Y35.7 Z-1 
G01 X86.985 Y35.7 Z1 
G01 X88.245 Y35.7 Z-1 
G01 X89.445 Y35.7 Z1 
G01 X90.585 Y35.7 Z-1 
G01 X91.305 Y35.7 Z1 
G01 X93.405 Y35.7 Z-1 
G01 X94.755 Y35.7 Z1 
G01 X95.925 Y35.7 Z-1 
G01 X97.065 Y35.7 Z1 
G01 X103.485 Y35.7 Z-1 
G01 X103.5 Y35.7 Z1 
G00 X103.5 Y35.73 Z1 
G01 X103.485 Y35.73 Z1 
G01 X97.065 Y35.73 Z-1 
G01 X95.925 Y35.73 Z1 
G01 X94.755 Y35.73 Z-1 
G01 X93.435 Y35.73 Z1 
G01 X91.335 Y35.73 Z-1 
G01 X90.585 Y35.73 Z1 
G01 X89.445 Y35.73 Z-1 
G01 X88.245 Y35.73 Z1 
G01 X86.985 Y35.73 Z-1 
G01 X82.725 Y35.73 Z1 
G01 X81.465 Y35.73 Z-1 
G01 X78.495 Y35.73 Z1 
G01 X76.425 Y35.73 Z-1 
G01 X73.215 Y35.73 Z1 
G01 X68.655 Y35.73 Z-1 
G01 X68.055 Y35.73 Z1 
G01 X66.795 Y35.73 Z-1 
G01 X65.595 Y35.73 Z1 
G01 X60.795 Y35.73 Z-1 
G01 X60.225 Y35.73 Z1 
G01 X58.875 Y35.73 Z-1 
G01 X57.705 Y35.73 Z1 
G01 X56.445 Y35.73 Z-1 
G01 X52.485 Y35.73 Z1 
G01 X51.255 Y35.73 Z-1 
G01 X50.115 Y35.73 Z1 
G01 X49.005 Y35.73 Z-1 
G01 X47.865 Y35.73 Z1 
G01 X45.825 Y35.73 Z-1 
G01 X44.685 Y35.73 Z1 
G01 X43.575 Y35.73 Z-1 
G01 X41.445 Y35.73 Z1 
G01 X38.595 Y35.73 Z-1 
G01 X35.355 Y35.73 Z1 
G01 X34.215 Y35.73 Z-1 
G01 X34.2 Y35.73 Z1 
G00 X34.2 Y35.76 Z1 
G01 X34.275 Y35.76 Z1 
G01 X35.385 Y35.76 Z-1 
G01 X38.595 Y35.76 Z1 
G01 X41.445 Y35.76 Z-1 
G01 X43.575 Y35.76 Z1 
G01 X44.685 Y35.76 Z-1 
G01 X45.765 Y35.76 Z1 
G01 X47.895 Y35.76 Z-1 
G01 X49.005 Y35.76 Z1 
G01 X50.115 Y35.76 Z-1 
G01 X51.255 Y35.76 Z1 
G01 X52.485 Y35.76 Z-1 
G01 X56.445 Y35.76 Z1 
G01 X57.705 Y35.76 Z-1 
G01 X58.875 Y35.76 Z1 
G01 X60.225 Y35.76 Z-1 
G01 X60.795 Y35.76 Z1 
G01 X65.595 Y35.76 Z-1 
G01 X66.795 Y35.76 Z1 
G01 X68.055 Y35.76 Z-1 
G01 X68.655 Y35.76 Z1 
G01 X73.215 Y35.76 Z-1 
G01 X76.395 Y35.76 Z1 
G01 X78.435 Y35.76 Z-1 
G01 X81.465 Y35.76 Z1 
G01 X82.725 Y35.76 Z-1 
G01 X86.985 Y35.76 Z1 
G01 X88.245 Y35.76 Z-1 
G01 X89.445 Y35.76 Z1 
G01 X90.585 Y35.76 Z-1 
G01 X91.365 Y35.76 Z1 
G01 X93.465 Y35.76 Z-1 
G01 X94.755 Y35.76 Z1 
G01 X95.925 Y35.76 Z-1 
G01 X97.065 Y35.76 Z1 
G01 X103.485 Y35.76 Z-1 
G01 X103.5 Y35.76 Z1 
G00 X103.5 Y35.79 Z1 
G01 X103.485 Y35.79 Z1 
G01 X97.065 Y35.79 Z-1 
G01 X95.925 Y35.79 Z1 
G01 X94.755 Y35.79 Z-1 
G01 X93.525 Y35.79 Z1 
G01 X91.425 Y35.79 Z-1 
G01 X90.585 Y35.79 Z1 
G01 X89.445 Y35.79 Z-1 
G01 X88.245 Y35.79 Z1 
G01 X86.985 Y35.79 Z-1 
G01 X82.725 Y35.79 Z1 
G01 X81.465 Y35.79 Z-1 
G01 X78.405 Y35.79 Z1 
G01 X76.335 Y35.79 Z-1 
G01 X73.215 Y35.79 Z1 
G01 X68.655 Y35.79 Z-1 
G01 X68.055 Y35.79 Z1 
G01 X66.795 Y35.79 Z-1 
G01 X65.595 Y35.79 Z1 
G01 X60.795 Y35.79 Z-1 
G01 X60.225 Y35.79 Z1 
G01 X58.875 Y35.79 Z-1 
G01 X57.705 Y35.79 Z1 
G01 X56.445 Y35.79 Z-1 
G01 X52.485 Y35.79 Z1 
G01 X51.255 Y35.79 Z-1 
G01 X50.115 Y35.79 Z1 
G01 X49.005 Y35.79 Z-1 
G01 X47.955 Y35.79 Z1 
G01 X45.735 Y35.79 Z-1 
G01 X44.685 Y35.79 Z1 
G01 X43.575 Y35.79 Z-1 
G01 X41.445 Y35.79 Z1 
G01 X38.625 Y35.79 Z-1 
G01 X35.415 Y35.79 Z1 
G01 X34.305 Y35.79 Z-1 
G01 X34.29 Y35.79 Z1 
G00 X34.29 Y35.82 Z1 
G01 X34.335 Y35.82 Z1 
G01 X35.445 Y35.82 Z-1 
G01 X38.625 Y35.82 Z1 
G01 X41.445 Y35.82 Z-1 
G01 X43.575 Y35.82 Z1 
G01 X44.685 Y35.82 Z-1 
G01 X45.675 Y35.82 Z1 
G01 X47.985 Y35.82 Z-1 
G01 X49.005 Y35.82 Z1 
G01 X50.115 Y35.82 Z-1 
G01 X51.255 Y35.82 Z1 
G01 X52.485 Y35.82 Z-1 
G01 X56.445 Y35.82 Z1 
G01 X57.705 Y35.82 Z-1 
G01 X58.875 Y35.82 Z1 
G01 X60.225 Y35.82 Z-1 
G01 X60.795 Y35.82 Z1 
G01 X65.595 Y35.82 Z-1 
G01 X66.795 Y35.82 Z1 
G01 X68.055 Y35.82 Z-1 
G01 X68.655 Y35.82 Z1 
G01 X73.215 Y35.82 Z-1 
G01 X76.305 Y35.82 Z1 
G01 X78.345 Y35.82 Z-1 
G01 X81.465 Y35.82 Z1 
G01 X82.725 Y35.82 Z-1 
G01 X86.985 Y35.82 Z1 
G01 X88.245 Y35.82 Z-1 
G01 X89.445 Y35.82 Z1 
G01 X90.585 Y35.82 Z-1 
G01 X91.455 Y35.82 Z1 
G01 X93.555 Y35.82 Z-1 
G01 X94.755 Y35.82 Z1 
G01 X95.925 Y35.82 Z-1 
G01 X97.065 Y35.82 Z1 
G01 X103.485 Y35.82 Z-1 
G01 X103.5 Y35.82 Z1 
G00 X103.5 Y35.85 Z1 
G01 X103.485 Y35.85 Z1 
G01 X97.065 Y35.85 Z-1 
G01 X95.925 Y35.85 Z1 
G01 X94.755 Y35.85 Z-1 
G01 X93.615 Y35.85 Z1 
G01 X91.515 Y35.85 Z-1 
G01 X90.585 Y35.85 Z1 
G01 X89.445 Y35.85 Z-1 
G01 X88.245 Y35.85 Z1 
G01 X86.985 Y35.85 Z-1 
G01 X82.725 Y35.85 Z1 
G01 X81.465 Y35.85 Z-1 
G01 X78.285 Y35.85 Z1 
G01 X76.245 Y35.85 Z-1 
G01 X73.215 Y35.85 Z1 
G01 X68.655 Y35.85 Z-1 
G01 X68.055 Y35.85 Z1 
G01 X66.795 Y35.85 Z-1 
G01 X65.595 Y35.85 Z1 
G01 X60.795 Y35.85 Z-1 
G01 X60.225 Y35.85 Z1 
G01 X58.875 Y35.85 Z-1 
G01 X57.705 Y35.85 Z1 
G01 X56.445 Y35.85 Z-1 
G01 X52.485 Y35.85 Z1 
G01 X51.255 Y35.85 Z-1 
G01 X50.115 Y35.85 Z1 
G01 X49.005 Y35.85 Z-1 
G01 X48.045 Y35.85 Z1 
G01 X45.645 Y35.85 Z-1 
G01 X44.685 Y35.85 Z1 
G01 X43.575 Y35.85 Z-1 
G01 X41.445 Y35.85 Z1 
G01 X38.655 Y35.85 Z-1 
G01 X35.505 Y35.85 Z1 
G01 X34.395 Y35.85 Z-1 
G01 X34.38 Y35.85 Z1 
G00 X34.38 Y35.88 Z1 
G01 X34.425 Y35.88 Z1 
G01 X35.535 Y35.88 Z-1 
G01 X38.655 Y35.88 Z1 
G01 X41.445 Y35.88 Z-1 
G01 X43.575 Y35.88 Z1 
G01 X44.685 Y35.88 Z-1 
G01 X45.615 Y35.88 Z1 
G01 X48.075 Y35.88 Z-1 
G01 X49.005 Y35.88 Z1 
G01 X50.115 Y35.88 Z-1 
G01 X51.255 Y35.88 Z1 
G01 X52.485 Y35.88 Z-1 
G01 X56.445 Y35.88 Z1 
G01 X57.705 Y35.88 Z-1 
G01 X58.875 Y35.88 Z1 
G01 X60.225 Y35.88 Z-1 
G01 X60.795 Y35.88 Z1 
G01 X65.595 Y35.88 Z-1 
G01 X66.795 Y35.88 Z1 
G01 X68.055 Y35.88 Z-1 
G01 X68.655 Y35.88 Z1 
G01 X73.215 Y35.88 Z-1 
G01 X76.185 Y35.88 Z1 
G01 X78.255 Y35.88 Z-1 
G01 X81.465 Y35.88 Z1 
G01 X82.725 Y35.88 Z-1 
G01 X86.985 Y35.88 Z1 
G01 X88.245 Y35.88 Z-1 
G01 X89.445 Y35.88 Z1 
G01 X90.585 Y35.88 Z-1 
G01 X91.545 Y35.88 Z1 
G01 X93.645 Y35.88 Z-1 
G01 X94.755 Y35.88 Z1 
G01 X95.925 Y35.88 Z-1 
G01 X97.065 Y35.88 Z1 
G01 X103.485 Y35.88 Z-1 
G01 X103.5 Y35.88 Z1 
G00 X103.5 Y35.91 Z1 
G01 X103.485 Y35.91 Z1 
G01 X97.065 Y35.91 Z-1 
G01 X95.925 Y35.91 Z1 
G01 X94.755 Y35.91 Z-1 
G01 X93.675 Y35.91 Z1 
G01 X91.605 Y35.91 Z-1 
G01 X90.585 Y35.91 Z1 
G01 X89.445 Y35.91 Z-1 
G01 X88.245 Y35.91 Z1 
G01 X86.985 Y35.91 Z-1 
G01 X82.725 Y35.91 Z1 
G01 X81.465 Y35.91 Z-1 
G01 X78.195 Y35.91 Z1 
G01 X76.155 Y35.91 Z-1 
G01 X73.215 Y35.91 Z1 
G01 X68.655 Y35.91 Z-1 
G01 X68.055 Y35.91 Z1 
G01 X66.795 Y35.91 Z-1 
G01 X65.595 Y35.91 Z1 
G01 X60.795 Y35.91 Z-1 
G01 X60.225 Y35.91 Z1 
G01 X58.875 Y35.91 Z-1 
G01 X57.705 Y35.91 Z1 
G01 X56.445 Y35.91 Z-1 
G01 X52.485 Y35.91 Z1 
G01 X51.255 Y35.91 Z-1 
G01 X48.105 Y35.91 Z1 
G01 X45.555 Y35.91 Z-1 
G01 X41.445 Y35.91 Z1 
G01 X38.685 Y35.91 Z-1 
G01 X35.565 Y35.91 Z1 
G01 X34.455 Y35.91 Z-1 
G01 X34.44 Y35.91 Z1 
G00 X34.44 Y35.94 Z1 
G01 X34.485 Y35.94 Z1 
G01 X35.595 Y35.94 Z-1 
G01 X38.685 Y35.94 Z1 
G01 X41.445 Y35.94 Z-1 
G01 X45.525 Y35.94 Z1 
G01 X48.165 Y35.94 Z-1 
G01 X51.255 Y35.94 Z1 
G01 X52.485 Y35.94 Z-1 
G01 X56.445 Y35.94 Z1 
G01 X57.705 Y35.94 Z-1 
G01 X58.875 Y35.94 Z1 
G01 X60.225 Y35.94 Z-1 
G01 X60.795 Y35.94 Z1 
G01 X65.595 Y35.94 Z-1 
G01 X66.795 Y35.94 Z1 
G01 X68.055 Y35.94 Z-1 
G01 X68.655 Y35.94 Z1 
G01 X73.215 Y35.94 Z-1 
G01 X76.095 Y35.94 Z1 
G01 X78.135 Y35.94 Z-1 
G01 X81.465 Y35.94 Z1 
G01 X82.725 Y35.94 Z-1 
G01 X86.985 Y35.94 Z1 
G01 X88.245 Y35.94 Z-1 
G01 X89.445 Y35.94 Z1 
G01 X90.585 Y35.94 Z-1 
G01 X91.635 Y35.94 Z1 
G01 X93.735 Y35.94 Z-1 
G01 X94.755 Y35.94 Z1 
G01 X95.925 Y35.94 Z-1 
G01 X97.065 Y35.94 Z1 
G01 X103.485 Y35.94 Z-1 
G01 X103.5 Y35.94 Z1 
G00 X103.5 Y35.97 Z1 
G01 X103.485 Y35.97 Z1 
G01 X97.065 Y35.97 Z-1 
G01 X95.925 Y35.97 Z1 
G01 X94.755 Y35.97 Z-1 
G01 X93.765 Y35.97 Z1 
G01 X91.695 Y35.97 Z-1 
G01 X90.585 Y35.97 Z1 
G01 X89.445 Y35.97 Z-1 
G01 X88.245 Y35.97 Z1 
G01 X86.985 Y35.97 Z-1 
G01 X82.725 Y35.97 Z1 
G01 X81.465 Y35.97 Z-1 
G01 X78.105 Y35.97 Z1 
G01 X76.035 Y35.97 Z-1 
G01 X73.215 Y35.97 Z1 
G01 X68.655 Y35.97 Z-1 
G01 X68.055 Y35.97 Z1 
G01 X66.795 Y35.97 Z-1 
G01 X65.595 Y35.97 Z1 
G01 X60.795 Y35.97 Z-1 
G01 X60.225 Y35.97 Z1 
G01 X58.875 Y35.97 Z-1 
G01 X57.705 Y35.97 Z1 
G01 X53.085 Y35.97 Z-1 
G01 X52.485 Y35.97 Z1 
G01 X51.255 Y35.97 Z-1 
G01 X48.195 Y35.97 Z1 
G01 X45.495 Y35.97 Z-1 
G01 X41.445 Y35.97 Z1 
G01 X38.715 Y35.97 Z-1 
G01 X35.625 Y35.97 Z1 
G01 X34.545 Y35.97 Z-1 
G01 X34.53 Y35.97 Z1 
G00 X34.53 Y36.0 Z1 
G01 X31.335 Y36.0 Z1 
G01 X31.365 Y36.0 Z-1 
G01 X34.575 Y36.0 Z1 
G01 X35.655 Y36.0 Z-1 
G01 X38.715 Y36.0 Z1 
G01 X41.445 Y36.0 Z-1 
G01 X45.435 Y36.0 Z1 
G01 X48.225 Y36.0 Z-1 
G01 X51.255 Y36.0 Z1 
G01 X52.485 Y36.0 Z-1 
G01 X53.085 Y36.0 Z1 
G01 X57.705 Y36.0 Z-1 
G01 X58.875 Y36.0 Z1 
G01 X60.225 Y36.0 Z-1 
G01 X60.795 Y36.0 Z1 
G01 X65.565 Y36.0 Z-1 
G01 X66.795 Y36.0 Z1 
G01 X68.055 Y36.0 Z-1 
G01 X68.655 Y36.0 Z1 
G01 X73.185 Y36.0 Z-1 
G01 X76.005 Y36.0 Z1 
G01 X78.045 Y36.0 Z-1 
G01 X81.465 Y36.0 Z1 
G01 X82.725 Y36.0 Z-1 
G01 X86.985 Y36.0 Z1 
G01 X88.245 Y36.0 Z-1 
G01 X89.445 Y36.0 Z1 
G01 X90.585 Y36.0 Z-1 
G01 X91.725 Y36.0 Z1 
G01 X93.825 Y36.0 Z-1 
G01 X94.755 Y36.0 Z1 
G01 X95.925 Y36.0 Z-1 
G01 X97.065 Y36.0 Z1 
G01 X103.485 Y36.0 Z-1 
G01 X103.5 Y36.0 Z1 
G00 X103.5 Y36.03 Z1 
G01 X103.485 Y36.03 Z1 
G01 X97.065 Y36.03 Z-1 
G01 X95.925 Y36.03 Z1 
G01 X94.755 Y36.03 Z-1 
G01 X93.855 Y36.03 Z1 
G01 X91.785 Y36.03 Z-1 
G01 X90.585 Y36.03 Z1 
G01 X89.445 Y36.03 Z-1 
G01 X88.245 Y36.03 Z1 
G01 X86.985 Y36.03 Z-1 
G01 X82.725 Y36.03 Z1 
G01 X81.465 Y36.03 Z-1 
G01 X77.985 Y36.03 Z1 
G01 X75.945 Y36.03 Z-1 
G01 X73.185 Y36.03 Z1 
G01 X68.655 Y36.03 Z-1 
G01 X68.055 Y36.03 Z1 
G01 X66.795 Y36.03 Z-1 
G01 X65.565 Y36.03 Z1 
G01 X60.795 Y36.03 Z-1 
G01 X60.225 Y36.03 Z1 
G01 X58.875 Y36.03 Z-1 
G01 X57.705 Y36.03 Z1 
G01 X53.085 Y36.03 Z-1 
G01 X52.485 Y36.03 Z1 
G01 X51.255 Y36.03 Z-1 
G01 X48.285 Y36.03 Z1 
G01 X45.405 Y36.03 Z-1 
G01 X41.445 Y36.03 Z1 
G01 X38.745 Y36.03 Z-1 
G01 X35.685 Y36.03 Z1 
G01 X34.605 Y36.03 Z-1 
G01 X31.425 Y36.03 Z1 
G01 X31.305 Y36.03 Z-1 
G01 X31.29 Y36.03 Z1 
G00 X31.29 Y36.06 Z1 
G01 X31.275 Y36.06 Z1 
G01 X31.455 Y36.06 Z-1 
G01 X34.635 Y36.06 Z1 
G01 X35.715 Y36.06 Z-1 
G01 X38.745 Y36.06 Z1 
G01 X41.445 Y36.06 Z-1 
G01 X45.375 Y36.06 Z1 
G01 X48.315 Y36.06 Z-1 
G01 X51.255 Y36.06 Z1 
G01 X52.485 Y36.06 Z-1 
G01 X53.085 Y36.06 Z1 
G01 X57.705 Y36.06 Z-1 
G01 X58.875 Y36.06 Z1 
G01 X60.225 Y36.06 Z-1 
G01 X60.795 Y36.06 Z1 
G01 X65.565 Y36.06 Z-1 
G01 X66.795 Y36.06 Z1 
G01 X68.055 Y36.06 Z-1 
G01 X68.655 Y36.06 Z1 
G01 X73.185 Y36.06 Z-1 
G01 X75.885 Y36.06 Z1 
G01 X77.955 Y36.06 Z-1 
G01 X81.465 Y36.06 Z1 
G01 X82.725 Y36.06 Z-1 
G01 X86.985 Y36.06 Z1 
G01 X88.245 Y36.06 Z-1 
G01 X89.445 Y36.06 Z1 
G01 X90.585 Y36.06 Z-1 
G01 X91.815 Y36.06 Z1 
G01 X93.885 Y36.06 Z-1 
G01 X94.755 Y36.06 Z1 
G01 X95.925 Y36.06 Z-1 
G01 X97.065 Y36.06 Z1 
G01 X103.485 Y36.06 Z-1 
G01 X103.5 Y36.06 Z1 
G00 X103.5 Y36.09 Z1 
G01 X103.485 Y36.09 Z1 
G01 X97.065 Y36.09 Z-1 
G01 X95.925 Y36.09 Z1 
G01 X94.755 Y36.09 Z-1 
G01 X93.945 Y36.09 Z1 
G01 X91.875 Y36.09 Z-1 
G01 X90.585 Y36.09 Z1 
G01 X89.445 Y36.09 Z-1 
G01 X88.245 Y36.09 Z1 
G01 X86.985 Y36.09 Z-1 
G01 X82.725 Y36.09 Z1 
G01 X81.465 Y36.09 Z-1 
G01 X77.895 Y36.09 Z1 
G01 X75.855 Y36.09 Z-1 
G01 X73.155 Y36.09 Z1 
G01 X68.655 Y36.09 Z-1 
G01 X68.055 Y36.09 Z1 
G01 X66.795 Y36.09 Z-1 
G01 X65.535 Y36.09 Z1 
G01 X60.795 Y36.09 Z-1 
G01 X60.225 Y36.09 Z1 
G01 X58.875 Y36.09 Z-1 
G01 X57.705 Y36.09 Z1 
G01 X53.085 Y36.09 Z-1 
G01 X52.485 Y36.09 Z1 
G01 X51.255 Y36.09 Z-1 
G01 X48.375 Y36.09 Z1 
G01 X45.315 Y36.09 Z-1 
G01 X41.445 Y36.09 Z1 
G01 X38.775 Y36.09 Z-1 
G01 X35.745 Y36.09 Z1 
G01 X34.695 Y36.09 Z-1 
G01 X31.515 Y36.09 Z1 
G01 X31.275 Y36.09 Z-1 
G01 X31.26 Y36.09 Z1 
G00 X31.26 Y36.12 Z1 
G01 X31.245 Y36.12 Z1 
G01 X31.575 Y36.12 Z-1 
G01 X34.725 Y36.12 Z1 
G01 X35.775 Y36.12 Z-1 
G01 X38.805 Y36.12 Z1 
G01 X41.445 Y36.12 Z-1 
G01 X45.285 Y36.12 Z1 
G01 X48.405 Y36.12 Z-1 
G01 X51.255 Y36.12 Z1 
G01 X52.485 Y36.12 Z-1 
G01 X53.085 Y36.12 Z1 
G01 X57.705 Y36.12 Z-1 
G01 X58.875 Y36.12 Z1 
G01 X60.225 Y36.12 Z-1 
G01 X60.795 Y36.12 Z1 
G01 X65.535 Y36.12 Z-1 
G01 X66.795 Y36.12 Z1 
G01 X68.055 Y36.12 Z-1 
G01 X68.655 Y36.12 Z1 
G01 X73.155 Y36.12 Z-1 
G01 X75.795 Y36.12 Z1 
G01 X77.835 Y36.12 Z-1 
G01 X81.465 Y36.12 Z1 
G01 X82.725 Y36.12 Z-1 
G01 X86.985 Y36.12 Z1 
G01 X88.245 Y36.12 Z-1 
G01 X89.445 Y36.12 Z1 
G01 X90.585 Y36.12 Z-1 
G01 X91.905 Y36.12 Z1 
G01 X93.975 Y36.12 Z-1 
G01 X94.755 Y36.12 Z1 
G01 X95.925 Y36.12 Z-1 
G01 X97.065 Y36.12 Z1 
G01 X103.485 Y36.12 Z-1 
G01 X103.5 Y36.12 Z1 
G00 X103.5 Y36.15 Z1 
G01 X103.485 Y36.15 Z1 
G01 X97.065 Y36.15 Z-1 
G01 X95.925 Y36.15 Z1 
G01 X94.755 Y36.15 Z-1 
G01 X94.035 Y36.15 Z1 
G01 X91.935 Y36.15 Z-1 
G01 X90.585 Y36.15 Z1 
G01 X89.445 Y36.15 Z-1 
G01 X88.245 Y36.15 Z1 
G01 X86.985 Y36.15 Z-1 
G01 X82.725 Y36.15 Z1 
G01 X81.465 Y36.15 Z-1 
G01 X77.805 Y36.15 Z1 
G01 X75.735 Y36.15 Z-1 
G01 X73.155 Y36.15 Z1 
G01 X68.655 Y36.15 Z-1 
G01 X68.055 Y36.15 Z1 
G01 X66.795 Y36.15 Z-1 
G01 X65.505 Y36.15 Z1 
G01 X60.795 Y36.15 Z-1 
G01 X60.225 Y36.15 Z1 
G01 X58.875 Y36.15 Z-1 
G01 X57.705 Y36.15 Z1 
G01 X53.085 Y36.15 Z-1 
G01 X52.485 Y36.15 Z1 
G01 X51.255 Y36.15 Z-1 
G01 X48.435 Y36.15 Z1 
G01 X45.255 Y36.15 Z-1 
G01 X41.445 Y36.15 Z1 
G01 X38.805 Y36.15 Z-1 
G01 X35.805 Y36.15 Z1 
G01 X34.755 Y36.15 Z-1 
G01 X31.635 Y36.15 Z1 
G01 X31.245 Y36.15 Z-1 
G01 X31.23 Y36.15 Z1 
G00 X31.23 Y36.18 Z1 
G01 X31.215 Y36.18 Z1 
G01 X31.695 Y36.18 Z-1 
G01 X34.785 Y36.18 Z1 
G01 X35.835 Y36.18 Z-1 
G01 X38.835 Y36.18 Z1 
G01 X41.445 Y36.18 Z-1 
G01 X45.195 Y36.18 Z1 
G01 X48.495 Y36.18 Z-1 
G01 X51.255 Y36.18 Z1 
G01 X52.485 Y36.18 Z-1 
G01 X53.085 Y36.18 Z1 
G01 X57.705 Y36.18 Z-1 
G01 X58.875 Y36.18 Z1 
G01 X60.225 Y36.18 Z-1 
G01 X60.795 Y36.18 Z1 
G01 X65.505 Y36.18 Z-1 
G01 X66.795 Y36.18 Z1 
G01 X68.055 Y36.18 Z-1 
G01 X68.655 Y36.18 Z1 
G01 X73.125 Y36.18 Z-1 
G01 X75.705 Y36.18 Z1 
G01 X77.745 Y36.18 Z-1 
G01 X81.465 Y36.18 Z1 
G01 X82.725 Y36.18 Z-1 
G01 X86.985 Y36.18 Z1 
G01 X88.245 Y36.18 Z-1 
G01 X89.445 Y36.18 Z1 
G01 X90.585 Y36.18 Z-1 
G01 X91.995 Y36.18 Z1 
G01 X94.065 Y36.18 Z-1 
G01 X94.755 Y36.18 Z1 
G01 X95.925 Y36.18 Z-1 
G01 X97.065 Y36.18 Z1 
G01 X103.485 Y36.18 Z-1 
G01 X103.5 Y36.18 Z1 
G00 X103.5 Y36.21 Z1 
G01 X103.485 Y36.21 Z1 
G01 X97.065 Y36.21 Z-1 
G01 X95.925 Y36.21 Z1 
G01 X94.755 Y36.21 Z-1 
G01 X94.125 Y36.21 Z1 
G01 X92.025 Y36.21 Z-1 
G01 X90.615 Y36.21 Z1 
G01 X89.445 Y36.21 Z-1 
G01 X88.245 Y36.21 Z1 
G01 X86.985 Y36.21 Z-1 
G01 X82.725 Y36.21 Z1 
G01 X81.465 Y36.21 Z-1 
G01 X77.685 Y36.21 Z1 
G01 X75.645 Y36.21 Z-1 
G01 X73.125 Y36.21 Z1 
G01 X68.655 Y36.21 Z-1 
G01 X68.055 Y36.21 Z1 
G01 X66.795 Y36.21 Z-1 
G01 X65.475 Y36.21 Z1 
G01 X60.795 Y36.21 Z-1 
G01 X60.225 Y36.21 Z1 
G01 X58.875 Y36.21 Z-1 
G01 X57.705 Y36.21 Z1 
G01 X53.085 Y36.21 Z-1 
G01 X52.485 Y36.21 Z1 
G01 X51.255 Y36.21 Z-1 
G01 X48.525 Y36.21 Z1 
G01 X45.165 Y36.21 Z-1 
G01 X41.445 Y36.21 Z1 
G01 X38.835 Y36.21 Z-1 
G01 X35.865 Y36.21 Z1 
G01 X34.845 Y36.21 Z-1 
G01 X31.755 Y36.21 Z1 
G01 X31.215 Y36.21 Z-1 
G01 X31.2 Y36.21 Z1 
G00 X31.2 Y36.24 Z1 
G01 X31.185 Y36.24 Z1 
G01 X31.815 Y36.24 Z-1 
G01 X34.875 Y36.24 Z1 
G01 X35.895 Y36.24 Z-1 
G01 X38.865 Y36.24 Z1 
G01 X41.445 Y36.24 Z-1 
G01 X45.105 Y36.24 Z1 
G01 X48.585 Y36.24 Z-1 
G01 X51.255 Y36.24 Z1 
G01 X52.485 Y36.24 Z-1 
G01 X53.085 Y36.24 Z1 
G01 X57.705 Y36.24 Z-1 
G01 X58.875 Y36.24 Z1 
G01 X60.225 Y36.24 Z-1 
G01 X60.795 Y36.24 Z1 
G01 X65.475 Y36.24 Z-1 
G01 X66.795 Y36.24 Z1 
G01 X68.055 Y36.24 Z-1 
G01 X68.655 Y36.24 Z1 
G01 X73.095 Y36.24 Z-1 
G01 X75.585 Y36.24 Z1 
G01 X77.655 Y36.24 Z-1 
G01 X81.465 Y36.24 Z1 
G01 X82.725 Y36.24 Z-1 
G01 X86.985 Y36.24 Z1 
G01 X88.245 Y36.24 Z-1 
G01 X89.445 Y36.24 Z1 
G01 X90.615 Y36.24 Z-1 
G01 X92.085 Y36.24 Z1 
G01 X94.155 Y36.24 Z-1 
G01 X94.755 Y36.24 Z1 
G01 X95.925 Y36.24 Z-1 
G01 X97.065 Y36.24 Z1 
G01 X103.485 Y36.24 Z-1 
G01 X103.5 Y36.24 Z1 
G00 X103.5 Y36.27 Z1 
G01 X103.485 Y36.27 Z1 
G01 X97.065 Y36.27 Z-1 
G01 X95.925 Y36.27 Z1 
G01 X94.755 Y36.27 Z-1 
G01 X94.185 Y36.27 Z1 
G01 X92.115 Y36.27 Z-1 
G01 X90.615 Y36.27 Z1 
G01 X89.445 Y36.27 Z-1 
G01 X88.245 Y36.27 Z1 
G01 X86.985 Y36.27 Z-1 
G01 X82.725 Y36.27 Z1 
G01 X81.465 Y36.27 Z-1 
G01 X77.595 Y36.27 Z1 
G01 X75.555 Y36.27 Z-1 
G01 X73.065 Y36.27 Z1 
G01 X68.655 Y36.27 Z-1 
G01 X68.055 Y36.27 Z1 
G01 X66.795 Y36.27 Z-1 
G01 X65.445 Y36.27 Z1 
G01 X60.795 Y36.27 Z-1 
G01 X60.225 Y36.27 Z1 
G01 X58.875 Y36.27 Z-1 
G01 X57.705 Y36.27 Z1 
G01 X53.085 Y36.27 Z-1 
G01 X52.485 Y36.27 Z1 
G01 X51.255 Y36.27 Z-1 
G01 X48.615 Y36.27 Z1 
G01 X45.075 Y36.27 Z-1 
G01 X41.445 Y36.27 Z1 
G01 X38.865 Y36.27 Z-1 
G01 X35.925 Y36.27 Z1 
G01 X34.905 Y36.27 Z-1 
G01 X31.875 Y36.27 Z1 
G01 X31.185 Y36.27 Z-1 
G01 X31.17 Y36.27 Z1 
G00 X31.17 Y36.3 Z1 
G01 X31.155 Y36.3 Z1 
G01 X31.905 Y36.3 Z-1 
G01 X34.965 Y36.3 Z1 
G01 X35.985 Y36.3 Z-1 
G01 X38.895 Y36.3 Z1 
G01 X41.445 Y36.3 Z-1 
G01 X45.045 Y36.3 Z1 
G01 X48.645 Y36.3 Z-1 
G01 X51.255 Y36.3 Z1 
G01 X52.485 Y36.3 Z-1 
G01 X53.085 Y36.3 Z1 
G01 X57.705 Y36.3 Z-1 
G01 X58.875 Y36.3 Z1 
G01 X60.225 Y36.3 Z-1 
G01 X60.795 Y36.3 Z1 
G01 X65.415 Y36.3 Z-1 
G01 X66.795 Y36.3 Z1 
G01 X68.055 Y36.3 Z-1 
G01 X68.655 Y36.3 Z1 
G01 X73.035 Y36.3 Z-1 
G01 X75.495 Y36.3 Z1 
G01 X77.535 Y36.3 Z-1 
G01 X81.465 Y36.3 Z1 
G01 X82.725 Y36.3 Z-1 
G01 X86.985 Y36.3 Z1 
G01 X88.245 Y36.3 Z-1 
G01 X89.445 Y36.3 Z1 
G01 X90.615 Y36.3 Z-1 
G01 X92.175 Y36.3 Z1 
G01 X94.185 Y36.3 Z-1 
G01 X94.755 Y36.3 Z1 
G01 X95.925 Y36.3 Z-1 
G01 X97.065 Y36.3 Z1 
G01 X103.485 Y36.3 Z-1 
G01 X103.5 Y36.3 Z1 
G00 X103.5 Y36.33 Z1 
G01 X103.485 Y36.33 Z1 
G01 X97.065 Y36.33 Z-1 
G01 X95.925 Y36.33 Z1 
G01 X94.755 Y36.33 Z-1 
G01 X94.185 Y36.33 Z1 
G01 X92.205 Y36.33 Z-1 
G01 X90.615 Y36.33 Z1 
G01 X89.445 Y36.33 Z-1 
G01 X88.245 Y36.33 Z1 
G01 X86.985 Y36.33 Z-1 
G01 X82.725 Y36.33 Z1 
G01 X81.465 Y36.33 Z-1 
G01 X77.505 Y36.33 Z1 
G01 X75.465 Y36.33 Z-1 
G01 X73.035 Y36.33 Z1 
G01 X68.655 Y36.33 Z-1 
G01 X68.055 Y36.33 Z1 
G01 X66.795 Y36.33 Z-1 
G01 X65.385 Y36.33 Z1 
G01 X60.795 Y36.33 Z-1 
G01 X60.225 Y36.33 Z1 
G01 X58.875 Y36.33 Z-1 
G01 X57.705 Y36.33 Z1 
G01 X53.085 Y36.33 Z-1 
G01 X52.485 Y36.33 Z1 
G01 X51.255 Y36.33 Z-1 
G01 X48.705 Y36.33 Z1 
G01 X44.985 Y36.33 Z-1 
G01 X41.445 Y36.33 Z1 
G01 X38.895 Y36.33 Z-1 
G01 X36.015 Y36.33 Z1 
G01 X34.995 Y36.33 Z-1 
G01 X31.965 Y36.33 Z1 
G01 X31.155 Y36.33 Z-1 
G01 X31.14 Y36.33 Z1 
G00 X31.14 Y36.36 Z1 
G01 X31.125 Y36.36 Z1 
G01 X32.025 Y36.36 Z-1 
G01 X35.025 Y36.36 Z1 
G01 X36.045 Y36.36 Z-1 
G01 X38.925 Y36.36 Z1 
G01 X41.445 Y36.36 Z-1 
G01 X44.955 Y36.36 Z1 
G01 X48.735 Y36.36 Z-1 
G01 X51.255 Y36.36 Z1 
G01 X52.485 Y36.36 Z-1 
G01 X53.085 Y36.36 Z1 
G01 X57.705 Y36.36 Z-1 
G01 X58.875 Y36.36 Z1 
G01 X60.225 Y36.36 Z-1 
G01 X60.795 Y36.36 Z1 
G01 X65.325 Y36.36 Z-1 
G01 X66.795 Y36.36 Z1 
G01 X68.055 Y36.36 Z-1 
G01 X68.655 Y36.36 Z1 
G01 X72.975 Y36.36 Z-1 
G01 X75.405 Y36.36 Z1 
G01 X77.445 Y36.36 Z-1 
G01 X81.465 Y36.36 Z1 
G01 X82.725 Y36.36 Z-1 
G01 X86.985 Y36.36 Z1 
G01 X88.245 Y36.36 Z-1 
G01 X89.445 Y36.36 Z1 
G01 X90.615 Y36.36 Z-1 
G01 X92.265 Y36.36 Z1 
G01 X94.185 Y36.36 Z-1 
G01 X94.755 Y36.36 Z1 
G01 X95.925 Y36.36 Z-1 
G01 X97.065 Y36.36 Z1 
G01 X103.485 Y36.36 Z-1 
G01 X103.5 Y36.36 Z1 
G00 X103.5 Y36.39 Z1 
G01 X103.485 Y36.39 Z1 
G01 X97.065 Y36.39 Z-1 
G01 X95.925 Y36.39 Z1 
G01 X94.755 Y36.39 Z-1 
G01 X94.185 Y36.39 Z1 
G01 X92.295 Y36.39 Z-1 
G01 X90.615 Y36.39 Z1 
G01 X89.445 Y36.39 Z-1 
G01 X88.245 Y36.39 Z1 
G01 X86.985 Y36.39 Z-1 
G01 X82.725 Y36.39 Z1 
G01 X81.465 Y36.39 Z-1 
G01 X77.385 Y36.39 Z1 
G01 X75.345 Y36.39 Z-1 
G01 X72.945 Y36.39 Z1 
G01 X68.655 Y36.39 Z-1 
G01 X68.055 Y36.39 Z1 
G01 X66.795 Y36.39 Z-1 
G01 X65.385 Y36.39 Z1 
G01 X60.795 Y36.39 Z-1 
G01 X60.225 Y36.39 Z1 
G01 X58.875 Y36.39 Z-1 
G01 X57.705 Y36.39 Z1 
G01 X53.085 Y36.39 Z-1 
G01 X52.485 Y36.39 Z1 
G01 X51.255 Y36.39 Z-1 
G01 X48.765 Y36.39 Z1 
G01 X44.925 Y36.39 Z-1 
G01 X41.445 Y36.39 Z1 
G01 X38.925 Y36.39 Z-1 
G01 X36.075 Y36.39 Z1 
G01 X35.055 Y36.39 Z-1 
G01 X32.085 Y36.39 Z1 
G01 X31.125 Y36.39 Z-1 
G01 X31.11 Y36.39 Z1 
G00 X31.11 Y36.42 Z1 
G01 X31.095 Y36.42 Z1 
G01 X32.145 Y36.42 Z-1 
G01 X35.115 Y36.42 Z1 
G01 X36.105 Y36.42 Z-1 
G01 X38.955 Y36.42 Z1 
G01 X41.445 Y36.42 Z-1 
G01 X44.895 Y36.42 Z1 
G01 X48.825 Y36.42 Z-1 
G01 X51.255 Y36.42 Z1 
G01 X52.485 Y36.42 Z-1 
G01 X53.085 Y36.42 Z1 
G01 X57.705 Y36.42 Z-1 
G01 X58.875 Y36.42 Z1 
G01 X60.225 Y36.42 Z-1 
G01 X60.795 Y36.42 Z1 
G01 X65.415 Y36.42 Z-1 
G01 X66.795 Y36.42 Z1 
G01 X68.055 Y36.42 Z-1 
G01 X68.655 Y36.42 Z1 
G01 X72.915 Y36.42 Z-1 
G01 X75.315 Y36.42 Z1 
G01 X77.325 Y36.42 Z-1 
G01 X81.465 Y36.42 Z1 
G01 X82.725 Y36.42 Z-1 
G01 X86.985 Y36.42 Z1 
G01 X88.245 Y36.42 Z-1 
G01 X89.445 Y36.42 Z1 
G01 X90.615 Y36.42 Z-1 
G01 X92.355 Y36.42 Z1 
G01 X94.185 Y36.42 Z-1 
G01 X94.755 Y36.42 Z1 
G01 X95.925 Y36.42 Z-1 
G01 X97.065 Y36.42 Z1 
G01 X103.485 Y36.42 Z-1 
G01 X103.5 Y36.42 Z1 
G00 X103.5 Y36.45 Z1 
G01 X103.485 Y36.45 Z1 
G01 X97.065 Y36.45 Z-1 
G01 X95.925 Y36.45 Z1 
G01 X94.755 Y36.45 Z-1 
G01 X94.185 Y36.45 Z1 
G01 X92.385 Y36.45 Z-1 
G01 X90.615 Y36.45 Z1 
G01 X89.445 Y36.45 Z-1 
G01 X88.245 Y36.45 Z1 
G01 X86.985 Y36.45 Z-1 
G01 X82.725 Y36.45 Z1 
G01 X81.465 Y36.45 Z-1 
G01 X77.295 Y36.45 Z1 
G01 X75.255 Y36.45 Z-1 
G01 X72.855 Y36.45 Z1 
G01 X68.655 Y36.45 Z-1 
G01 X68.055 Y36.45 Z1 
G01 X66.795 Y36.45 Z-1 
G01 X65.475 Y36.45 Z1 
G01 X60.795 Y36.45 Z-1 
G01 X60.225 Y36.45 Z1 
G01 X58.875 Y36.45 Z-1 
G01 X57.705 Y36.45 Z1 
G01 X53.085 Y36.45 Z-1 
G01 X52.485 Y36.45 Z1 
G01 X51.255 Y36.45 Z-1 
G01 X48.855 Y36.45 Z1 
G01 X44.865 Y36.45 Z-1 
G01 X41.445 Y36.45 Z1 
G01 X38.955 Y36.45 Z-1 
G01 X36.135 Y36.45 Z1 
G01 X35.145 Y36.45 Z-1 
G01 X32.205 Y36.45 Z1 
G01 X31.095 Y36.45 Z-1 
G01 X31.08 Y36.45 Z1 
G00 X31.08 Y36.48 Z1 
G01 X31.095 Y36.48 Z1 
G01 X32.265 Y36.48 Z-1 
G01 X35.175 Y36.48 Z1 
G01 X36.165 Y36.48 Z-1 
G01 X38.985 Y36.48 Z1 
G01 X41.445 Y36.48 Z-1 
G01 X43.605 Y36.48 Z1 
G01 X46.785 Y36.48 Z-1 
G01 X46.875 Y36.48 Z1 
G01 X50.085 Y36.48 Z-1 
G01 X51.255 Y36.48 Z1 
G01 X52.485 Y36.48 Z-1 
G01 X53.085 Y36.48 Z1 
G01 X57.705 Y36.48 Z-1 
G01 X58.875 Y36.48 Z1 
G01 X60.225 Y36.48 Z-1 
G01 X60.795 Y36.48 Z1 
G01 X65.475 Y36.48 Z-1 
G01 X66.795 Y36.48 Z1 
G01 X68.055 Y36.48 Z-1 
G01 X68.655 Y36.48 Z1 
G01 X72.795 Y36.48 Z-1 
G01 X75.195 Y36.48 Z1 
G01 X77.235 Y36.48 Z-1 
G01 X81.465 Y36.48 Z1 
G01 X82.725 Y36.48 Z-1 
G01 X86.985 Y36.48 Z1 
G01 X88.245 Y36.48 Z-1 
G01 X89.445 Y36.48 Z1 
G01 X90.615 Y36.48 Z-1 
G01 X92.445 Y36.48 Z1 
G01 X94.185 Y36.48 Z-1 
G01 X94.755 Y36.48 Z1 
G01 X95.925 Y36.48 Z-1 
G01 X97.065 Y36.48 Z1 
G01 X98.325 Y36.48 Z-1 
G01 X98.34 Y36.48 Z1 
G00 X98.34 Y36.51 Z1 
G01 X98.325 Y36.51 Z1 
G01 X97.065 Y36.51 Z-1 
G01 X95.925 Y36.51 Z1 
G01 X94.755 Y36.51 Z-1 
G01 X94.185 Y36.51 Z1 
G01 X92.475 Y36.51 Z-1 
G01 X90.615 Y36.51 Z1 
G01 X89.445 Y36.51 Z-1 
G01 X88.245 Y36.51 Z1 
G01 X86.985 Y36.51 Z-1 
G01 X82.725 Y36.51 Z1 
G01 X81.465 Y36.51 Z-1 
G01 X77.175 Y36.51 Z1 
G01 X75.165 Y36.51 Z-1 
G01 X72.705 Y36.51 Z1 
G01 X68.655 Y36.51 Z-1 
G01 X68.055 Y36.51 Z1 
G01 X66.795 Y36.51 Z-1 
G01 X65.505 Y36.51 Z1 
G01 X60.795 Y36.51 Z-1 
G01 X60.225 Y36.51 Z1 
G01 X58.875 Y36.51 Z-1 
G01 X57.705 Y36.51 Z1 
G01 X53.085 Y36.51 Z-1 
G01 X52.485 Y36.51 Z1 
G01 X51.255 Y36.51 Z-1 
G01 X50.115 Y36.51 Z1 
G01 X46.935 Y36.51 Z-1 
G01 X46.755 Y36.51 Z1 
G01 X43.575 Y36.51 Z-1 
G01 X41.445 Y36.51 Z1 
G01 X38.985 Y36.51 Z-1 
G01 X36.195 Y36.51 Z1 
G01 X35.205 Y36.51 Z-1 
G01 X32.295 Y36.51 Z1 
G01 X31.065 Y36.51 Z-1 
G01 X31.05 Y36.51 Z1 
G00 X31.05 Y36.54 Z1 
G01 X31.065 Y36.54 Z1 
G01 X32.355 Y36.54 Z-1 
G01 X35.265 Y36.54 Z1 
G01 X36.225 Y36.54 Z-1 
G01 X39.015 Y36.54 Z1 
G01 X41.445 Y36.54 Z-1 
G01 X43.575 Y36.54 Z1 
G01 X46.695 Y36.54 Z-1 
G01 X46.965 Y36.54 Z1 
G01 X50.115 Y36.54 Z-1 
G01 X51.255 Y36.54 Z1 
G01 X52.485 Y36.54 Z-1 
G01 X53.085 Y36.54 Z1 
G01 X57.705 Y36.54 Z-1 
G01 X58.875 Y36.54 Z1 
G01 X60.225 Y36.54 Z-1 
G01 X60.795 Y36.54 Z1 
G01 X65.535 Y36.54 Z-1 
G01 X66.795 Y36.54 Z1 
G01 X68.055 Y36.54 Z-1 
G01 X68.655 Y36.54 Z1 
G01 X72.555 Y36.54 Z-1 
G01 X75.105 Y36.54 Z1 
G01 X77.145 Y36.54 Z-1 
G01 X81.465 Y36.54 Z1 
G01 X82.725 Y36.54 Z-1 
G01 X86.985 Y36.54 Z1 
G01 X88.245 Y36.54 Z-1 
G01 X89.445 Y36.54 Z1 
G01 X90.615 Y36.54 Z-1 
G01 X92.505 Y36.54 Z1 
G01 X94.185 Y36.54 Z-1 
G01 X94.755 Y36.54 Z1 
G01 X95.925 Y36.54 Z-1 
G01 X97.065 Y36.54 Z1 
G01 X98.325 Y36.54 Z-1 
G01 X98.34 Y36.54 Z1 
G00 X98.34 Y36.57 Z1 
G01 X98.325 Y36.57 Z1 
G01 X97.065 Y36.57 Z-1 
G01 X95.925 Y36.57 Z1 
G01 X94.755 Y36.57 Z-1 
G01 X94.185 Y36.57 Z1 
G01 X92.565 Y36.57 Z-1 
G01 X90.615 Y36.57 Z1 
G01 X89.445 Y36.57 Z-1 
G01 X88.245 Y36.57 Z1 
G01 X86.985 Y36.57 Z-1 
G01 X82.725 Y36.57 Z1 
G01 X81.465 Y36.57 Z-1 
G01 X77.085 Y36.57 Z1 
G01 X75.045 Y36.57 Z-1 
G01 X68.055 Y36.57 Z1 
G01 X66.795 Y36.57 Z-1 
G01 X65.535 Y36.57 Z1 
G01 X60.795 Y36.57 Z-1 
G01 X60.225 Y36.57 Z1 
G01 X58.875 Y36.57 Z-1 
G01 X57.705 Y36.57 Z1 
G01 X53.085 Y36.57 Z-1 
G01 X52.485 Y36.57 Z1 
G01 X51.255 Y36.57 Z-1 
G01 X50.115 Y36.57 Z1 
G01 X46.995 Y36.57 Z-1 
G01 X46.665 Y36.57 Z1 
G01 X43.575 Y36.57 Z-1 
G01 X41.445 Y36.57 Z1 
G01 X39.015 Y36.57 Z-1 
G01 X36.255 Y36.57 Z1 
G01 X35.295 Y36.57 Z-1 
G01 X32.415 Y36.57 Z1 
G01 X31.035 Y36.57 Z-1 
G01 X31.02 Y36.57 Z1 
G00 X31.02 Y36.6 Z1 
G01 X31.035 Y36.6 Z1 
G01 X32.475 Y36.6 Z-1 
G01 X35.325 Y36.6 Z1 
G01 X36.285 Y36.6 Z-1 
G01 X39.045 Y36.6 Z1 
G01 X41.445 Y36.6 Z-1 
G01 X43.575 Y36.6 Z1 
G01 X46.635 Y36.6 Z-1 
G01 X47.055 Y36.6 Z1 
G01 X50.115 Y36.6 Z-1 
G01 X51.255 Y36.6 Z1 
G01 X52.485 Y36.6 Z-1 
G01 X53.085 Y36.6 Z1 
G01 X57.705 Y36.6 Z-1 
G01 X58.875 Y36.6 Z1 
G01 X60.225 Y36.6 Z-1 
G01 X60.795 Y36.6 Z1 
G01 X65.565 Y36.6 Z-1 
G01 X66.795 Y36.6 Z1 
G01 X68.055 Y36.6 Z-1 
G01 X75.015 Y36.6 Z1 
G01 X77.025 Y36.6 Z-1 
G01 X81.465 Y36.6 Z1 
G01 X82.725 Y36.6 Z-1 
G01 X86.985 Y36.6 Z1 
G01 X88.245 Y36.6 Z-1 
G01 X89.445 Y36.6 Z1 
G01 X90.615 Y36.6 Z-1 
G01 X92.595 Y36.6 Z1 
G01 X94.185 Y36.6 Z-1 
G01 X94.755 Y36.6 Z1 
G01 X95.925 Y36.6 Z-1 
G01 X97.065 Y36.6 Z1 
G01 X98.325 Y36.6 Z-1 
G01 X98.34 Y36.6 Z1 
G00 X98.34 Y36.63 Z1 
G01 X98.325 Y36.63 Z1 
G01 X97.065 Y36.63 Z-1 
G01 X95.925 Y36.63 Z1 
G01 X94.755 Y36.63 Z-1 
G01 X94.185 Y36.63 Z1 
G01 X92.655 Y36.63 Z-1 
G01 X90.615 Y36.63 Z1 
G01 X89.445 Y36.63 Z-1 
G01 X88.245 Y36.63 Z1 
G01 X86.985 Y36.63 Z-1 
G01 X82.725 Y36.63 Z1 
G01 X81.465 Y36.63 Z-1 
G01 X76.995 Y36.63 Z1 
G01 X74.955 Y36.63 Z-1 
G01 X68.055 Y36.63 Z1 
G01 X66.795 Y36.63 Z-1 
G01 X65.565 Y36.63 Z1 
G01 X60.795 Y36.63 Z-1 
G01 X60.225 Y36.63 Z1 
G01 X58.875 Y36.63 Z-1 
G01 X57.705 Y36.63 Z1 
G01 X53.085 Y36.63 Z-1 
G01 X52.485 Y36.63 Z1 
G01 X51.255 Y36.63 Z-1 
G01 X50.115 Y36.63 Z1 
G01 X47.085 Y36.63 Z-1 
G01 X46.605 Y36.63 Z1 
G01 X43.575 Y36.63 Z-1 
G01 X41.445 Y36.63 Z1 
G01 X39.075 Y36.63 Z-1 
G01 X36.315 Y36.63 Z1 
G01 X35.385 Y36.63 Z-1 
G01 X32.535 Y36.63 Z1 
G01 X31.005 Y36.63 Z-1 
G01 X30.99 Y36.63 Z1 
G00 X30.99 Y36.66 Z1 
G01 X31.005 Y36.66 Z1 
G01 X32.595 Y36.66 Z-1 
G01 X35.415 Y36.66 Z1 
G01 X36.345 Y36.66 Z-1 
G01 X39.075 Y36.66 Z1 
G01 X41.445 Y36.66 Z-1 
G01 X43.575 Y36.66 Z1 
G01 X46.545 Y36.66 Z-1 
G01 X47.115 Y36.66 Z1 
G01 X50.115 Y36.66 Z-1 
G01 X51.255 Y36.66 Z1 
G01 X52.485 Y36.66 Z-1 
G01 X53.085 Y36.66 Z1 
G01 X57.705 Y36.66 Z-1 
G01 X58.875 Y36.66 Z1 
G01 X60.225 Y36.66 Z-1 
G01 X60.795 Y36.66 Z1 
G01 X65.565 Y36.66 Z-1 
G01 X66.795 Y36.66 Z1 
G01 X68.055 Y36.66 Z-1 
G01 X74.895 Y36.66 Z1 
G01 X76.935 Y36.66 Z-1 
G01 X81.465 Y36.66 Z1 
G01 X82.725 Y36.66 Z-1 
G01 X86.985 Y36.66 Z1 
G01 X88.245 Y36.66 Z-1 
G01 X89.445 Y36.66 Z1 
G01 X90.615 Y36.66 Z-1 
G01 X92.685 Y36.66 Z1 
G01 X94.185 Y36.66 Z-1 
G01 X94.755 Y36.66 Z1 
G01 X95.925 Y36.66 Z-1 
G01 X97.065 Y36.66 Z1 
G01 X98.325 Y36.66 Z-1 
G01 X98.34 Y36.66 Z1 
G00 X98.34 Y36.69 Z1 
G01 X98.325 Y36.69 Z1 
G01 X97.065 Y36.69 Z-1 
G01 X95.925 Y36.69 Z1 
G01 X94.755 Y36.69 Z-1 
G01 X94.185 Y36.69 Z1 
G01 X92.745 Y36.69 Z-1 
G01 X90.615 Y36.69 Z1 
G01 X89.445 Y36.69 Z-1 
G01 X88.245 Y36.69 Z1 
G01 X86.985 Y36.69 Z-1 
G01 X82.725 Y36.69 Z1 
G01 X81.465 Y36.69 Z-1 
G01 X76.875 Y36.69 Z1 
G01 X74.865 Y36.69 Z-1 
G01 X68.055 Y36.69 Z1 
G01 X66.795 Y36.69 Z-1 
G01 X65.595 Y36.69 Z1 
G01 X60.795 Y36.69 Z-1 
G01 X60.225 Y36.69 Z1 
G01 X58.875 Y36.69 Z-1 
G01 X57.705 Y36.69 Z1 
G01 X53.085 Y36.69 Z-1 
G01 X52.485 Y36.69 Z1 
G01 X51.255 Y36.69 Z-1 
G01 X50.115 Y36.69 Z1 
G01 X47.175 Y36.69 Z-1 
G01 X46.515 Y36.69 Z1 
G01 X43.575 Y36.69 Z-1 
G01 X41.445 Y36.69 Z1 
G01 X39.105 Y36.69 Z-1 
G01 X36.375 Y36.69 Z1 
G01 X35.445 Y36.69 Z-1 
G01 X32.655 Y36.69 Z1 
G01 X30.975 Y36.69 Z-1 
G01 X30.96 Y36.69 Z1 
G00 X30.96 Y36.72 Z1 
G01 X30.975 Y36.72 Z1 
G01 X32.715 Y36.72 Z-1 
G01 X35.475 Y36.72 Z1 
G01 X36.405 Y36.72 Z-1 
G01 X39.105 Y36.72 Z1 
G01 X41.445 Y36.72 Z-1 
G01 X43.575 Y36.72 Z1 
G01 X46.485 Y36.72 Z-1 
G01 X47.205 Y36.72 Z1 
G01 X50.115 Y36.72 Z-1 
G01 X51.255 Y36.72 Z1 
G01 X52.485 Y36.72 Z-1 
G01 X53.085 Y36.72 Z1 
G01 X57.705 Y36.72 Z-1 
G01 X58.875 Y36.72 Z1 
G01 X60.225 Y36.72 Z-1 
G01 X60.795 Y36.72 Z1 
G01 X65.595 Y36.72 Z-1 
G01 X66.795 Y36.72 Z1 
G01 X68.055 Y36.72 Z-1 
G01 X74.805 Y36.72 Z1 
G01 X76.845 Y36.72 Z-1 
G01 X81.465 Y36.72 Z1 
G01 X82.725 Y36.72 Z-1 
G01 X86.985 Y36.72 Z1 
G01 X88.245 Y36.72 Z-1 
G01 X89.445 Y36.72 Z1 
G01 X90.615 Y36.72 Z-1 
G01 X92.775 Y36.72 Z1 
G01 X94.185 Y36.72 Z-1 
G01 X94.755 Y36.72 Z1 
G01 X95.925 Y36.72 Z-1 
G01 X97.065 Y36.72 Z1 
G01 X98.325 Y36.72 Z-1 
G01 X98.34 Y36.72 Z1 
G00 X98.34 Y36.75 Z1 
G01 X98.325 Y36.75 Z1 
G01 X97.065 Y36.75 Z-1 
G01 X95.925 Y36.75 Z1 
G01 X94.755 Y36.75 Z-1 
G01 X94.185 Y36.75 Z1 
G01 X92.835 Y36.75 Z-1 
G01 X90.615 Y36.75 Z1 
G01 X89.445 Y36.75 Z-1 
G01 X88.245 Y36.75 Z1 
G01 X86.985 Y36.75 Z-1 
G01 X82.725 Y36.75 Z1 
G01 X81.465 Y36.75 Z-1 
G01 X76.785 Y36.75 Z1 
G01 X74.745 Y36.75 Z-1 
G01 X68.055 Y36.75 Z1 
G01 X66.795 Y36.75 Z-1 
G01 X65.595 Y36.75 Z1 
G01 X60.795 Y36.75 Z-1 
G01 X60.225 Y36.75 Z1 
G01 X58.875 Y36.75 Z-1 
G01 X57.705 Y36.75 Z1 
G01 X53.085 Y36.75 Z-1 
G01 X52.485 Y36.75 Z1 
G01 X51.255 Y36.75 Z-1 
G01 X50.115 Y36.75 Z1 
G01 X47.235 Y36.75 Z-1 
G01 X46.425 Y36.75 Z1 
G01 X43.575 Y36.75 Z-1 
G01 X41.445 Y36.75 Z1 
G01 X39.135 Y36.75 Z-1 
G01 X36.435 Y36.75 Z1 
G01 X35.535 Y36.75 Z-1 
G01 X32.745 Y36.75 Z1 
G01 X30.945 Y36.75 Z-1 
G01 X30.93 Y36.75 Z1 
G00 X30.93 Y36.78 Z1 
G01 X30.945 Y36.78 Z1 
G01 X32.805 Y36.78 Z-1 
G01 X35.565 Y36.78 Z1 
G01 X36.495 Y36.78 Z-1 
G01 X39.135 Y36.78 Z1 
G01 X41.445 Y36.78 Z-1 
G01 X43.575 Y36.78 Z1 
G01 X46.395 Y36.78 Z-1 
G01 X47.295 Y36.78 Z1 
G01 X50.115 Y36.78 Z-1 
G01 X51.255 Y36.78 Z1 
G01 X52.485 Y36.78 Z-1 
G01 X53.085 Y36.78 Z1 
G01 X57.705 Y36.78 Z-1 
G01 X58.875 Y36.78 Z1 
G01 X60.225 Y36.78 Z-1 
G01 X60.795 Y36.78 Z1 
G01 X65.595 Y36.78 Z-1 
G01 X66.795 Y36.78 Z1 
G01 X68.055 Y36.78 Z-1 
G01 X74.715 Y36.78 Z1 
